;FLAVOR:Marlin
;TIME:2734
;Filament used: 1.98377m
;Layer height: 0.2
;MINX:38.32
;MINY:18.648
;MINZ:0.2
;MAXX:90.381
;MAXY:70.711
;MAXZ:12.6
;TARGET_MACHINE.NAME:Creality Ender-3
;Generated with Cura_SteamEngine 5.7.1
M140 S50
M105
M190 S50
M104 S200
M105
M109 S200
M82 ;absolute extrusion mode
; Ender 3 Custom Start G-code
G92 E0 ; Reset Extruder
G28 ; Home all axes
G1 Z2.0 F3000 ; Move Z Axis up little to prevent scratching of Heat Bed
G1 X0.1 Y20 Z0.3 F5000.0 ; Move to start position
G1 X0.1 Y200.0 Z0.3 F1500.0 E15 ; Draw the first line
G1 X0.4 Y200.0 Z0.3 F5000.0 ; Move to side a little
G1 X0.4 Y20 Z0.3 F1500.0 E30 ; Draw the second line
G92 E0 ; Reset Extruder
G1 Z2.0 F3000 ; Move Z Axis up little to prevent scratching of Heat Bed
G1 X5 Y20 Z0.3 F5000.0 ; Move over to prevent blob squish
G92 E0
G92 E0
G1 F2700 E-5
;LAYER_COUNT:63
;LAYER:0
M107
G0 F6000 X42.585 Y30.395 Z0.2
;TYPE:SKIRT
G1 F2700 E0
G1 F1200 X43.311 Y29.357 E0.04213
G1 X43.757 Y28.751 E0.06716
G1 X44.328 Y28.039 E0.09751
G1 X44.977 Y27.3 E0.13022
G1 X45.653 Y26.562 E0.16351
G1 X46.289 Y25.928 E0.19338
G1 X46.996 Y25.283 E0.22521
G1 X47.802 Y24.583 E0.26072
G1 X48.556 Y23.986 E0.2927
G1 X49.545 Y23.273 E0.33326
G1 X50.133 Y22.868 E0.357
G1 X50.938 Y22.365 E0.38857
G1 X52.003 Y21.767 E0.4292
G1 X52.683 Y21.404 E0.45484
G1 X53.498 Y21.014 E0.48489
G1 X54.658 Y20.523 E0.52678
G1 X55.327 Y20.257 E0.55073
G1 X56.177 Y19.961 E0.58066
G1 X57.385 Y19.602 E0.62258
G1 X58.141 Y19.396 E0.64864
G1 X59.024 Y19.195 E0.67876
G1 X59.932 Y19.031 E0.70945
G1 X60.968 Y18.867 E0.74434
G1 X61.957 Y18.756 E0.77744
G1 X63.004 Y18.687 E0.81234
G1 X63.868 Y18.648 E0.8411
G1 X64.801 Y18.648 E0.87213
G1 X65.841 Y18.696 E0.90676
G1 X66.809 Y18.763 E0.93903
G1 X67.758 Y18.87 E0.9708
G1 X68.745 Y19.027 E1.00404
G1 X69.779 Y19.216 E1.039
G1 X70.657 Y19.42 E1.06898
G1 X71.575 Y19.677 E1.10069
G1 X72.546 Y19.969 E1.13441
G1 X73.377 Y20.261 E1.16371
G1 X74.274 Y20.62 E1.19584
G1 X75.22 Y21.024 E1.23005
G1 X76.017 Y21.406 E1.25945
G1 X76.885 Y21.872 E1.29222
G1 X77.814 Y22.399 E1.32774
G1 X78.6 Y22.89 E1.35857
G1 X79.406 Y23.45 E1.39121
G1 X80.27 Y24.081 E1.42679
G1 X80.984 Y24.652 E1.4572
G1 X81.647 Y25.234 E1.48654
G1 X82.431 Y25.95 E1.52186
G1 X83.111 Y26.632 E1.55389
G1 X83.786 Y27.371 E1.58718
G1 X84.478 Y28.168 E1.62228
G1 X85.045 Y28.887 E1.65274
G1 X85.628 Y29.692 E1.6858
G1 X86.158 Y30.46 E1.71683
G1 X86.661 Y31.264 E1.74838
G1 X87.154 Y32.137 E1.78172
G1 X87.613 Y32.99 E1.81394
G1 X88.005 Y33.807 E1.84408
G1 X88.515 Y35.011 E1.88757
G1 X88.776 Y35.67 E1.91114
G1 X89.079 Y36.544 E1.94191
G1 X89.376 Y37.533 E1.97626
G1 X89.635 Y38.482 E2.00898
G1 X89.834 Y39.362 E2.03898
G1 X90.044 Y40.54 E2.07878
G1 X90.17 Y41.343 E2.10582
G1 X90.272 Y42.27 E2.13683
G1 X90.35 Y43.482 E2.17723
G1 X90.381 Y44.241 E2.20249
G1 X90.379 Y45.181 E2.23376
G1 X90.319 Y46.404 E2.27449
G1 X90.264 Y47.168 E2.29996
G1 X90.158 Y48.094 E2.33096
G1 X89.961 Y49.303 E2.3717
G1 X89.823 Y50.055 E2.39713
G1 X89.616 Y50.953 E2.42778
G1 X89.357 Y51.887 E2.46002
G1 X89.061 Y52.873 E2.49426
G1 X88.768 Y53.707 E2.52366
G1 X88.409 Y54.604 E2.5558
G1 X88.005 Y55.55 E2.59001
G1 X87.627 Y56.34 E2.61914
G1 X87.145 Y57.238 E2.65304
G1 X86.629 Y58.148 E2.68783
G1 X86.105 Y58.979 E2.72051
G1 X85.403 Y59.983 E2.76125
G1 X84.961 Y60.586 E2.78612
G1 X84.399 Y61.288 E2.81603
G1 X83.92 Y61.837 E2.84026
G1 X83.08 Y62.76 E2.88177
G1 X82.395 Y63.443 E2.91394
G1 X81.463 Y64.289 E2.95581
G1 X80.91 Y64.768 E2.98014
G1 X80.218 Y65.319 E3.00956
G1 X79.388 Y65.92 E3.04365
G1 X78.567 Y66.487 E3.07683
G1 X77.744 Y67.003 E3.10914
G1 X76.681 Y67.6 E3.14969
G1 X76.031 Y67.947 E3.1742
G1 X75.22 Y68.335 E3.2041
G1 X74.041 Y68.836 E3.24671
G1 X73.372 Y69.102 E3.27065
G1 X72.522 Y69.398 E3.30059
G1 X71.314 Y69.757 E3.3425
G1 X70.558 Y69.963 E3.36856
G1 X69.675 Y70.164 E3.39868
G1 X68.763 Y70.328 E3.4295
G1 X67.725 Y70.492 E3.46446
G1 X66.735 Y70.603 E3.49759
G1 X65.462 Y70.683 E3.54001
G1 X64.73 Y70.711 E3.56438
G1 X63.852 Y70.71 E3.59358
G1 X62.935 Y70.667 E3.62411
G1 X61.891 Y70.596 E3.65892
G1 X60.92 Y70.486 E3.69142
G1 X59.687 Y70.285 E3.73297
G1 X58.92 Y70.143 E3.75891
G1 X58.006 Y69.929 E3.79014
G1 X56.885 Y69.612 E3.82888
G1 X56.115 Y69.377 E3.85566
G1 X55.338 Y69.105 E3.88304
G1 X54.42 Y68.738 E3.91592
G1 X53.473 Y68.333 E3.95018
G1 X52.675 Y67.95 E3.97962
G1 X51.83 Y67.496 E4.01152
G1 X50.897 Y66.967 E4.0472
G1 X50.106 Y66.472 E4.07823
G1 X49.302 Y65.915 E4.11076
G1 X48.493 Y65.327 E4.14403
G1 X47.757 Y64.74 E4.17534
G1 X46.987 Y64.067 E4.20935
G1 X46.263 Y63.404 E4.242
G1 X45.588 Y62.727 E4.2738
G1 X44.913 Y61.989 E4.30707
G1 X44.24 Y61.214 E4.34121
G1 X43.669 Y60.493 E4.3718
G1 X42.945 Y59.486 E4.41305
G1 X42.521 Y58.867 E4.438
G1 X42.03 Y58.08 E4.46885
G1 X41.545 Y57.221 E4.50166
G1 X41.082 Y56.361 E4.53415
G1 X40.686 Y55.535 E4.56462
G1 X40.191 Y54.366 E4.60684
G1 X39.921 Y53.684 E4.63124
G1 X39.613 Y52.796 E4.6625
G1 X39.267 Y51.624 E4.70314
G1 X39.059 Y50.854 E4.72967
G1 X38.856 Y49.958 E4.76022
G1 X38.694 Y49.054 E4.79077
G1 X38.53 Y48.007 E4.82602
G1 X38.43 Y47.124 E4.85558
G1 X38.379 Y46.409 E4.87942
G1 X38.32 Y45.083 E4.92356
G1 X38.321 Y44.123 E4.95549
G1 X38.38 Y42.947 E4.99466
G1 X38.436 Y42.177 E5.02033
G1 X38.542 Y41.259 E5.05107
G1 X38.737 Y40.059 E5.09151
G1 X38.876 Y39.299 E5.1172
G1 X39.093 Y38.367 E5.14903
G1 X39.418 Y37.208 E5.18907
G1 X39.642 Y36.474 E5.21459
G1 X39.917 Y35.687 E5.24232
G1 X40.281 Y34.773 E5.27504
G1 X40.713 Y33.767 E5.31145
G1 X41.12 Y32.922 E5.34265
G1 X41.53 Y32.164 E5.37131
G1 X42.066 Y31.219 E5.40745
G1 X42.585 Y30.395 E5.43984
G0 F6000 X42.913 Y30.624
G1 F1200 X43.633 Y29.594 E5.48163
G1 X44.069 Y29.001 E5.50611
G1 X44.629 Y28.303 E5.53588
G1 X45.272 Y27.57 E5.56831
G1 X45.936 Y26.845 E5.60101
G1 X46.558 Y26.224 E5.63024
G1 X47.259 Y25.585 E5.66179
G1 X48.051 Y24.896 E5.6967
G1 X48.79 Y24.31 E5.72807
G1 X49.772 Y23.602 E5.76834
G1 X50.345 Y23.207 E5.79149
G1 X51.134 Y22.714 E5.82243
G1 X52.191 Y22.12 E5.86276
G1 X52.856 Y21.765 E5.88783
G1 X53.671 Y21.375 E5.91788
G1 X54.806 Y20.895 E5.95887
G1 X55.459 Y20.635 E5.98224
G1 X56.309 Y20.339 E6.01218
G1 X57.49 Y19.988 E6.05316
G1 X58.23 Y19.786 E6.07867
G1 X59.095 Y19.589 E6.10818
G1 X59.995 Y19.426 E6.1386
G1 X61.013 Y19.264 E6.17289
G1 X61.983 Y19.155 E6.20535
G1 X63.022 Y19.087 E6.23998
G1 X63.886 Y19.048 E6.26875
G1 X64.783 Y19.048 E6.29858
G1 X65.814 Y19.095 E6.33291
G1 X66.764 Y19.16 E6.36458
G1 X67.695 Y19.265 E6.39574
G1 X68.673 Y19.421 E6.42868
G1 X69.688 Y19.606 E6.463
G1 X70.566 Y19.81 E6.49298
G1 X71.46 Y20.06 E6.52385
G1 X72.414 Y20.347 E6.55699
G1 X73.228 Y20.632 E6.58567
G1 X74.117 Y20.988 E6.61752
G1 X75.047 Y21.385 E6.65116
G1 X75.844 Y21.767 E6.68055
G1 X76.688 Y22.22 E6.71241
G1 X77.602 Y22.738 E6.74735
G1 X78.372 Y23.219 E6.77755
G1 X79.17 Y23.773 E6.80986
G1 X80.02 Y24.393 E6.84485
G1 X80.72 Y24.953 E6.87467
G1 X81.377 Y25.529 E6.90373
G1 X82.148 Y26.233 E6.93845
G1 X82.816 Y26.902 E6.9699
G1 X83.484 Y27.633 E7.00283
G1 X84.164 Y28.416 E7.03733
G1 X84.721 Y29.121 E7.06721
G1 X85.299 Y29.92 E7.10001
G1 X85.819 Y30.672 E7.13042
G1 X86.313 Y31.461 E7.16138
G1 X86.802 Y32.327 E7.19446
G1 X87.252 Y33.163 E7.22604
G1 X87.644 Y33.98 E7.25618
G1 X88.143 Y35.158 E7.29873
G1 X88.398 Y35.801 E7.32173
G1 X88.696 Y36.659 E7.35194
G1 X88.99 Y37.639 E7.38597
G1 X89.245 Y38.57 E7.41808
G1 X89.44 Y39.432 E7.44747
G1 X89.649 Y40.602 E7.487
G1 X89.772 Y41.387 E7.51343
G1 X89.873 Y42.296 E7.54385
G1 X89.95 Y43.499 E7.58394
G1 X89.981 Y44.24 E7.60861
G1 X89.979 Y45.162 E7.63928
G1 X89.92 Y46.376 E7.6797
G1 X89.867 Y47.122 E7.70458
G1 X89.763 Y48.03 E7.73498
G1 X89.568 Y49.231 E7.77544
G1 X89.433 Y49.965 E7.80027
G1 X89.226 Y50.863 E7.83092
G1 X88.974 Y51.772 E7.86229
G1 X88.683 Y52.741 E7.89594
G1 X88.397 Y53.558 E7.92473
G1 X88.041 Y54.447 E7.95658
G1 X87.644 Y55.377 E7.99022
G1 X87.266 Y56.167 E8.01934
G1 X86.797 Y57.041 E8.05233
G1 X86.291 Y57.935 E8.0865
G1 X85.777 Y58.75 E8.11855
G1 X85.08 Y59.747 E8.15901
G1 X84.649 Y60.336 E8.18328
G1 X84.098 Y61.025 E8.21263
G1 X83.624 Y61.568 E8.2366
G1 X82.797 Y62.477 E8.27747
G1 X82.126 Y63.147 E8.30901
G1 X81.201 Y63.987 E8.35057
G1 X80.661 Y64.455 E8.37434
G1 X79.983 Y64.995 E8.40317
G1 X79.161 Y65.591 E8.43694
G1 X78.355 Y66.148 E8.46952
G1 X77.548 Y66.654 E8.5012
G1 X76.493 Y67.247 E8.54146
G1 X75.858 Y67.586 E8.5654
G1 X75.047 Y67.974 E8.5953
G1 X73.893 Y68.464 E8.637
G1 X73.24 Y68.724 E8.66038
G1 X72.39 Y69.02 E8.69031
G1 X71.209 Y69.371 E8.73129
G1 X70.469 Y69.573 E8.7568
G1 X69.604 Y69.77 E8.78631
G1 X68.7 Y69.933 E8.81686
G1 X67.68 Y70.095 E8.85121
G1 X66.71 Y70.204 E8.88368
G1 X65.446 Y70.283 E8.9258
G1 X64.73 Y70.311 E8.94963
G1 X63.87 Y70.31 E8.97824
G1 X62.962 Y70.268 E9.00847
G1 X61.936 Y70.199 E9.04267
G1 X60.984 Y70.091 E9.07454
G1 X59.76 Y69.892 E9.11578
G1 X59.011 Y69.753 E9.14112
G1 X58.115 Y69.544 E9.17172
G1 X57.002 Y69.23 E9.21019
G1 X56.247 Y68.999 E9.23645
G1 X55.47 Y68.727 E9.26383
G1 X54.577 Y68.37 E9.29581
G1 X53.646 Y67.972 E9.32949
G1 X52.848 Y67.589 E9.35893
G1 X52.027 Y67.148 E9.38993
G1 X51.109 Y66.628 E9.42502
G1 X50.334 Y66.143 E9.45543
G1 X49.537 Y65.591 E9.48767
G1 X48.742 Y65.014 E9.52034
G1 X48.02 Y64.439 E9.55104
G1 X47.257 Y63.772 E9.58475
G1 X46.546 Y63.122 E9.61679
G1 X45.883 Y62.457 E9.64802
G1 X45.215 Y61.726 E9.68096
G1 X44.554 Y60.966 E9.71446
G1 X43.994 Y60.259 E9.74446
G1 X43.275 Y59.26 E9.78539
G1 X42.86 Y58.655 E9.8098
G1 X42.378 Y57.883 E9.84007
G1 X41.897 Y57.032 E9.87258
G1 X41.443 Y56.188 E9.90445
G1 X41.047 Y55.362 E9.93492
G1 X40.563 Y54.218 E9.97624
G1 X40.299 Y53.553 E10.00003
G1 X39.997 Y52.683 E10.03066
G1 X39.653 Y51.519 E10.07103
G1 X39.449 Y50.766 E10.09698
G1 X39.25 Y49.887 E10.12696
G1 X39.089 Y48.992 E10.1572
G1 X38.927 Y47.962 E10.19188
G1 X38.829 Y47.096 E10.22087
G1 X38.779 Y46.391 E10.24438
G1 X38.72 Y45.083 E10.28792
G1 X38.721 Y44.143 E10.31919
G1 X38.779 Y42.976 E10.35805
G1 X38.833 Y42.223 E10.38316
G1 X38.937 Y41.323 E10.41329
G1 X39.13 Y40.131 E10.45346
G1 X39.266 Y39.389 E10.47855
G1 X39.478 Y38.475 E10.50975
G1 X39.801 Y37.325 E10.54948
G1 X40.02 Y36.606 E10.57448
G1 X40.289 Y35.835 E10.60164
G1 X40.649 Y34.931 E10.634
G1 X41.081 Y33.925 E10.67042
G1 X41.472 Y33.112 E10.70042
G1 X41.878 Y32.361 E10.72882
G1 X42.404 Y31.432 E10.76433
G1 X42.913 Y30.624 E10.79609
G0 F6000 X43.241 Y30.853
G1 F1200 X43.955 Y29.831 E10.83755
G1 X44.381 Y29.251 E10.86149
G1 X44.93 Y28.567 E10.89066
G1 X45.567 Y27.84 E10.92281
G1 X46.219 Y27.128 E10.95492
G1 X46.827 Y26.52 E10.98352
G1 X47.522 Y25.887 E11.01478
G1 X48.3 Y25.209 E11.04911
G1 X49.024 Y24.634 E11.07986
G1 X49.999 Y23.931 E11.11984
G1 X50.557 Y23.546 E11.14239
G1 X51.33 Y23.063 E11.1727
G1 X52.379 Y22.473 E11.21273
G1 X53.029 Y22.126 E11.23724
G1 X53.844 Y21.736 E11.26729
G1 X54.954 Y21.267 E11.30737
G1 X55.591 Y21.013 E11.33018
G1 X56.441 Y20.717 E11.36011
G1 X57.596 Y20.374 E11.40019
G1 X58.319 Y20.176 E11.42512
G1 X59.166 Y19.983 E11.45401
G1 X60.058 Y19.821 E11.48417
G1 X61.058 Y19.661 E11.51785
G1 X62.009 Y19.554 E11.54968
G1 X63.04 Y19.487 E11.58404
G1 X63.904 Y19.448 E11.61281
G1 X64.765 Y19.448 E11.64145
G1 X65.787 Y19.494 E11.67547
G1 X66.719 Y19.557 E11.70654
G1 X67.632 Y19.66 E11.7371
G1 X68.601 Y19.814 E11.76973
G1 X69.597 Y19.996 E11.80341
G1 X70.475 Y20.2 E11.83339
G1 X71.345 Y20.443 E11.86343
G1 X72.282 Y20.725 E11.89598
G1 X73.079 Y21.003 E11.92405
G1 X73.96 Y21.356 E11.95562
G1 X74.874 Y21.746 E11.98867
G1 X75.655 Y22.12 E12.01747
G1 X76.491 Y22.568 E12.04902
G1 X77.39 Y23.077 E12.08338
G1 X78.144 Y23.548 E12.11295
G1 X78.934 Y24.096 E12.14493
G1 X79.77 Y24.706 E12.17935
G1 X80.456 Y25.254 E12.20855
G1 X81.107 Y25.824 E12.23733
G1 X81.865 Y26.516 E12.27147
G1 X82.521 Y27.172 E12.30232
G1 X83.182 Y27.896 E12.33493
G1 X83.85 Y28.664 E12.36879
G1 X84.397 Y29.355 E12.3981
G1 X84.97 Y30.148 E12.43064
G1 X85.48 Y30.884 E12.46042
G1 X85.965 Y31.658 E12.4908
G1 X86.45 Y32.516 E12.52358
G1 X86.891 Y33.336 E12.55455
G1 X87.283 Y34.153 E12.58469
G1 X87.771 Y35.306 E12.62633
G1 X88.02 Y35.932 E12.64874
G1 X88.313 Y36.774 E12.67839
G1 X88.604 Y37.745 E12.7121
G1 X88.855 Y38.658 E12.7436
G1 X89.046 Y39.502 E12.77238
G1 X89.254 Y40.664 E12.81164
G1 X89.374 Y41.431 E12.83746
G1 X89.475 Y42.34 E12.86788
G1 X89.55 Y43.516 E12.90707
G1 X89.581 Y44.239 E12.93114
G1 X89.579 Y45.143 E12.96121
G1 X89.521 Y46.348 E13.00134
G1 X89.47 Y47.076 E13.02561
G1 X89.368 Y47.966 E13.0554
G1 X89.175 Y49.159 E13.0956
G1 X89.043 Y49.876 E13.11985
G1 X88.841 Y50.756 E13.14988
G1 X88.591 Y51.657 E13.18098
G1 X88.305 Y52.609 E13.21404
G1 X88.026 Y53.409 E13.24222
G1 X87.673 Y54.29 E13.27379
G1 X87.283 Y55.204 E13.30684
G1 X86.905 Y55.994 E13.33597
G1 X86.449 Y56.844 E13.36805
G1 X85.952 Y57.722 E13.4016
G1 X85.449 Y58.521 E13.43301
G1 X84.757 Y59.511 E13.47318
G1 X84.336 Y60.086 E13.49688
G1 X83.796 Y60.762 E13.52566
G1 X83.328 Y61.299 E13.54935
G1 X82.514 Y62.194 E13.58959
G1 X81.857 Y62.851 E13.62049
G1 X80.939 Y63.685 E13.66175
G1 X80.412 Y64.142 E13.68495
G1 X79.748 Y64.671 E13.71318
G1 X78.933 Y65.262 E13.74667
G1 X78.143 Y65.809 E13.77863
G1 X77.352 Y66.305 E13.80968
G1 X76.304 Y66.894 E13.84966
G1 X75.685 Y67.225 E13.87301
G1 X74.874 Y67.613 E13.90291
G1 X73.745 Y68.092 E13.9437
G1 X73.108 Y68.346 E13.96651
G1 X72.258 Y68.642 E13.99645
G1 X71.103 Y68.985 E14.03652
G1 X70.38 Y69.183 E14.06145
G1 X69.533 Y69.376 E14.09035
G1 X68.637 Y69.538 E14.12063
G1 X67.635 Y69.698 E14.15438
G1 X66.685 Y69.805 E14.18618
G1 X65.43 Y69.883 E14.228
G1 X64.73 Y69.911 E14.2513
G1 X63.888 Y69.91 E14.27931
G1 X62.989 Y69.869 E14.30924
G1 X61.981 Y69.802 E14.34284
G1 X61.048 Y69.696 E14.37407
G1 X59.833 Y69.499 E14.41501
G1 X59.102 Y69.363 E14.43974
G1 X58.224 Y69.159 E14.46972
G1 X57.119 Y68.847 E14.50791
G1 X56.379 Y68.621 E14.53364
G1 X55.602 Y68.349 E14.56102
G1 X54.734 Y68.002 E14.59211
G1 X53.819 Y67.611 E14.62521
G1 X53.037 Y67.236 E14.65405
G1 X52.224 Y66.8 E14.68474
G1 X51.321 Y66.289 E14.71925
G1 X50.562 Y65.814 E14.74903
G1 X49.772 Y65.267 E14.78099
G1 X48.991 Y64.701 E14.81307
G1 X48.283 Y64.138 E14.84315
G1 X47.527 Y63.477 E14.87655
G1 X46.829 Y62.839 E14.90801
G1 X46.178 Y62.187 E14.93865
G1 X45.517 Y61.463 E14.97126
G1 X44.868 Y60.718 E15.00412
G1 X44.319 Y60.025 E15.03353
G1 X43.605 Y59.034 E15.07415
G1 X43.199 Y58.443 E15.098
G1 X42.726 Y57.686 E15.12769
G1 X42.249 Y56.842 E15.15993
G1 X41.804 Y56.015 E15.19117
G1 X41.408 Y55.189 E15.22163
G1 X40.935 Y54.07 E15.26204
G1 X40.677 Y53.422 E15.28524
G1 X40.381 Y52.57 E15.31524
G1 X40.039 Y51.414 E15.35533
G1 X39.839 Y50.678 E15.3807
G1 X39.644 Y49.816 E15.4101
G1 X39.484 Y48.93 E15.44004
G1 X39.324 Y47.917 E15.47415
G1 X39.228 Y47.068 E15.50257
G1 X39.179 Y46.373 E15.52574
G1 X39.12 Y45.083 E15.56869
G1 X39.121 Y44.163 E15.59929
G1 X39.178 Y43.004 E15.63789
G1 X39.23 Y42.269 E15.66239
G1 X39.332 Y41.387 E15.69193
G1 X39.523 Y40.203 E15.73181
G1 X39.656 Y39.479 E15.7563
G1 X39.863 Y38.583 E15.78688
G1 X40.184 Y37.441 E15.82634
G1 X40.398 Y36.738 E15.85078
G1 X40.661 Y35.983 E15.87737
G1 X41.017 Y35.089 E15.90938
G1 X41.442 Y34.098 E15.94524
G1 X41.824 Y33.302 E15.97461
G1 X42.226 Y32.558 E16.00273
G1 X42.743 Y31.645 E16.03763
G1 X43.241 Y30.853 E16.06875
G1 F2700 E11.06875
;MESH:BearingBodyNEW.stl
G0 F6000 X50.221 Y37.803
G0 X67.562 Y58.766
;TYPE:WALL-INNER
G1 F2700 E16.06875
G1 F1200 X69.137 Y58.308 E16.1233
G1 X70.615 Y57.698 E16.17648
G1 X72.032 Y56.915 E16.23033
G1 X73.357 Y55.974 E16.28438
G1 X74.562 Y54.895 E16.33818
G1 X75.646 Y53.684 E16.39224
G1 X76.586 Y52.36 E16.44624
G1 X77.366 Y50.943 E16.50004
G1 X77.98 Y49.465 E16.55327
G1 X78.434 Y47.89 E16.60779
G1 X78.706 Y46.292 E16.6617
G1 X78.795 Y44.677 E16.7155
G1 X78.706 Y43.064 E16.76923
G1 X78.434 Y41.466 E16.82315
G1 X77.98 Y39.891 E16.87766
G1 X77.366 Y38.413 E16.93089
G1 X76.586 Y37 E16.98458
G1 X75.642 Y35.667 E17.0389
G1 X74.563 Y34.461 E17.09273
G1 X73.36 Y33.386 E17.14639
G1 X72.028 Y32.437 E17.20078
G1 X70.615 Y31.658 E17.25445
G1 X69.137 Y31.048 E17.30763
G1 X67.562 Y30.59 E17.36218
G1 X65.964 Y30.322 E17.41608
G1 X64.347 Y30.23 E17.46994
G1 X62.732 Y30.322 E17.52375
