;FLAVOR:Marlin
;TIME:3256
;Filament used: 2.19023m
;Layer height: 0.2
;MINX:1.568
;MINY:13.325
;MINZ:0.2
;MAXX:58.068
;MAXY:69.825
;MAXZ:12
;TARGET_MACHINE.NAME:Creality Ender-3
;Generated with Cura_SteamEngine 5.7.1
M140 S50
M105
M190 S50
M104 S200
M105
M109 S200
M82 ;absolute extrusion mode
; Ender 3 Custom Start G-code
G92 E0 ; Reset Extruder
G28 ; Home all axes
G1 Z2.0 F3000 ; Move Z Axis up little to prevent scratching of Heat Bed
G1 X0.1 Y20 Z0.3 F5000.0 ; Move to start position
G1 X0.1 Y200.0 Z0.3 F1500.0 E15 ; Draw the first line
G1 X0.4 Y200.0 Z0.3 F5000.0 ; Move to side a little
G1 X0.4 Y20 Z0.3 F1500.0 E30 ; Draw the second line
G92 E0 ; Reset Extruder
G1 Z2.0 F3000 ; Move Z Axis up little to prevent scratching of Heat Bed
G1 X5 Y20 Z0.3 F5000.0 ; Move over to prevent blob squish
G92 E0
G92 E0
G1 F2700 E-5
;LAYER_COUNT:60
;LAYER:0
M107
G0 F6000 X7.389 Y14.636 Z0.2
;TYPE:SKIRT
G1 F2700 E0
G1 F1200 X8.267 Y14.215 E0.03239
G1 X9.18 Y13.873 E0.06481
G1 X10.117 Y13.614 E0.09715
G1 X11.084 Y13.436 E0.12985
G1 X12.223 Y13.34 E0.16787
G1 X12.88 Y13.325 E0.18972
G1 X46.372 Y13.325 E1.30367
G1 X47.252 Y13.338 E1.33295
G1 X48.224 Y13.397 E1.36533
G1 X49.187 Y13.543 E1.39773
G1 X50.134 Y13.774 E1.43015
G1 X51.022 Y14.074 E1.46132
G1 X51.914 Y14.464 E1.4937
G1 X52.797 Y14.951 E1.52724
G1 X53.548 Y15.453 E1.55729
G1 X54.363 Y16.111 E1.59213
G1 X55.061 Y16.789 E1.62449
G1 X55.697 Y17.526 E1.65687
G1 X56.267 Y18.316 E1.68927
G1 X56.729 Y19.092 E1.71931
G1 X57.183 Y20.034 E1.75409
G1 X57.512 Y20.912 E1.78527
G1 X57.781 Y21.884 E1.81882
G1 X57.958 Y22.85 E1.85148
G1 X58.053 Y23.98 E1.8892
G1 X58.068 Y24.655 E1.91166
G1 X58.067 Y58.225 E3.0282
G1 X58.056 Y58.988 E3.05358
G1 X57.999 Y59.961 E3.086
G1 X57.854 Y60.924 E3.11839
G1 X57.625 Y61.87 E3.15076
G1 X57.314 Y62.794 E3.18319
G1 X56.922 Y63.685 E3.21556
G1 X56.454 Y64.537 E3.24789
G1 X55.932 Y65.318 E3.27914
G1 X55.299 Y66.103 E3.31268
G1 X54.674 Y66.754 E3.34269
G1 X53.885 Y67.442 E3.37751
G1 X53.125 Y67.992 E3.40871
G1 X52.258 Y68.509 E3.44229
G1 X51.38 Y68.931 E3.47469
G1 X50.469 Y69.273 E3.50705
G1 X49.53 Y69.534 E3.53947
G1 X48.564 Y69.712 E3.57214
G1 X47.413 Y69.81 E3.61056
G1 X46.738 Y69.825 E3.63302
G1 X13.132 Y69.824 E4.75076
G1 X12.399 Y69.813 E4.77514
G1 X11.427 Y69.756 E4.80752
G1 X10.464 Y69.61 E4.83992
G1 X9.518 Y69.381 E4.87229
G1 X8.594 Y69.069 E4.90473
G1 X7.704 Y68.677 E4.93707
G1 X6.881 Y68.226 E4.96829
G1 X6.042 Y67.665 E5.00186
G1 X5.338 Y67.099 E5.0319
G1 X4.585 Y66.374 E5.06667
G1 X3.948 Y65.638 E5.09904
G1 X3.418 Y64.907 E5.12907
G1 X2.882 Y64.01 E5.16383
G1 X2.46 Y63.132 E5.19623
G1 X2.118 Y62.22 E5.22862
G1 X1.858 Y61.282 E5.261
G1 X1.68 Y60.313 E5.29377
G1 X1.582 Y59.134 E5.33312
G1 X1.568 Y58.483 E5.35477
G1 X1.569 Y24.85 E6.47341
G1 X1.58 Y24.15 E6.4967
G1 X1.638 Y23.177 E6.52912
G1 X1.784 Y22.214 E6.56151
G1 X2.014 Y21.268 E6.59389
G1 X2.327 Y20.345 E6.62631
G1 X2.719 Y19.455 E6.65865
G1 X3.189 Y18.602 E6.69105
G1 X3.732 Y17.794 E6.72342
G1 X4.299 Y17.09 E6.75349
G1 X5.024 Y16.338 E6.78823
G1 X5.76 Y15.701 E6.82061
G1 X6.492 Y15.171 E6.85067
G1 X7.389 Y14.636 E6.8854
G0 F6000 X7.563 Y14.996
G1 F1200 X8.408 Y14.589 E6.9166
G1 X9.287 Y14.258 E6.94784
G1 X10.19 Y14.007 E6.97901
G1 X11.118 Y13.835 E7.0104
G1 X12.257 Y13.739 E7.04842
G1 X12.889 Y13.725 E7.06944
G1 X46.366 Y13.725 E8.18289
G1 X47.228 Y13.737 E8.21157
G1 X48.165 Y13.793 E8.24279
G1 X49.093 Y13.932 E8.274
G1 X50.006 Y14.153 E8.30524
G1 X50.862 Y14.441 E8.33528
G1 X51.754 Y14.831 E8.36766
G1 X52.575 Y15.284 E8.39885
G1 X53.326 Y15.786 E8.42889
G1 X54.085 Y16.398 E8.46132
G1 X54.759 Y17.051 E8.49253
G1 X55.373 Y17.76 E8.52373
G1 X55.923 Y18.521 E8.55496
G1 X56.385 Y19.297 E8.585
G1 X56.808 Y20.174 E8.61738
G1 X57.137 Y21.052 E8.64857
G1 X57.388 Y21.957 E8.6798
G1 X57.559 Y22.884 E8.71116
G1 X57.654 Y24.014 E8.74887
G1 X57.668 Y24.655 E8.7702
G1 X57.667 Y58.22 E9.88657
G1 X57.657 Y58.965 E9.91135
G1 X57.603 Y59.902 E9.94257
G1 X57.465 Y60.831 E9.97381
G1 X57.246 Y61.743 E10.005
G1 X56.948 Y62.633 E10.03622
G1 X56.571 Y63.493 E10.06745
G1 X56.121 Y64.315 E10.09862
G1 X55.599 Y65.096 E10.12986
G1 X55.01 Y65.826 E10.16106
G1 X54.385 Y66.477 E10.19108
G1 X53.65 Y67.118 E10.22351
G1 X52.89 Y67.668 E10.25472
G1 X52.084 Y68.149 E10.28594
G1 X51.239 Y68.557 E10.31715
G1 X50.361 Y68.888 E10.34835
G1 X49.457 Y69.141 E10.37958
G1 X48.53 Y69.313 E10.41093
G1 X47.379 Y69.411 E10.44936
G1 X46.738 Y69.425 E10.47068
G1 X13.138 Y69.424 E11.58822
G1 X12.422 Y69.414 E11.61204
G1 X11.486 Y69.36 E11.64322
G1 X10.557 Y69.221 E11.67446
G1 X9.645 Y69.002 E11.70566
G1 X8.755 Y68.703 E11.73689
G1 X7.896 Y68.326 E11.76809
G1 X7.073 Y67.875 E11.7993
G1 X6.293 Y67.353 E11.83052
G1 X5.589 Y66.787 E11.86056
G1 X4.887 Y66.112 E11.89295
G1 X4.272 Y65.403 E11.92417
G1 X3.742 Y64.672 E11.9542
G1 X3.242 Y63.836 E11.9866
G1 X2.834 Y62.991 E12.01781
G1 X2.503 Y62.113 E12.04902
G1 X2.251 Y61.209 E12.08023
G1 X2.079 Y60.28 E12.11166
G1 X1.981 Y59.101 E12.151
G1 X1.968 Y58.483 E12.17156
G1 X1.969 Y24.856 E13.29
G1 X1.979 Y24.173 E13.31272
G1 X2.034 Y23.236 E13.34394
G1 X2.173 Y22.308 E13.37515
G1 X2.393 Y21.396 E13.40635
G1 X2.693 Y20.506 E13.43759
G1 X3.07 Y19.647 E13.46879
G1 X3.521 Y18.825 E13.49998
G1 X4.044 Y18.045 E13.53121
G1 X4.611 Y17.341 E13.56128
G1 X5.286 Y16.64 E13.59364
G1 X5.995 Y16.025 E13.62486
G1 X6.727 Y15.495 E13.65492
G1 X7.563 Y14.996 E13.6873
G0 F6000 X7.737 Y15.356
G1 F1200 X8.55 Y14.963 E13.71733
G1 X9.395 Y14.643 E13.74739
G1 X10.264 Y14.4 E13.7774
G1 X11.152 Y14.234 E13.80745
G1 X12.291 Y14.138 E13.84546
G1 X12.898 Y14.125 E13.86566
G1 X46.361 Y14.125 E14.97864
G1 X47.205 Y14.136 E15.00671
G1 X48.107 Y14.189 E15.03677
G1 X49 Y14.321 E15.06679
G1 X49.878 Y14.532 E15.09682
G1 X50.734 Y14.82 E15.12686
G1 X51.561 Y15.182 E15.15689
G1 X52.353 Y15.617 E15.18694
G1 X53.104 Y16.119 E15.21699
G1 X53.807 Y16.686 E15.24703
G1 X54.457 Y17.313 E15.27707
G1 X55.049 Y17.995 E15.3071
G1 X55.579 Y18.726 E15.33713
G1 X56.041 Y19.502 E15.36717
G1 X56.434 Y20.315 E15.39721
G1 X56.752 Y21.16 E15.42723
G1 X56.995 Y22.03 E15.45728
G1 X57.16 Y22.918 E15.48732
G1 X57.255 Y24.048 E15.52504
G1 X57.268 Y24.655 E15.54523
G1 X57.267 Y58.215 E16.66144
G1 X57.258 Y58.942 E16.68562
G1 X57.207 Y59.844 E16.71567
G1 X57.076 Y60.738 E16.74572
G1 X56.867 Y61.616 E16.77574
G1 X56.581 Y62.473 E16.80579
G1 X56.22 Y63.301 E16.83583
G1 X55.788 Y64.093 E16.86584
G1 X55.287 Y64.845 E16.89589
G1 X54.721 Y65.549 E16.92594
G1 X54.096 Y66.2 E16.95595
G1 X53.415 Y66.794 E16.98601
G1 X52.684 Y67.325 E17.01606
G1 X51.91 Y67.789 E17.04607
G1 X51.097 Y68.183 E17.07612
G1 X50.253 Y68.503 E17.10614
G1 X49.383 Y68.748 E17.13621
G1 X48.496 Y68.914 E17.16622
G1 X47.345 Y69.012 E17.20464
G1 X46.738 Y69.025 E17.22483
G1 X13.143 Y69.024 E18.34221
G1 X12.445 Y69.015 E18.36543
G1 X11.544 Y68.964 E18.39544
G1 X10.65 Y68.832 E18.4255
G1 X9.772 Y68.623 E18.45552
G1 X8.915 Y68.336 E18.48558
G1 X8.088 Y67.975 E18.51559
G1 X7.295 Y67.542 E18.54564
G1 X6.544 Y67.041 E18.57567
G1 X5.84 Y66.475 E18.60571
G1 X5.189 Y65.849 E18.63575
G1 X4.596 Y65.168 E18.66578
G1 X4.066 Y64.437 E18.69581
G1 X3.602 Y63.662 E18.72586
G1 X3.208 Y62.849 E18.75591
G1 X2.888 Y62.005 E18.78593
G1 X2.644 Y61.135 E18.81598
G1 X2.478 Y60.247 E18.84603
G1 X2.381 Y59.092 E18.88458
G1 X2.368 Y58.483 E18.90484
G1 X2.369 Y24.861 E20.02311
G1 X2.378 Y24.196 E20.04523
G1 X2.43 Y23.294 E20.07528
G1 X2.562 Y22.401 E20.1053
G1 X2.772 Y21.523 E20.13533
G1 X3.059 Y20.666 E20.16539
G1 X3.421 Y19.839 E20.19542
G1 X3.854 Y19.047 E20.22544
G1 X4.356 Y18.296 E20.25548
G1 X4.923 Y17.592 E20.28555
G1 X5.549 Y16.942 E20.31556
G1 X6.23 Y16.349 E20.3456
G1 X6.962 Y15.819 E20.37566
G1 X7.737 Y15.356 E20.40568
G1 F2700 E15.40568
;MESH:linkCover-Bodyy.stl
G0 F6000 X14.958 Y26.044
G0 X44.993 Y56.749
;TYPE:WALL-INNER
G1 F2700 E20.40568
G1 F1200 X44.655 Y56.924 E20.41834
G1 X15.068 Y56.924 E21.40241
G1 X14.643 Y56.749 E21.4177
G1 X14.468 Y56.411 E21.43035
G1 X14.468 Y26.824 E22.41442
G1 X14.643 Y26.399 E22.42971
G1 X14.981 Y26.224 E22.44237
G1 X44.568 Y26.224 E23.42644
G1 X44.993 Y26.399 E23.44172
G1 X45.168 Y26.824 E23.45701
G1 X45.168 Y56.413 E24.44114
G1 X44.993 Y56.749 E24.45375
G1 F2700 E19.45375
G0 F6000 X45.038 Y56.795
G0 X45.121 Y58.024
G0 X46.468 Y58.224
G1 F2700 E24.45375
G1 F1200 X46.468 Y24.924 E25.56131
G1 X13.168 Y24.924 E26.66887
G1 X13.168 Y58.224 E27.77643
G1 X46.468 Y58.224 E28.884
G0 F6000 X46.868 Y58.624
;TYPE:WALL-OUTER
G1 F1200 X46.868 Y24.524 E30.01817
G1 X12.768 Y24.524 E31.15234
G1 X12.768 Y58.624 E32.28651
G1 X46.868 Y58.624 E33.42068
G1 F2700 E28.42068
G0 F6000 X46.598 Y58.355
G0 X46.268 Y56.466
G0 X45.349 Y56.437
G0 X44.71 Y56.466
G1 F2700 E33.42068
G1 F1200 X44.603 Y56.521 E33.42468
G1 X15.068 Y56.524 E34.40702
G1 X14.926 Y56.466 E34.41212
G1 X14.871 Y56.359 E34.41612
G1 X14.868 Y26.824 E35.39846
G1 X14.926 Y26.682 E35.40356
G1 X15.033 Y26.627 E35.40756
G1 X44.568 Y26.624 E36.3899
G1 X44.71 Y26.682 E36.395
G1 X44.768 Y26.824 E36.4001
G1 X44.766 Y56.359 E37.38244
G1 X44.71 Y56.466 E37.38646
G1 F2700 E32.38646
G0 F6000 X45.068 Y56.466
G0 X45.121 Y56.877
G0 X45.121 Y58.024
G0 X46.108 Y57.864
;TYPE:SKIN
G1 F2700 E37.38646
G1 F1200 X45.398 Y57.864 E37.41007
G1 F1121.5 X44.911 Y57.836 E37.42743
G1 F1010.5 X44.757 Y57.817 E37.43356
G1 F975.6 X15.076 Y57.819 E38.64781
G1 F1027.8 X14.88 Y57.841 E38.65547
G1 F1137.4 X14.287 Y57.864 E38.67629
G1 F1200 X13.528 Y57.864 E38.70154
G1 X13.528 Y57.146 E38.72542
G1 F1121.5 X13.557 Y56.665 E38.74257
G1 F1010.5 X13.575 Y56.513 E38.74861
G1 F975.6 X13.573 Y26.832 E39.96286
G1 F1025.6 X13.551 Y26.639 E39.97042
G1 F1134.8 X13.528 Y26.047 E39.99126
G1 F1200 X13.528 Y25.284 E40.01664
G1 X14.244 Y25.285 E40.04045
G1 F1118.9 X14.729 Y25.313 E40.05778
G1 F1008.4 X14.879 Y25.331 E40.06376
G1 F975.6 X44.56 Y25.329 E41.27801
G1 F1027.8 X44.755 Y25.306 E41.28563
G1 F1137.4 X45.34 Y25.284 E41.30617
G1 F1200 X46.108 Y25.284 E41.33172
G1 X46.108 Y26.043 E41.35696
G1 F1137.4 X46.086 Y26.63 E41.37757
G1 F1027.8 X46.063 Y26.828 E41.38531
G1 F977.6 X46.062 Y56.513 E42.59726
G1 F1012.7 X46.08 Y56.667 E42.60337
G1 F1121.5 X46.108 Y57.154 E42.62073
G1 F1200 X46.108 Y57.864 E42.64434
G0 F6000 X46.108 Y58.124
G0 X45.065 Y58.024
G0 X44.679 Y57.105
G0 X45.246 Y57.002
G1 F1076.2 X45.572 Y56.471 E42.66745
G1 F977.6 X45.573 Y26.828 E43.87768
G1 F1004.2 X45.251 Y26.137 E43.90798
G1 X44.56 Y25.819 E43.93821
G1 F975.6 X14.921 Y25.82 E45.15074
G1 F1023.5 X14.372 Y26.153 E45.17578
G1 F1027.8 X14.063 Y26.832 E45.20475
G1 F975.6 X14.064 Y56.471 E46.41728
G1 F1023.5 X14.398 Y57.016 E46.44221
G1 F1027.8 X15.076 Y57.329 E46.47121
G1 F975.6 X44.715 Y57.328 E47.68374
G1 F1073.8 X45.246 Y57.002 E47.7069
G1 F2700 E42.7069
G0 F6000 X45.065 Y56.821
G0 X45.349 Y26.827
G0 X46.268 Y26.827
G0 X45.849 Y25.484
G1 F2700 E47.7069
G1 F1200 X45.908 Y25.544 E47.7097
G0 F6000 X45.904 Y26.105
G1 F1200 X45.287 Y25.488 E47.73872
G0 F6000 X45.049 Y25.816
G1 F1200 X44.762 Y25.529 E47.75222
G0 F6000 X44.544 Y26.124
G0 X45.138 Y26.527
G0 X45.579 Y26.346
G1 F1200 X45.863 Y26.63 E47.76558
G1 F2700 E42.76558
G0 F6000 X46.368 Y26.63
G0 X46.268 Y56.661
G0 X45.349 Y56.437
G0 X45.566 Y56.88
G1 F2700 E47.76558
G1 F1200 X45.908 Y57.222 E47.78166
G0 F6000 X45.784 Y57.664
G1 F1200 X45.315 Y57.194 E47.80375
G0 F6000 X44.978 Y57.423
G1 F1200 X45.195 Y57.64 E47.81395
G1 F2700 E42.81395
G0 F6000 X45.195 Y58.124
G0 X14.643 Y58.124
G0 X14.643 Y57.636
G1 F2700 E47.81395
G1 F1200 X13.773 Y56.765 E47.8549
G0 F6000 X13.728 Y57.286
G1 F1200 X14.106 Y57.664 E47.87268
G1 F2700 E42.87268
G0 F6000 X14.106 Y58.124
G0 X14.453 Y58.024
G0 X14.668 Y56.725
G0 X14.006 Y26.451
G1 F2700 E47.87268
G1 F1200 X13.738 Y26.183 E47.88529
G0 F6000 X14.192 Y26.072
G1 F1200 X13.728 Y25.607 E47.90713
G0 F6000 X14.172 Y25.486
G1 F1200 X14.511 Y25.824 E47.92306
G1 F2700 E42.92306
;MESH:NONMESH
G0 F300 X14.511 Y25.824 Z0.4
G0 F6000 X15.051 Y26.124
G0 X14.516 Y26.271
G0 X7.737 Y15.356
;TIME_ELAPSED:85.077172
;LAYER:1
M106 S85
;TYPE:SKIRT
G1 F2700 E47.92306
G1 F1200 X8.55 Y14.963 E47.95309
G1 X9.395 Y14.643 E47.98314
G1 X10.264 Y14.4 E48.01315
G1 X11.152 Y14.234 E48.0432
G1 X12.291 Y14.138 E48.08122
G1 X12.898 Y14.125 E48.10141
G1 X46.361 Y14.125 E49.2144
G1 X47.205 Y14.136 E49.24247
G1 X48.107 Y14.189 E49.27252
G1 X49 Y14.321 E49.30255
G1 X49.878 Y14.532 E49.33258
G1 X50.734 Y14.82 E49.36262
G1 X51.561 Y15.182 E49.39264
G1 X52.353 Y15.617 E49.4227
G1 X53.104 Y16.119 E49.45274
G1 X53.807 Y16.686 E49.48278
G1 X54.457 Y17.313 E49.51282
G1 X55.049 Y17.995 E49.54286
G1 X55.579 Y18.726 E49.57289
G1 X56.041 Y19.502 E49.60293
G1 X56.434 Y20.315 E49.63296
G1 X56.752 Y21.16 E49.66299
G1 X56.995 Y22.03 E49.69303
G1 X57.16 Y22.918 E49.72307
G1 X57.255 Y24.048 E49.76079
G1 X57.268 Y24.655 E49.78098
G1 X57.267 Y58.215 E50.89719
G1 X57.258 Y58.942 E50.92138
G1 X57.207 Y59.844 E50.95143
G1 X57.076 Y60.738 E50.98148
G1 X56.867 Y61.616 E51.0115
G1 X56.581 Y62.473 E51.04154
G1 X56.22 Y63.301 E51.07159
G1 X55.788 Y64.093 E51.10159
G1 X55.287 Y64.845 E51.13165
G1 X54.721 Y65.549 E51.16169
G1 X54.096 Y66.2 E51.19171
G1 X53.415 Y66.794 E51.22176
G1 X52.684 Y67.325 E51.25181
G1 X51.91 Y67.789 E51.28183
G1 X51.097 Y68.183 E51.31188
G1 X50.253 Y68.503 E51.3419
G1 X49.383 Y68.748 E51.37196
G1 X48.496 Y68.914 E51.40198
G1 X47.345 Y69.012 E51.4404
G1 X46.738 Y69.025 E51.46059
G1 X13.143 Y69.024 E52.57796
G1 X12.445 Y69.015 E52.60118
G1 X11.544 Y68.964 E52.6312
G1 X10.65 Y68.832 E52.66125
G1 X9.772 Y68.623 E52.69127
G1 X8.915 Y68.336 E52.72133
G1 X8.088 Y67.975 E52.75134
G1 X7.295 Y67.542 E52.7814
G1 X6.544 Y67.041 E52.81142
G1 X5.84 Y66.475 E52.84147
G1 X5.189 Y65.849 E52.8715
G1 X4.596 Y65.168 E52.90154
G1 X4.066 Y64.437 E52.93157
G1 X3.602 Y63.662 E52.96161
G1 X3.208 Y62.849 E52.99166
G1 X2.888 Y62.005 E53.02168
G1 X2.644 Y61.135 E53.05174
G1 X2.478 Y60.247 E53.08178
G1 X2.381 Y59.092 E53.12033
G1 X2.368 Y58.483 E53.14059
G1 X2.369 Y24.861 E54.25887
G1 X2.378 Y24.196 E54.28099
G1 X2.43 Y23.294 E54.31104
G1 X2.562 Y22.401 E54.34106
G1 X2.772 Y21.523 E54.37109
G1 X3.059 Y20.666 E54.40115
G1 X3.421 Y19.839 E54.43117
G1 X3.854 Y19.047 E54.46119
G1 X4.356 Y18.296 E54.49124
G1 X4.923 Y17.592 E54.5213
G1 X5.549 Y16.942 E54.55132
G1 X6.23 Y16.349 E54.58135
G1 X6.962 Y15.819 E54.61141
G1 X7.737 Y15.356 E54.64144
G1 F2700 E49.64144
;MESH:linkCover-Bodyy.stl
G0 F7500 X14.958 Y26.044
G0 X44.993 Y56.749
;TYPE:WALL-INNER
G1 F2700 E54.64144
G1 F1350 X44.655 Y56.924 E54.6541
G1 X15.068 Y56.924 E55.63816
G1 X14.643 Y56.749 E55.65345
G1 X14.468 Y56.411 E55.66611
G1 X14.468 Y26.824 E56.65018
G1 X14.643 Y26.399 E56.66546
G1 X14.981 Y26.224 E56.67812
G1 X44.568 Y26.224 E57.66219
G1 X44.993 Y26.399 E57.67748
G1 X45.168 Y26.824 E57.69277
G1 X45.168 Y56.413 E58.6769
G1 X44.993 Y56.749 E58.6895
G1 F2700 E53.6895
G0 F7500 X45.038 Y56.795
G0 X45.121 Y58.024
G0 X46.468 Y58.224
G1 F2700 E58.6895
G1 F1350 X46.468 Y24.924 E59.79706
G1 X13.168 Y24.924 E60.90463
G1 X13.168 Y58.224 E62.01219
G1 X46.468 Y58.224 E63.11975
G0 F7500 X46.868 Y58.624
;TYPE:WALL-OUTER
G1 F1350 X46.868 Y24.524 E64.25392
G1 X12.768 Y24.524 E65.38809
G1 X12.768 Y58.624 E66.52226
G1 X46.868 Y58.624 E67.65643
G1 F2700 E62.65643
G0 F7500 X46.598 Y58.355
G0 X46.268 Y56.466
G0 X45.349 Y56.437
G0 X44.71 Y56.466
G1 F2700 E67.65643
G1 F1350 X44.603 Y56.521 E67.66043
G1 X15.068 Y56.524 E68.64277
G1 X14.926 Y56.466 E68.64787
G1 X14.871 Y56.359 E68.65188
G1 X14.868 Y26.824 E69.63421
G1 X14.926 Y26.682 E69.63932
G1 X15.033 Y26.627 E69.64332
G1 X44.568 Y26.624 E70.62565
G1 X44.71 Y26.682 E70.63076
G1 X44.768 Y26.824 E70.63586
G1 X44.766 Y56.359 E71.6182
G1 X44.71 Y56.466 E71.62221
G1 F2700 E66.62221
G0 F7500 X45.068 Y56.466
G0 X45.349 Y26.827
G0 X46.268 Y26.827
G0 X45.684 Y25.782
;TYPE:SKIN
G1 F2700 E71.62221
G1 F906 X45.647 Y25.846 E71.62588
G1 X45.574 Y25.846 E71.62949
G1 X45.536 Y25.782 E71.63318
G1 X45.573 Y25.718 E71.63685
G1 X45.646 Y25.718 E71.64046
G1 F2700 E66.64046
G0 F7500 X45.646 Y25.024
G0 X14.067 Y25.024
G0 X14.067 Y25.72
G1 F2700 E71.64046
G1 F897 X13.993 Y25.72 E71.64417
G1 X13.955 Y25.784 E71.64789
G1 X13.993 Y25.848 E71.65162
