;FLAVOR:Marlin
;TIME:3524
;Filament used: 2.3641m
;Layer height: 0.2
;MINX:80.738
;MINY:25.238
;MINZ:0.2
;MAXX:137.738
;MAXY:82.238
;MAXZ:12
;TARGET_MACHINE.NAME:Creality Ender-3
;Generated with Cura_SteamEngine 5.7.1
M140 S50
M105
M190 S50
M104 S200
M105
M109 S200
M82 ;absolute extrusion mode
; Ender 3 Custom Start G-code
G92 E0 ; Reset Extruder
G28 ; Home all axes
G1 Z2.0 F3000 ; Move Z Axis up little to prevent scratching of Heat Bed
G1 X0.1 Y20 Z0.3 F5000.0 ; Move to start position
G1 X0.1 Y200.0 Z0.3 F1500.0 E15 ; Draw the first line
G1 X0.4 Y200.0 Z0.3 F5000.0 ; Move to side a little
G1 X0.4 Y20 Z0.3 F1500.0 E30 ; Draw the second line
G92 E0 ; Reset Extruder
G1 Z2.0 F3000 ; Move Z Axis up little to prevent scratching of Heat Bed
G1 X5 Y20 Z0.3 F5000.0 ; Move over to prevent blob squish
G92 E0
G92 E0
G1 F2700 E-5
;LAYER_COUNT:60
;LAYER:0
M107
G0 F6000 X81.497 Y32.258 Z0.2
;TYPE:SKIRT
G1 F2700 E0
G1 F1200 X81.889 Y31.368 E0.03235
G1 X82.359 Y30.515 E0.06474
G1 X82.902 Y29.707 E0.09712
G1 X83.469 Y29.003 E0.12718
G1 X84.194 Y28.251 E0.16192
G1 X84.93 Y27.614 E0.1943
G1 X85.662 Y27.084 E0.22436
G1 X86.559 Y26.549 E0.2591
G1 X87.437 Y26.128 E0.29148
G1 X88.35 Y25.786 E0.32391
G1 X89.287 Y25.527 E0.35624
G1 X90.254 Y25.349 E0.38894
G1 X91.393 Y25.253 E0.42696
G1 X92.05 Y25.238 E0.44882
G1 X126.042 Y25.238 E1.5794
G1 X126.922 Y25.251 E1.60867
G1 X127.894 Y25.31 E1.64106
G1 X128.857 Y25.456 E1.67345
G1 X129.804 Y25.687 E1.70588
G1 X130.692 Y25.987 E1.73705
G1 X131.584 Y26.377 E1.76943
G1 X132.467 Y26.864 E1.80297
G1 X133.218 Y27.366 E1.83301
G1 X134.033 Y28.024 E1.86785
G1 X134.731 Y28.702 E1.90022
G1 X135.367 Y29.439 E1.9326
G1 X135.937 Y30.229 E1.965
G1 X136.399 Y31.005 E1.99503
G1 X136.853 Y31.947 E2.02981
G1 X137.182 Y32.825 E2.061
G1 X137.451 Y33.797 E2.09454
G1 X137.628 Y34.763 E2.12721
G1 X137.723 Y35.893 E2.16492
G1 X137.738 Y36.568 E2.18738
G1 X137.737 Y70.638 E3.32055
G1 X137.726 Y71.401 E3.34593
G1 X137.669 Y72.374 E3.37835
G1 X137.524 Y73.337 E3.41074
G1 X137.295 Y74.283 E3.44311
G1 X136.984 Y75.207 E3.47554
G1 X136.592 Y76.098 E3.50792
G1 X136.124 Y76.95 E3.54025
G1 X135.602 Y77.731 E3.57149
G1 X134.969 Y78.516 E3.60503
G1 X134.344 Y79.167 E3.63505
G1 X133.555 Y79.855 E3.66987
G1 X132.795 Y80.405 E3.70107
G1 X131.928 Y80.922 E3.73464
G1 X131.05 Y81.344 E3.76704
G1 X130.139 Y81.686 E3.79941
G1 X129.2 Y81.947 E3.83182
G1 X128.234 Y82.125 E3.86449
G1 X127.083 Y82.223 E3.90292
G1 X126.408 Y82.238 E3.92537
G1 X92.302 Y82.237 E5.05974
G1 X91.569 Y82.226 E5.08412
G1 X90.597 Y82.169 E5.11651
G1 X89.634 Y82.023 E5.1489
G1 X88.688 Y81.794 E5.18128
G1 X87.764 Y81.482 E5.21371
G1 X86.874 Y81.09 E5.24606
G1 X86.051 Y80.639 E5.27727
G1 X85.212 Y80.078 E5.31084
G1 X84.508 Y79.512 E5.34089
G1 X83.755 Y78.787 E5.37565
G1 X83.118 Y78.051 E5.40803
G1 X82.588 Y77.32 E5.43806
G1 X82.052 Y76.423 E5.47281
G1 X81.63 Y75.545 E5.50521
G1 X81.288 Y74.633 E5.53761
G1 X81.028 Y73.695 E5.56998
G1 X80.85 Y72.726 E5.60275
G1 X80.752 Y71.547 E5.6421
G1 X80.738 Y70.896 E5.66376
G1 X80.739 Y36.763 E6.79903
G1 X80.75 Y36.063 E6.82231
G1 X80.808 Y35.09 E6.85473
G1 X80.954 Y34.127 E6.88713
G1 X81.184 Y33.181 E6.91951
G1 X81.497 Y32.258 E6.95192
G0 F6000 X81.863 Y32.419
G1 F1200 X82.24 Y31.56 E6.98312
G1 X82.691 Y30.738 E7.01431
G1 X83.214 Y29.958 E7.04554
G1 X83.781 Y29.254 E7.07561
G1 X84.456 Y28.553 E7.10798
G1 X85.165 Y27.938 E7.13919
G1 X85.897 Y27.408 E7.16925
G1 X86.733 Y26.909 E7.20163
G1 X87.578 Y26.502 E7.23283
G1 X88.457 Y26.171 E7.26407
G1 X89.36 Y25.92 E7.29524
G1 X90.288 Y25.748 E7.32663
G1 X91.427 Y25.652 E7.36465
G1 X92.059 Y25.638 E7.38567
G1 X126.036 Y25.638 E8.51575
G1 X126.898 Y25.65 E8.54443
G1 X127.835 Y25.706 E8.57565
G1 X128.763 Y25.845 E8.60686
G1 X129.676 Y26.066 E8.6381
G1 X130.532 Y26.354 E8.66814
G1 X131.424 Y26.744 E8.70052
G1 X132.245 Y27.197 E8.73171
G1 X132.996 Y27.699 E8.76175
G1 X133.755 Y28.311 E8.79418
G1 X134.429 Y28.964 E8.82539
G1 X135.043 Y29.673 E8.85659
G1 X135.593 Y30.434 E8.88782
G1 X136.055 Y31.21 E8.91786
G1 X136.478 Y32.087 E8.95024
G1 X136.807 Y32.965 E8.98143
G1 X137.058 Y33.87 E9.01266
G1 X137.229 Y34.797 E9.04402
G1 X137.324 Y35.927 E9.08173
G1 X137.338 Y36.568 E9.10306
G1 X137.337 Y70.633 E10.23606
G1 X137.327 Y71.378 E10.26084
G1 X137.273 Y72.315 E10.29206
G1 X137.135 Y73.244 E10.3233
G1 X136.916 Y74.156 E10.35449
G1 X136.618 Y75.046 E10.38571
G1 X136.241 Y75.906 E10.41694
G1 X135.791 Y76.728 E10.44811
G1 X135.269 Y77.509 E10.47935
G1 X134.68 Y78.239 E10.51055
G1 X134.055 Y78.89 E10.54057
G1 X133.32 Y79.531 E10.573
G1 X132.56 Y80.081 E10.60421
G1 X131.754 Y80.562 E10.63543
G1 X130.909 Y80.97 E10.66664
G1 X130.031 Y81.301 E10.69784
G1 X129.127 Y81.554 E10.72907
G1 X128.2 Y81.726 E10.76042
G1 X127.049 Y81.824 E10.79885
G1 X126.408 Y81.838 E10.82017
G1 X92.308 Y81.837 E11.95434
G1 X91.592 Y81.827 E11.97816
G1 X90.656 Y81.773 E12.00934
G1 X89.727 Y81.634 E12.04058
G1 X88.815 Y81.415 E12.07178
G1 X87.925 Y81.116 E12.10301
G1 X87.066 Y80.739 E12.13421
G1 X86.243 Y80.288 E12.16542
G1 X85.463 Y79.766 E12.19664
G1 X84.759 Y79.2 E12.22668
G1 X84.057 Y78.525 E12.25907
G1 X83.442 Y77.816 E12.29029
G1 X82.912 Y77.085 E12.32032
G1 X82.412 Y76.249 E12.35272
G1 X82.004 Y75.404 E12.38393
G1 X81.673 Y74.526 E12.41514
G1 X81.421 Y73.622 E12.44635
G1 X81.249 Y72.693 E12.47778
G1 X81.151 Y71.514 E12.51712
G1 X81.138 Y70.896 E12.53768
G1 X81.139 Y36.769 E13.67275
G1 X81.149 Y36.086 E13.69547
G1 X81.204 Y35.149 E13.72669
G1 X81.343 Y34.221 E13.7579
G1 X81.563 Y33.309 E13.7891
G1 X81.863 Y32.419 E13.82034
G0 F6000 X82.229 Y32.579
G1 F1200 X82.591 Y31.752 E13.85037
G1 X83.024 Y30.96 E13.88039
G1 X83.526 Y30.209 E13.91043
G1 X84.093 Y29.505 E13.9405
G1 X84.719 Y28.855 E13.97051
G1 X85.4 Y28.262 E14.00055
G1 X86.132 Y27.732 E14.03061
G1 X86.907 Y27.269 E14.06063
G1 X87.72 Y26.876 E14.09067
G1 X88.565 Y26.556 E14.12072
G1 X89.434 Y26.313 E14.15073
G1 X90.322 Y26.147 E14.18078
G1 X91.461 Y26.051 E14.21879
G1 X92.068 Y26.038 E14.23899
G1 X126.031 Y26.038 E15.3686
G1 X126.875 Y26.049 E15.39668
G1 X127.777 Y26.102 E15.42673
G1 X128.67 Y26.234 E15.45675
G1 X129.548 Y26.445 E15.48679
G1 X130.404 Y26.733 E15.51683
G1 X131.231 Y27.095 E15.54685
G1 X132.023 Y27.53 E15.5769
G1 X132.774 Y28.032 E15.60695
G1 X133.477 Y28.599 E15.63699
G1 X134.127 Y29.226 E15.66703
G1 X134.719 Y29.908 E15.69706
G1 X135.249 Y30.639 E15.7271
G1 X135.711 Y31.415 E15.75713
G1 X136.104 Y32.228 E15.78717
G1 X136.422 Y33.073 E15.8172
G1 X136.665 Y33.943 E15.84724
G1 X136.83 Y34.831 E15.87728
G1 X136.925 Y35.961 E15.915
G1 X136.938 Y36.568 E15.93519
G1 X136.937 Y70.628 E17.06803
G1 X136.928 Y71.355 E17.09221
G1 X136.877 Y72.257 E17.12226
G1 X136.746 Y73.151 E17.15231
G1 X136.537 Y74.029 E17.18233
G1 X136.251 Y74.886 E17.21238
G1 X135.89 Y75.714 E17.24242
G1 X135.458 Y76.506 E17.27243
G1 X134.957 Y77.258 E17.30248
G1 X134.391 Y77.962 E17.33253
G1 X133.766 Y78.613 E17.36254
G1 X133.085 Y79.207 E17.3926
G1 X132.354 Y79.738 E17.42265
G1 X131.58 Y80.202 E17.45267
G1 X130.767 Y80.596 E17.48271
G1 X129.923 Y80.916 E17.51274
G1 X129.053 Y81.161 E17.5428
G1 X128.166 Y81.327 E17.57281
G1 X127.015 Y81.425 E17.61123
G1 X126.408 Y81.438 E17.63143
G1 X92.313 Y81.437 E18.76543
G1 X91.615 Y81.428 E18.78865
G1 X90.714 Y81.377 E18.81866
G1 X89.82 Y81.245 E18.84872
G1 X88.942 Y81.036 E18.87874
G1 X88.085 Y80.749 E18.9088
G1 X87.258 Y80.388 E18.93881
G1 X86.465 Y79.955 E18.96886
G1 X85.714 Y79.454 E18.99889
G1 X85.01 Y78.888 E19.02893
G1 X84.359 Y78.262 E19.05897
G1 X83.766 Y77.581 E19.089
G1 X83.236 Y76.85 E19.11904
G1 X82.772 Y76.075 E19.14908
G1 X82.378 Y75.262 E19.17913
G1 X82.058 Y74.418 E19.20915
G1 X81.814 Y73.548 E19.2392
G1 X81.648 Y72.66 E19.26925
G1 X81.551 Y71.505 E19.3078
G1 X81.538 Y70.896 E19.32806
G1 X81.539 Y36.774 E20.46296
G1 X81.548 Y36.109 E20.48508
G1 X81.6 Y35.207 E20.51513
G1 X81.732 Y34.314 E20.54516
G1 X81.942 Y33.436 E20.57518
G1 X82.229 Y32.579 E20.60524
G1 F2700 E15.60524
;MESH:linkCover-Body1.stl
G0 F6000 X93.708 Y38.991
G0 X124.413 Y68.913
;TYPE:WALL-INNER
G1 F2700 E20.60524
G1 F1200 X124.075 Y69.088 E20.6179
G1 X94.488 Y69.088 E21.60197
G1 X94.063 Y68.912 E21.61727
G1 X93.888 Y68.575 E21.6299
G1 X93.888 Y38.988 E22.61397
G1 X94.063 Y38.563 E22.62925
G1 X94.401 Y38.388 E22.64191
G1 X123.988 Y38.388 E23.62598
G1 X124.412 Y38.563 E23.64124
G1 X124.588 Y38.988 E23.65654
G1 X124.588 Y68.577 E24.64067
G1 X124.413 Y68.913 E24.65327
G1 F2700 E19.65327
G0 F6000 X124.458 Y68.958
G0 X125.936 Y69.04
G0 X126.136 Y70.636
G1 F2700 E24.65327
G1 F1200 X126.136 Y36.836 E25.77746
G1 X92.336 Y36.836 E26.90166
G1 X92.336 Y70.636 E28.02585
G1 X126.136 Y70.636 E29.15004
G0 F6000 X126.536 Y71.036
;TYPE:WALL-OUTER
G1 F1200 X126.536 Y36.436 E30.30084
G1 X91.936 Y36.436 E31.45164
G1 X91.936 Y71.036 E32.60244
G1 X126.536 Y71.036 E33.75324
G1 F2700 E28.75324
G0 F6000 X126.268 Y70.768
G0 X125.936 Y68.63
G0 X124.769 Y68.602
G0 X124.13 Y68.63
G1 F2700 E33.75324
G1 F1200 X124.023 Y68.685 E33.75725
G1 X94.488 Y68.688 E34.73958
G1 X94.346 Y68.63 E34.74469
G1 X94.291 Y68.523 E34.74869
G1 X94.288 Y38.988 E35.73102
G1 X94.346 Y38.846 E35.73613
G1 X94.453 Y38.791 E35.74013
G1 X123.988 Y38.788 E36.72247
G1 X124.13 Y38.846 E36.72757
G1 X124.188 Y38.988 E36.73267
G1 X124.186 Y68.523 E37.71501
G1 X124.13 Y68.63 E37.71902
G1 F2700 E32.71902
G0 F6000 X124.488 Y68.63
G0 X124.54 Y69.04
G0 X125.936 Y69.04
G0 X125.776 Y70.276
;TYPE:SKIN
G1 F2700 E37.71902
G1 F1200 X92.697 Y70.275 E38.81924
G1 X92.697 Y37.197 E39.91942
G1 X125.776 Y37.196 E41.01963
G1 X125.776 Y70.276 E42.11987
G1 F2700 E37.11987
G0 F6000 X126.036 Y70.276
G0 X125.936 Y69.191
G0 X124.769 Y68.602
G0 X124.146 Y69.446
G1 F2700 E42.11987
G1 F1200 X124.673 Y69.168 E42.13969
G1 X124.946 Y68.65 E42.15916
G1 X124.948 Y38.954 E43.14686
G1 X124.674 Y38.299 E43.17047
G1 X124.021 Y38.028 E43.19399
G1 X94.33 Y38.03 E44.18151
G1 X93.794 Y38.303 E44.20152
G1 X93.528 Y38.957 E44.225
G1 X93.53 Y68.645 E45.21243
G1 X93.803 Y69.177 E45.23232
G1 X94.455 Y69.448 E45.2558
G1 X124.146 Y69.446 E46.24333
G1 F2700 E41.24333
G0 F6000 X124.081 Y69.191
G0 X94.491 Y69.269
G0 X94.491 Y70.436
G0 X92.897 Y69.704
G1 F2700 E46.24333
G1 F1200 X93.268 Y70.075 E46.26078
G0 F6000 X93.834 Y70.075
G1 F1200 X92.897 Y69.138 E46.30485
G0 F6000 X92.897 Y68.572
G1 F1200 X94.399 Y70.075 E46.37553
G0 F6000 X94.538 Y69.648
G1 F1200 X94.965 Y70.075 E46.39561
G0 F6000 X95.104 Y69.648
G1 F1200 X95.531 Y70.075 E46.4157
G0 F6000 X95.669 Y69.648
G1 F1200 X96.097 Y70.075 E46.4358
G0 F6000 X96.235 Y69.648
G1 F1200 X96.662 Y70.075 E46.45589
G0 F6000 X96.801 Y69.648
G1 F1200 X97.228 Y70.075 E46.47597
G0 F6000 X97.366 Y69.648
G1 F1200 X97.794 Y70.075 E46.49608
G0 F6000 X97.932 Y69.648
G1 F1200 X98.359 Y70.075 E46.51617
G0 F6000 X98.498 Y69.648
G1 F1200 X98.925 Y70.075 E46.53625
G0 F6000 X99.063 Y69.647
G1 F1200 X99.491 Y70.075 E46.55638
G0 F6000 X99.629 Y69.647
G1 F1200 X100.056 Y70.075 E46.57649
G0 F6000 X100.194 Y69.647
G1 F1200 X100.622 Y70.075 E46.59662
G0 F6000 X100.76 Y69.647
G1 F1200 X101.188 Y70.075 E46.61676
G0 F6000 X101.326 Y69.647
G1 F1200 X101.753 Y70.075 E46.63686
G0 F6000 X101.891 Y69.647
G1 F1200 X102.319 Y70.075 E46.657
G0 F6000 X102.457 Y69.647
G1 F1200 X102.885 Y70.075 E46.67713
G0 F6000 X103.022 Y69.646
G1 F1200 X103.45 Y70.075 E46.69728
G0 F6000 X103.588 Y69.646
G1 F1200 X104.016 Y70.075 E46.71744
G0 F6000 X104.153 Y69.646
G1 F1200 X104.582 Y70.075 E46.73762
G0 F6000 X104.719 Y69.646
G1 F1200 X105.147 Y70.075 E46.75777
G0 F6000 X105.285 Y69.646
G1 F1200 X105.713 Y70.075 E46.77793
G0 F6000 X105.85 Y69.646
G1 F1200 X106.279 Y70.075 E46.79811
G0 F6000 X106.416 Y69.646
G1 F1200 X106.845 Y70.075 E46.81829
G0 F6000 X106.982 Y69.646
G1 F1200 X107.41 Y70.075 E46.83844
G0 F6000 X107.547 Y69.646
G1 F1200 X107.976 Y70.075 E46.85862
G0 F6000 X108.112 Y69.646
G1 F1200 X108.542 Y70.075 E46.87882
G0 F6000 X108.678 Y69.646
G1 F1200 X109.107 Y70.075 E46.899
G0 F6000 X109.244 Y69.646
G1 F1200 X109.674 Y70.076 E46.91923
G0 F6000 X109.809 Y69.646
G1 F1200 X110.239 Y70.076 E46.93945
G0 F6000 X110.375 Y69.646
G1 F1200 X110.805 Y70.076 E46.95968
G0 F6000 X110.941 Y69.646
G1 F1200 X111.371 Y70.076 E46.9799
G0 F6000 X111.506 Y69.645
G1 F1200 X111.936 Y70.076 E47.00015
G0 F6000 X112.071 Y69.645
G1 F1200 X112.502 Y70.076 E47.02043
G0 F6000 X112.637 Y69.645
G1 F1200 X113.068 Y70.076 E47.0407
G0 F6000 X113.203 Y69.645
G1 F1200 X113.633 Y70.076 E47.06095
G0 F6000 X113.769 Y69.645
G1 F1200 X114.199 Y70.076 E47.0812
G0 F6000 X114.334 Y69.645
G1 F1200 X114.765 Y70.076 E47.10147
G0 F6000 X114.9 Y69.645
G1 F1200 X115.331 Y70.076 E47.12174
G0 F6000 X115.466 Y69.645
G1 F1200 X115.896 Y70.076 E47.14199
G0 F6000 X116.031 Y69.644
G1 F1200 X116.462 Y70.076 E47.16229
G0 F6000 X116.596 Y69.644
G1 F1200 X117.028 Y70.076 E47.18261
G0 F6000 X117.162 Y69.644
G1 F1200 X117.593 Y70.076 E47.20291
G0 F6000 X117.728 Y69.644
G1 F1200 X118.159 Y70.076 E47.2232
G0 F6000 X118.293 Y69.644
G1 F1200 X118.725 Y70.076 E47.24352
G0 F6000 X118.859 Y69.644
G1 F1200 X119.29 Y70.076 E47.26382
G0 F6000 X119.425 Y69.644
G1 F1200 X119.856 Y70.076 E47.28412
G0 F6000 X119.99 Y69.644
G1 F1200 X120.422 Y70.076 E47.30444
G0 F6000 X120.555 Y69.644
G1 F1200 X120.987 Y70.076 E47.32476
G0 F6000 X121.121 Y69.644
G1 F1200 X121.553 Y70.076 E47.34508
G0 F6000 X121.687 Y69.644
G1 F1200 X122.119 Y70.076 E47.3654
G0 F6000 X122.252 Y69.644
G1 F1200 X122.684 Y70.076 E47.38572
G0 F6000 X122.818 Y69.644
G1 F1200 X123.25 Y70.076 E47.40604
G0 F6000 X123.384 Y69.644
G1 F1200 X123.816 Y70.076 E47.42636
G0 F6000 X123.949 Y69.644
G1 F1200 X124.381 Y70.076 E47.44668
G0 F6000 X124.406 Y69.535
G1 F1200 X124.947 Y70.076 E47.47212
G0 F6000 X125.513 Y70.076
G1 F1200 X124.777 Y69.34 E47.50674
G0 F6000 X124.992 Y68.99
G1 F1200 X125.577 Y69.574 E47.53423
G0 F6000 X125.577 Y69.008
G1 F1200 X125.143 Y68.575 E47.55463
G0 F6000 X125.577 Y68.442
G1 F1200 X125.143 Y68.009 E47.57502
G0 F6000 X125.577 Y67.877
G1 F1200 X125.143 Y67.443 E47.59543
G0 F6000 X125.577 Y67.311
G1 F1200 X125.143 Y66.877 E47.61584
G0 F6000 X125.577 Y66.745
G1 F1200 X125.143 Y66.312 E47.63623
G0 F6000 X125.577 Y66.18
G1 F1200 X125.143 Y65.746 E47.65665
G0 F6000 X125.577 Y65.614
G1 F1200 X125.143 Y65.18 E47.67706
G0 F6000 X125.577 Y65.048
G1 F1200 X125.143 Y64.615 E47.69745
G0 F6000 X125.577 Y64.482
G1 F1200 X125.144 Y64.05 E47.7178
G0 F6000 X125.577 Y63.917
G1 F1200 X125.144 Y63.484 E47.73816
G0 F6000 X125.577 Y63.351
G1 F1200 X125.144 Y62.918 E47.75853
G0 F6000 X125.577 Y62.785
G1 F1200 X125.144 Y62.353 E47.77887
G0 F6000 X125.577 Y62.22
G1 F1200 X125.144 Y61.787 E47.79924
G0 F6000 X125.577 Y61.654
G1 F1200 X125.144 Y61.221 E47.81961
G0 F6000 X125.577 Y61.088
G1 F1200 X125.144 Y60.656 E47.83995
G0 F6000 X125.577 Y60.523
G1 F1200 X125.144 Y60.091 E47.86029
G0 F6000 X125.577 Y59.957
G1 F1200 X125.144 Y59.525 E47.88064
G0 F6000 X125.577 Y59.391
G1 F1200 X125.144 Y58.959 E47.90098
G0 F6000 X125.577 Y58.826
G1 F1200 X125.144 Y58.394 E47.92133
G0 F6000 X125.577 Y58.26
G1 F1200 X125.144 Y57.828 E47.94167
G0 F6000 X125.577 Y57.694
G1 F1200 X125.144 Y57.262 E47.96201
G0 F6000 X125.577 Y57.129
G1 F1200 X125.144 Y56.697 E47.98236
G0 F6000 X125.577 Y56.563
G1 F1200 X125.144 Y56.131 E48.0027
G0 F6000 X125.577 Y55.997
G1 F1200 X125.145 Y55.566 E48.023
G0 F6000 X125.577 Y55.432
G1 F1200 X125.145 Y55 E48.04332
G0 F6000 X125.577 Y54.866
G1 F1200 X125.145 Y54.434 E48.06364
G0 F6000 X125.577 Y54.3
G1 F1200 X125.145 Y53.869 E48.08393
G0 F6000 X125.577 Y53.734
G1 F1200 X125.145 Y53.303 E48.10423
G0 F6000 X125.577 Y53.169
G1 F1200 X125.145 Y52.737 E48.12455
G0 F6000 X125.577 Y52.603
G1 F1200 X125.145 Y52.172 E48.14484
G0 F6000 X125.577 Y52.037
G1 F1200 X125.146 Y51.607 E48.16509
G0 F6000 X125.577 Y51.472
G1 F1200 X125.146 Y51.041 E48.18537
G0 F6000 X125.577 Y50.906
G1 F1200 X125.146 Y50.475 E48.20564
G0 F6000 X125.577 Y50.34
G1 F1200 X125.146 Y49.91 E48.22589
G0 F6000 X125.577 Y49.775
G1 F1200 X125.146 Y49.344 E48.24616
G0 F6000 X125.577 Y49.209
G1 F1200 X125.146 Y48.778 E48.26644
G0 F6000 X125.577 Y48.643
G1 F1200 X125.146 Y48.213 E48.28668
G0 F6000 X125.577 Y48.078
