;FLAVOR:Marlin
;TIME:3388
;Filament used: 2.50435m
;Layer height: 0.2
;MINX:17.097
;MINY:32.627
;MINZ:0.2
;MAXX:73.097
;MAXY:88.627
;MAXZ:12
;TARGET_MACHINE.NAME:Creality Ender-3
;Generated with Cura_SteamEngine 5.7.1
M140 S50
M105
M190 S50
M104 S200
M105
M109 S200
M82 ;absolute extrusion mode
; Ender 3 Custom Start G-code
G92 E0 ; Reset Extruder
G28 ; Home all axes
G1 Z2.0 F3000 ; Move Z Axis up little to prevent scratching of Heat Bed
G1 X0.1 Y20 Z0.3 F5000.0 ; Move to start position
G1 X0.1 Y200.0 Z0.3 F1500.0 E15 ; Draw the first line
G1 X0.4 Y200.0 Z0.3 F5000.0 ; Move to side a little
G1 X0.4 Y20 Z0.3 F1500.0 E30 ; Draw the second line
G92 E0 ; Reset Extruder
G1 Z2.0 F3000 ; Move Z Axis up little to prevent scratching of Heat Bed
G1 X5 Y20 Z0.3 F5000.0 ; Move over to prevent blob squish
G92 E0
G92 E0
G1 F2700 E-5
;LAYER_COUNT:60
;LAYER:0
M107
G0 F6000 X22.021 Y34.473 Z0.2
;TYPE:SKIRT
G1 F2700 E0
G1 F1200 X22.918 Y33.938 E0.03474
G1 X23.796 Y33.517 E0.06712
G1 X24.709 Y33.175 E0.09955
G1 X25.646 Y32.916 E0.13188
G1 X26.613 Y32.738 E0.16459
G1 X27.752 Y32.642 E0.2026
G1 X28.409 Y32.627 E0.22446
G1 X61.401 Y32.627 E1.32178
G1 X62.281 Y32.64 E1.35105
G1 X63.253 Y32.699 E1.38344
G1 X64.216 Y32.845 E1.41584
G1 X65.163 Y33.076 E1.44826
G1 X66.051 Y33.376 E1.47943
G1 X66.943 Y33.766 E1.51181
G1 X67.826 Y34.253 E1.54535
G1 X68.577 Y34.755 E1.5754
G1 X69.392 Y35.413 E1.61024
G1 X70.09 Y36.091 E1.6426
G1 X70.726 Y36.828 E1.67498
G1 X71.296 Y37.618 E1.70738
G1 X71.758 Y38.394 E1.73742
G1 X72.212 Y39.336 E1.7722
G1 X72.541 Y40.214 E1.80338
G1 X72.81 Y41.186 E1.83693
G1 X72.987 Y42.152 E1.86959
G1 X73.082 Y43.282 E1.90731
G1 X73.097 Y43.957 E1.92976
G1 X73.096 Y77.027 E3.02968
G1 X73.085 Y77.79 E3.05506
G1 X73.028 Y78.763 E3.08747
G1 X72.883 Y79.726 E3.11986
G1 X72.654 Y80.672 E3.15224
G1 X72.343 Y81.596 E3.18466
G1 X71.951 Y82.487 E3.21704
G1 X71.483 Y83.339 E3.24937
G1 X70.961 Y84.12 E3.28061
G1 X70.328 Y84.905 E3.31416
G1 X69.703 Y85.556 E3.34417
G1 X68.914 Y86.244 E3.37899
G1 X68.154 Y86.794 E3.41019
G1 X67.287 Y87.311 E3.44377
G1 X66.409 Y87.733 E3.47617
G1 X65.498 Y88.075 E3.50853
G1 X64.559 Y88.336 E3.54095
G1 X63.593 Y88.514 E3.57362
G1 X62.442 Y88.612 E3.61204
G1 X61.767 Y88.627 E3.63449
G1 X28.661 Y88.626 E4.7356
G1 X27.928 Y88.615 E4.75999
G1 X26.956 Y88.558 E4.79237
G1 X25.993 Y88.412 E4.82477
G1 X25.047 Y88.183 E4.85714
G1 X24.123 Y87.871 E4.88958
G1 X23.233 Y87.479 E4.92192
G1 X22.41 Y87.028 E4.95313
G1 X21.571 Y86.467 E4.9867
G1 X20.867 Y85.901 E5.01675
G1 X20.114 Y85.176 E5.05151
G1 X19.477 Y84.44 E5.08389
G1 X18.947 Y83.709 E5.11392
G1 X18.411 Y82.812 E5.14868
G1 X17.989 Y81.934 E5.18108
G1 X17.647 Y81.022 E5.21347
G1 X17.387 Y80.084 E5.24585
G1 X17.209 Y79.115 E5.27861
G1 X17.111 Y77.936 E5.31796
G1 X17.097 Y77.285 E5.33962
G1 X17.098 Y44.152 E6.44163
G1 X17.109 Y43.452 E6.46491
G1 X17.167 Y42.479 E6.49733
G1 X17.313 Y41.516 E6.52973
G1 X17.543 Y40.57 E6.56211
G1 X17.856 Y39.647 E6.59453
G1 X18.248 Y38.757 E6.62687
G1 X18.718 Y37.904 E6.65926
G1 X19.261 Y37.096 E6.69164
G1 X19.828 Y36.392 E6.72171
G1 X20.553 Y35.64 E6.75645
G1 X21.289 Y35.003 E6.78882
G1 X22.021 Y34.473 E6.81888
G0 F6000 X22.256 Y34.797
G1 F1200 X23.092 Y34.298 E6.85127
G1 X23.937 Y33.891 E6.88246
G1 X24.816 Y33.56 E6.9137
G1 X25.719 Y33.309 E6.94487
G1 X26.647 Y33.137 E6.97626
G1 X27.786 Y33.041 E7.01428
G1 X28.418 Y33.027 E7.03531
G1 X61.395 Y33.027 E8.13213
G1 X62.257 Y33.039 E8.1608
G1 X63.194 Y33.095 E8.19202
G1 X64.122 Y33.234 E8.22323
G1 X65.035 Y33.455 E8.25447
G1 X65.891 Y33.743 E8.28451
G1 X66.783 Y34.133 E8.31689
G1 X67.604 Y34.586 E8.34808
G1 X68.355 Y35.088 E8.37812
G1 X69.114 Y35.7 E8.41055
G1 X69.788 Y36.353 E8.44177
G1 X70.402 Y37.062 E8.47296
G1 X70.952 Y37.823 E8.50419
G1 X71.414 Y38.599 E8.53423
G1 X71.837 Y39.476 E8.56661
G1 X72.166 Y40.354 E8.5978
G1 X72.417 Y41.259 E8.62903
G1 X72.588 Y42.186 E8.66039
G1 X72.683 Y43.316 E8.6981
G1 X72.697 Y43.957 E8.71943
G1 X72.696 Y77.022 E9.81917
G1 X72.686 Y77.767 E9.84396
G1 X72.632 Y78.704 E9.87517
G1 X72.494 Y79.633 E9.90641
G1 X72.275 Y80.545 E9.93761
G1 X71.977 Y81.435 E9.96882
G1 X71.6 Y82.295 E10.00005
G1 X71.15 Y83.117 E10.03122
G1 X70.628 Y83.898 E10.06247
G1 X70.039 Y84.628 E10.09366
G1 X69.414 Y85.279 E10.12368
G1 X68.679 Y85.92 E10.15612
G1 X67.919 Y86.47 E10.18732
G1 X67.113 Y86.951 E10.21854
G1 X66.268 Y87.359 E10.24975
G1 X65.39 Y87.69 E10.28096
G1 X64.486 Y87.943 E10.31218
G1 X63.559 Y88.115 E10.34354
G1 X62.408 Y88.213 E10.38196
G1 X61.767 Y88.227 E10.40328
G1 X28.667 Y88.226 E11.50419
G1 X27.951 Y88.216 E11.52801
G1 X27.015 Y88.162 E11.55919
G1 X26.086 Y88.023 E11.59043
G1 X25.174 Y87.804 E11.62163
G1 X24.284 Y87.505 E11.65286
G1 X23.425 Y87.128 E11.68406
G1 X22.602 Y86.677 E11.71527
G1 X21.822 Y86.155 E11.74649
G1 X21.118 Y85.589 E11.77653
G1 X20.416 Y84.914 E11.80892
G1 X19.801 Y84.205 E11.84014
G1 X19.271 Y83.474 E11.87017
G1 X18.771 Y82.638 E11.90257
G1 X18.363 Y81.793 E11.93378
G1 X18.032 Y80.915 E11.96499
G1 X17.78 Y80.011 E11.9962
G1 X17.608 Y79.082 E12.02763
G1 X17.51 Y77.903 E12.06698
G1 X17.497 Y77.285 E12.08754
G1 X17.498 Y44.158 E13.18934
G1 X17.508 Y43.475 E13.21206
G1 X17.563 Y42.538 E13.24328
G1 X17.702 Y41.61 E13.27449
G1 X17.922 Y40.698 E13.30569
G1 X18.222 Y39.808 E13.33693
G1 X18.599 Y38.949 E13.36813
G1 X19.05 Y38.127 E13.39932
G1 X19.573 Y37.347 E13.43055
G1 X20.14 Y36.643 E13.46062
G1 X20.815 Y35.942 E13.49298
G1 X21.524 Y35.327 E13.5242
G1 X22.256 Y34.797 E13.55426
G0 F6000 X22.491 Y35.121
G1 F1200 X23.266 Y34.658 E13.58429
G1 X24.079 Y34.265 E13.61432
G1 X24.924 Y33.945 E13.64437
G1 X25.793 Y33.702 E13.67438
G1 X26.681 Y33.536 E13.70443
G1 X27.82 Y33.44 E13.74245
G1 X28.427 Y33.427 E13.76264
G1 X61.39 Y33.427 E14.859
G1 X62.234 Y33.438 E14.88707
G1 X63.136 Y33.491 E14.91712
G1 X64.029 Y33.623 E14.94715
G1 X64.907 Y33.834 E14.97718
G1 X65.763 Y34.122 E15.00722
G1 X66.59 Y34.484 E15.03725
G1 X67.382 Y34.919 E15.0673
G1 X68.133 Y35.421 E15.09734
G1 X68.836 Y35.988 E15.12738
G1 X69.486 Y36.615 E15.15742
G1 X70.078 Y37.297 E15.18746
G1 X70.608 Y38.028 E15.21749
G1 X71.07 Y38.804 E15.24753
G1 X71.463 Y39.617 E15.27756
G1 X71.781 Y40.462 E15.30759
G1 X72.024 Y41.332 E15.33763
G1 X72.189 Y42.22 E15.36767
G1 X72.284 Y43.35 E15.40539
G1 X72.297 Y43.957 E15.42558
G1 X72.296 Y77.017 E16.52516
G1 X72.287 Y77.744 E16.54935
G1 X72.236 Y78.646 E16.5794
G1 X72.105 Y79.54 E16.60945
G1 X71.896 Y80.418 E16.63947
G1 X71.61 Y81.275 E16.66952
G1 X71.249 Y82.103 E16.69956
G1 X70.817 Y82.895 E16.72956
G1 X70.316 Y83.647 E16.75962
G1 X69.75 Y84.351 E16.78966
G1 X69.125 Y85.002 E16.81968
G1 X68.444 Y85.596 E16.84973
G1 X67.713 Y86.127 E16.87978
G1 X66.939 Y86.591 E16.9098
G1 X66.126 Y86.985 E16.93985
G1 X65.282 Y87.305 E16.96987
G1 X64.412 Y87.55 E16.99993
G1 X63.525 Y87.716 E17.02995
G1 X62.374 Y87.814 E17.06837
G1 X61.767 Y87.827 E17.08856
G1 X28.672 Y87.826 E18.1893
G1 X27.974 Y87.817 E18.21252
G1 X27.073 Y87.766 E18.24254
G1 X26.179 Y87.634 E18.27259
G1 X25.301 Y87.425 E18.30261
G1 X24.444 Y87.138 E18.33267
G1 X23.617 Y86.777 E18.36268
G1 X22.824 Y86.344 E18.39274
G1 X22.073 Y85.843 E18.42276
G1 X21.369 Y85.277 E18.45281
G1 X20.718 Y84.651 E18.48284
G1 X20.125 Y83.97 E18.51288
G1 X19.595 Y83.239 E18.54291
G1 X19.131 Y82.464 E18.57295
G1 X18.737 Y81.651 E18.603
G1 X18.417 Y80.807 E18.63302
G1 X18.173 Y79.937 E18.66308
G1 X18.007 Y79.049 E18.69312
G1 X17.91 Y77.894 E18.73167
G1 X17.897 Y77.285 E18.75193
G1 X17.898 Y44.163 E19.85358
G1 X17.907 Y43.498 E19.8757
G1 X17.959 Y42.596 E19.90575
G1 X18.091 Y41.703 E19.93577
G1 X18.301 Y40.825 E19.9658
G1 X18.588 Y39.968 E19.99586
G1 X18.95 Y39.141 E20.02588
G1 X19.383 Y38.349 E20.0559
G1 X19.885 Y37.598 E20.08595
G1 X20.452 Y36.894 E20.11601
G1 X21.078 Y36.244 E20.14603
G1 X21.759 Y35.651 E20.17606
G1 X22.491 Y35.121 E20.20612
G1 F2700 E15.20612
;MESH:linkCover-Body.stl
G0 F6000 X30.231 Y45.096
G0 X60.27 Y75.8
;TYPE:WALL-INNER
G1 F2700 E20.20612
G1 F1200 X59.931 Y75.976 E20.21883
G1 X30.344 Y75.976 E21.20289
G1 X29.919 Y75.801 E21.21818
G1 X29.744 Y75.463 E21.23084
G1 X29.744 Y45.876 E22.21491
G1 X29.92 Y45.45 E22.23024
G1 X30.255 Y45.276 E22.24279
G1 X59.844 Y45.276 E23.22693
G1 X60.269 Y45.451 E23.24221
G1 X60.444 Y45.876 E23.2575
G1 X60.444 Y75.465 E24.24163
G1 X60.27 Y75.8 E24.25419
G1 F2700 E19.25419
G0 F6000 X60.317 Y75.847
G0 X60.397 Y76.824
G0 X61.496 Y77.024
G1 F2700 E24.25419
G1 F1200 X61.496 Y44.224 E25.34512
G1 X28.696 Y44.224 E26.43606
G1 X28.696 Y77.024 E27.52699
G1 X61.496 Y77.024 E28.61792
G0 F6000 X61.896 Y77.424
;TYPE:WALL-OUTER
G1 F1200 X61.896 Y43.824 E29.73546
G1 X28.296 Y43.824 E30.853
G1 X28.296 Y77.424 E31.97054
G1 X61.896 Y77.424 E33.08808
G1 F2700 E28.08808
G0 F6000 X61.627 Y77.157
G0 X59.986 Y76.824
G0 X59.955 Y76.157
G0 X59.986 Y75.518
G1 F2700 E33.08808
G1 F1200 X59.879 Y75.573 E33.09208
G1 X30.344 Y75.576 E34.07442
G1 X30.202 Y75.518 E34.07952
G1 X30.147 Y75.411 E34.08352
G1 X30.144 Y45.876 E35.06586
G1 X30.202 Y45.734 E35.07096
G1 X30.309 Y45.678 E35.07498
G1 X59.844 Y45.676 E36.05732
G1 X59.986 Y45.734 E36.06242
G1 X60.044 Y45.876 E36.06752
G1 X60.042 Y75.411 E37.04986
G1 X59.986 Y75.518 E37.05388
G1 F2700 E32.05388
G0 F6000 X59.986 Y75.877
G0 X60.397 Y75.927
G0 X61.296 Y75.927
G0 X61.057 Y76.585
;TYPE:SKIN
G1 F2700 E37.05388
G1 F858.7 X60.777 Y76.585 E37.06689
G1 F902.3 X60.612 Y76.612 E37.07429
G1 F1100.9 X60.011 Y76.681 E37.09622
G1 F1315.1 X30.352 Y76.682 E37.99637
G1 F1116.3 X29.613 Y76.616 E38.02289
G1 F910.8 X29.414 Y76.585 E38.03172
G1 F861.8 X29.135 Y76.585 E38.04464
G1 X29.135 Y76.306 E38.05756
G1 F907.4 X29.107 Y76.137 E38.0651
G1 F1106 X29.039 Y75.543 E38.08667
G1 F1315.1 X29.038 Y45.884 E38.98682
G1 F1116.3 X29.104 Y45.142 E39.01346
G1 F910.8 X29.135 Y44.942 E39.02232
G1 F861.8 X29.135 Y44.663 E39.03525
G1 X29.414 Y44.663 E39.04817
G1 F907.4 X29.583 Y44.635 E39.0557
G1 F1103.4 X30.169 Y44.568 E39.07704
G1 F1290.3 X33.143 Y44.568 E39.16903
G1 F1269.8 X36.117 Y44.568 E39.2625
G1 F1250 X39.091 Y44.568 E39.35746
G1 F1230.8 X42.065 Y44.568 E39.45391
G1 F1212.1 X45.039 Y44.568 E39.55183
G1 F1191.1 X48.013 Y44.568 E39.65149
G1 F1173.6 X50.987 Y44.568 E39.75263
G1 F1156.6 X53.961 Y44.568 E39.85526
G1 F1140.1 X56.935 Y44.568 E39.95937
G1 F1124.1 X59.909 Y44.567 E40.06496
G1 F1036.7 X60.565 Y44.633 E40.09034
G1 F909.1 X60.775 Y44.664 E40.09966
G1 F855.6 X61.056 Y44.664 E40.11277
G1 X61.056 Y44.945 E40.12588
G1 F905.7 X61.087 Y45.147 E40.13488
G1 F1100.9 X61.153 Y45.807 E40.15893
G1 F1293.8 X61.152 Y75.547 E41.07637
G1 F1098.4 X61.083 Y76.147 E41.09832
G1 F900.6 X61.057 Y76.305 E41.10541
G1 F858.7 X61.057 Y76.585 E41.11843
G0 F6000 X60.579 Y76.109
G1 F939.3 X60.786 Y75.547 E41.14388
G1 F1045.8 X60.786 Y73.425 E41.22486
G1 F1059.6 X60.786 Y71.303 E41.30479
G1 F1073.8 X60.786 Y69.181 E41.38366
G1 F1090.9 X60.786 Y67.059 E41.4613
G1 F1106 X60.786 Y64.937 E41.53788
G1 F1121.5 X60.786 Y62.815 E41.6134
G1 F1140.1 X60.786 Y60.693 E41.68768
G1 F1156.6 X60.786 Y58.571 E41.7609
G1 F1176.5 X60.786 Y56.449 E41.83289
G1 F1194 X60.786 Y54.327 E41.90382
G1 F1212.1 X60.786 Y52.205 E41.9737
G1 F1233.9 X60.786 Y50.083 E42.04233
G1 F1253.3 X60.786 Y47.961 E42.10991
G1 F1273.2 X60.786 Y45.839 E42.17643
G1 F1027.8 X60.576 Y45.142 E42.2047
G1 F1025.6 X59.882 Y44.933 E42.2329
G1 F1269.8 X30.168 Y44.934 E43.16684
G1 F1023.5 X29.613 Y45.137 E43.18989
G1 F1034.5 X29.402 Y45.835 E43.21802
G1 F1286.9 X29.402 Y60.689 E43.67872
G1 F1273.2 X29.403 Y75.543 E44.14436
G1 F1025.6 X29.609 Y76.107 E44.16772
G1 F1034.5 X30.302 Y76.318 E44.19567
G1 F1280 X32.424 Y76.318 E44.26184
G1 F1259.8 X34.546 Y76.318 E44.32906
G1 F1237.1 X36.668 Y76.318 E44.39752
G1 F1218.3 X38.79 Y76.318 E44.46704
G1 F1197 X40.912 Y76.318 E44.5378
G1 F1179.4 X43.034 Y76.318 E44.60961
G1 F1159.4 X45.156 Y76.318 E44.68266
G1 F1142.9 X47.278 Y76.318 E44.75677
G1 F1124.1 X49.4 Y76.318 E44.83211
G1 F1108.5 X51.522 Y76.318 E44.90851
G1 F1090.9 X53.644 Y76.318 E44.98614
G1 F1076.2 X55.766 Y76.318 E45.06484
G1 F1059.6 X57.888 Y76.318 E45.14477
G1 F1045.8 X60.01 Y76.317 E45.22576
G1 F939.3 X60.579 Y76.109 E45.2515
G1 F2700 E40.2515
;MESH:NONMESH
G0 F300 X60.579 Y76.109 Z0.4
G0 F6000 X60.579 Y76.924
G0 X28.868 Y76.852
G0 X28.517 Y44.047
G0 X28.517 Y42.962
G0 X22.491 Y35.121
;TIME_ELAPSED:77.275484
;LAYER:1
M106 S85
;TYPE:SKIRT
G1 F2700 E45.2515
G1 F1200 X23.266 Y34.658 E45.28152
G1 X24.079 Y34.265 E45.31156
G1 X24.924 Y33.945 E45.34161
G1 X25.793 Y33.702 E45.37162
G1 X26.681 Y33.536 E45.40167
G1 X27.82 Y33.44 E45.43969
G1 X28.427 Y33.427 E45.45988
G1 X61.39 Y33.427 E46.55623
G1 X62.234 Y33.438 E46.58431
G1 X63.136 Y33.491 E46.61436
G1 X64.029 Y33.623 E46.64438
G1 X64.907 Y33.834 E46.67442
G1 X65.763 Y34.122 E46.70446
G1 X66.59 Y34.484 E46.73448
G1 X67.382 Y34.919 E46.76454
G1 X68.133 Y35.421 E46.79458
G1 X68.836 Y35.988 E46.82462
G1 X69.486 Y36.615 E46.85466
G1 X70.078 Y37.297 E46.8847
G1 X70.608 Y38.028 E46.91473
G1 X71.07 Y38.804 E46.94476
G1 X71.463 Y39.617 E46.9748
G1 X71.781 Y40.462 E47.00483
G1 X72.024 Y41.332 E47.03487
G1 X72.189 Y42.22 E47.06491
G1 X72.284 Y43.35 E47.10263
G1 X72.297 Y43.957 E47.12282
G1 X72.296 Y77.017 E48.2224
G1 X72.287 Y77.744 E48.24658
G1 X72.236 Y78.646 E48.27663
G1 X72.105 Y79.54 E48.30669
G1 X71.896 Y80.418 E48.3367
G1 X71.61 Y81.275 E48.36675
G1 X71.249 Y82.103 E48.3968
G1 X70.817 Y82.895 E48.4268
G1 X70.316 Y83.647 E48.45686
G1 X69.75 Y84.351 E48.4869
G1 X69.125 Y85.002 E48.51692
G1 X68.444 Y85.596 E48.54697
G1 X67.713 Y86.127 E48.57702
G1 X66.939 Y86.591 E48.60704
G1 X66.126 Y86.985 E48.63709
G1 X65.282 Y87.305 E48.66711
G1 X64.412 Y87.55 E48.69717
G1 X63.525 Y87.716 E48.72718
G1 X62.374 Y87.814 E48.7656
G1 X61.767 Y87.827 E48.7858
G1 X28.672 Y87.826 E49.88654
G1 X27.974 Y87.817 E49.90976
G1 X27.073 Y87.766 E49.93977
G1 X26.179 Y87.634 E49.96983
G1 X25.301 Y87.425 E49.99985
G1 X24.444 Y87.138 E50.02991
G1 X23.617 Y86.777 E50.05992
G1 X22.824 Y86.344 E50.08997
G1 X22.073 Y85.843 E50.12
G1 X21.369 Y85.277 E50.15004
G1 X20.718 Y84.651 E50.18008
G1 X20.125 Y83.97 E50.21012
G1 X19.595 Y83.239 E50.24015
G1 X19.131 Y82.464 E50.27019
G1 X18.737 Y81.651 E50.30024
G1 X18.417 Y80.807 E50.33026
G1 X18.173 Y79.937 E50.36031
G1 X18.007 Y79.049 E50.39036
G1 X17.91 Y77.894 E50.42891
G1 X17.897 Y77.285 E50.44917
G1 X17.898 Y44.163 E51.55081
G1 X17.907 Y43.498 E51.57293
G1 X17.959 Y42.596 E51.60298
G1 X18.091 Y41.703 E51.63301
G1 X18.301 Y40.825 E51.66303
G1 X18.588 Y39.968 E51.69309
G1 X18.95 Y39.141 E51.72312
G1 X19.383 Y38.349 E51.75314
G1 X19.885 Y37.598 E51.78319
G1 X20.452 Y36.894 E51.81325
G1 X21.078 Y36.244 E51.84327
G1 X21.759 Y35.651 E51.8733
G1 X22.491 Y35.121 E51.90336
G1 F2700 E46.90336
;MESH:linkCover-Body.stl
G0 F7500 X30.231 Y45.096
G0 X60.27 Y75.8
;TYPE:WALL-INNER
G1 F2700 E51.90336
G1 F1350 X59.931 Y75.976 E51.91606
G1 X30.344 Y75.976 E52.90013
G1 X29.919 Y75.801 E52.91542
G1 X29.744 Y75.463 E52.92808
G1 X29.744 Y45.876 E53.91214
G1 X29.92 Y45.45 E53.92747
G1 X30.255 Y45.276 E53.94003
G1 X59.844 Y45.276 E54.92416
G1 X60.269 Y45.451 E54.93945
G1 X60.444 Y45.876 E54.95474
G1 X60.444 Y75.465 E55.93887
G1 X60.27 Y75.8 E55.95143
G1 F2700 E50.95143
G0 F7500 X60.317 Y75.847
G0 X60.397 Y76.824
G0 X61.496 Y77.024
G1 F2700 E55.95143
G1 F1350 X61.496 Y44.224 E57.04236
G1 X28.696 Y44.224 E58.13329
G1 X28.696 Y77.024 E59.22423
G1 X61.496 Y77.024 E60.31516
G0 F7500 X61.896 Y77.424
;TYPE:WALL-OUTER
G1 F1350 X61.896 Y43.824 E61.4327
G1 X28.296 Y43.824 E62.55024
G1 X28.296 Y77.424 E63.66778
G1 X61.896 Y77.424 E64.78532
G1 F2700 E59.78532
G0 F7500 X61.627 Y77.157
G0 X59.986 Y76.824
G0 X59.955 Y76.157
G0 X59.986 Y75.518
G1 F2700 E64.78532
G1 F1350 X59.879 Y75.573 E64.78932
G1 X30.344 Y75.576 E65.77166
G1 X30.202 Y75.518 E65.77676
G1 X30.147 Y75.411 E65.78076
G1 X30.144 Y45.876 E66.7631
G1 X30.202 Y45.734 E66.7682
G1 X30.309 Y45.678 E66.77222
G1 X59.844 Y45.676 E67.75456
G1 X59.986 Y45.734 E67.75966
G1 X60.044 Y45.876 E67.76476
G1 X60.042 Y75.411 E68.7471
G1 X59.986 Y75.518 E68.75112
G1 F2700 E63.75112
G0 F7500 X59.986 Y75.877
G0 X60.397 Y75.927
G0 X61.296 Y75.927
G0 X61.057 Y76.585
;TYPE:SKIN
G1 F2700 E68.75112
