;FLAVOR:Marlin
;TIME:579
;Filament used: 0.172067m
;Layer height: 0.2
;MINX:86.449
;MINY:23.218
;MINZ:0.2
;MAXX:112.444
;MAXY:49.216
;MAXZ:16.6
;TARGET_MACHINE.NAME:Creality Ender-3
;Generated with Cura_SteamEngine 5.7.1
M140 S50
M105
M190 S50
M104 S200
M105
M109 S200
M82 ;absolute extrusion mode
; Ender 3 Custom Start G-code
G92 E0 ; Reset Extruder
G28 ; Home all axes
G1 Z2.0 F3000 ; Move Z Axis up little to prevent scratching of Heat Bed
G1 X0.1 Y20 Z0.3 F5000.0 ; Move to start position
G1 X0.1 Y200.0 Z0.3 F1500.0 E15 ; Draw the first line
G1 X0.4 Y200.0 Z0.3 F5000.0 ; Move to side a little
G1 X0.4 Y20 Z0.3 F1500.0 E30 ; Draw the second line
G92 E0 ; Reset Extruder
G1 Z2.0 F3000 ; Move Z Axis up little to prevent scratching of Heat Bed
G1 X5 Y20 Z0.3 F5000.0 ; Move over to prevent blob squish
G92 E0
G92 E0
G1 F2700 E-5
;LAYER_COUNT:83
;LAYER:0
M107
G0 F6000 X87.255 Y31.727 Z0.2
;TYPE:SKIRT
G1 F2700 E0
G1 F1200 X87.589 Y30.888 E0.03004
G1 X88.071 Y29.93 E0.0657
G1 X88.567 Y29.115 E0.09744
G1 X89.136 Y28.297 E0.13058
G1 X89.736 Y27.575 E0.1618
G1 X90.402 Y26.888 E0.19363
G1 X91.172 Y26.191 E0.22817
G1 X92.341 Y25.339 E0.27628
G1 X92.691 Y25.118 E0.29005
G1 X93.507 Y24.653 E0.32129
G1 X94.473 Y24.209 E0.35665
G1 X95.288 Y23.907 E0.38556
G1 X96.208 Y23.626 E0.41755
G1 X97.256 Y23.404 E0.45318
G1 X98.203 Y23.285 E0.48493
G1 X99.212 Y23.218 E0.51856
G1 X100.21 Y23.241 E0.55176
G1 X101.156 Y23.337 E0.58339
G1 X102.174 Y23.507 E0.61772
G1 X103.432 Y23.852 E0.6611
G1 X103.899 Y24.012 E0.67752
G1 X104.803 Y24.371 E0.70987
G1 X105.695 Y24.818 E0.74306
G1 X106.256 Y25.152 E0.76477
G1 X106.62 Y25.386 E0.77916
G1 X107.444 Y25.968 E0.81272
G1 X108.158 Y26.569 E0.84376
G1 X108.831 Y27.23 E0.87513
G1 X109.505 Y27.98 E0.90867
G1 X110.104 Y28.777 E0.94183
G1 X110.592 Y29.541 E0.97198
G1 X111.084 Y30.421 E1.00552
G1 X111.468 Y31.272 E1.03657
G1 X111.785 Y32.144 E1.06743
G1 X112.06 Y33.074 E1.09968
G1 X112.325 Y34.505 E1.14809
G1 X112.374 Y34.919 E1.16195
G1 X112.444 Y35.922 E1.1954
G1 X112.432 Y36.825 E1.22543
G1 X112.369 Y37.557 E1.24987
G1 X112.32 Y37.974 E1.26383
G1 X112.167 Y38.899 E1.29502
G1 X111.902 Y39.932 E1.33049
G1 X111.618 Y40.761 E1.35963
G1 X111.262 Y41.637 E1.39108
G1 X110.567 Y42.936 E1.44008
G1 X110.336 Y43.304 E1.45453
G1 X109.771 Y44.116 E1.48744
G1 X108.829 Y45.206 E1.53535
G1 X108.522 Y45.514 E1.54982
G1 X107.779 Y46.196 E1.58336
G1 X107.013 Y46.787 E1.61554
G1 X106.211 Y47.31 E1.64739
G1 X105.365 Y47.792 E1.67977
G1 X104.429 Y48.222 E1.71403
G1 X103.579 Y48.537 E1.74418
G1 X102.715 Y48.801 E1.77423
G1 X101.704 Y49.018 E1.80862
G1 X101.04 Y49.112 E1.83092
G1 X100.622 Y49.155 E1.8449
G1 X99.615 Y49.216 E1.87845
G1 X98.712 Y49.194 E1.9085
G1 X97.74 Y49.097 E1.94099
G1 X96.745 Y48.933 E1.97453
G1 X95.869 Y48.712 E2.00458
G1 X94.924 Y48.396 E2.03772
G1 X93.992 Y48.017 E2.07118
G1 X93.187 Y47.608 E2.10121
G1 X92.615 Y47.267 E2.12336
G1 X92.252 Y47.034 E2.13771
G1 X91.485 Y46.493 E2.16893
G1 X90.672 Y45.806 E2.20433
G1 X90.06 Y45.201 E2.23295
G1 X89.356 Y44.413 E2.2681
G1 X88.568 Y43.319 E2.31294
G1 X88.304 Y42.897 E2.3295
G1 X87.812 Y42.017 E2.36303
G1 X87.427 Y41.165 E2.39412
G1 X87.094 Y40.241 E2.42679
G1 X86.806 Y39.248 E2.46118
G1 X86.555 Y37.839 E2.50878
G1 X86.512 Y37.43 E2.52246
G1 X86.449 Y36.426 E2.55592
G1 X86.468 Y35.523 E2.58596
G1 X86.561 Y34.566 E2.61794
G1 X86.72 Y33.569 E2.65152
G1 X86.954 Y32.633 E2.68361
G1 X87.255 Y31.727 E2.71536
G0 F6000 X87.627 Y31.875
G1 F1200 X87.961 Y31.036 E2.7454
G1 X88.413 Y30.138 E2.77883
G1 X88.909 Y29.323 E2.81057
G1 X89.444 Y28.553 E2.84175
G1 X90.044 Y27.831 E2.87298
G1 X90.689 Y27.167 E2.90376
G1 X91.408 Y26.514 E2.93607
G1 X92.555 Y25.677 E2.9833
G1 X92.889 Y25.466 E2.99644
G1 X93.705 Y25.001 E3.02767
G1 X94.612 Y24.584 E3.06088
G1 X95.405 Y24.29 E3.08901
G1 X96.325 Y24.009 E3.121
G1 X97.306 Y23.801 E3.15435
G1 X98.23 Y23.684 E3.18533
G1 X99.203 Y23.618 E3.21777
G1 X100.17 Y23.639 E3.24994
G1 X101.091 Y23.732 E3.28073
G1 X102.068 Y23.893 E3.31366
G1 X103.326 Y24.238 E3.35705
G1 X103.751 Y24.384 E3.37199
G1 X104.655 Y24.743 E3.40434
G1 X105.515 Y25.175 E3.43635
G1 X106.04 Y25.489 E3.4567
G1 X106.39 Y25.713 E3.47052
G1 X107.186 Y26.274 E3.50291
G1 X107.9 Y26.875 E3.53395
G1 X108.534 Y27.498 E3.56352
G1 X109.186 Y28.221 E3.5959
G1 X109.767 Y28.992 E3.62801
G1 X110.243 Y29.737 E3.65741
G1 X110.719 Y30.586 E3.68978
G1 X111.103 Y31.437 E3.72084
G1 X111.401 Y32.257 E3.74985
G1 X111.676 Y33.187 E3.78211
G1 X111.928 Y34.552 E3.82828
G1 X111.975 Y34.947 E3.84151
G1 X112.044 Y35.917 E3.87385
G1 X112.032 Y36.82 E3.90389
G1 X111.972 Y37.51 E3.92692
G1 X111.925 Y37.909 E3.94029
G1 X111.772 Y38.834 E3.97147
G1 X111.523 Y39.803 E4.00475
G1 X111.247 Y40.611 E4.03315
G1 X110.909 Y41.448 E4.06317
G1 X110.214 Y42.747 E4.11217
G1 X110.007 Y43.076 E4.1251
G1 X109.468 Y43.854 E4.15658
G1 X108.526 Y44.944 E4.20449
G1 X108.251 Y45.22 E4.21745
G1 X107.535 Y45.879 E4.24982
G1 X106.769 Y46.47 E4.282
G1 X106.013 Y46.962 E4.312
G1 X105.167 Y47.444 E4.34438
G1 X104.29 Y47.847 E4.37648
G1 X103.462 Y48.154 E4.40585
G1 X102.598 Y48.418 E4.4359
G1 X101.648 Y48.622 E4.46822
G1 X100.998 Y48.714 E4.49005
G1 X100.597 Y48.756 E4.50346
G1 X99.625 Y48.816 E4.53585
G1 X98.722 Y48.794 E4.5659
G1 X97.804 Y48.702 E4.59658
G1 X96.843 Y48.545 E4.62897
G1 X95.967 Y48.324 E4.65902
G1 X95.074 Y48.025 E4.69034
G1 X94.173 Y47.66 E4.72267
G1 X93.368 Y47.251 E4.75271
G1 X92.831 Y46.93 E4.77351
G1 X92.483 Y46.707 E4.78726
G1 X91.716 Y46.166 E4.81848
G1 X90.953 Y45.521 E4.85171
G1 X90.358 Y44.934 E4.87951
G1 X89.681 Y44.179 E4.91324
G1 X88.893 Y43.085 E4.95808
G1 X88.653 Y42.701 E4.97314
G1 X88.177 Y41.852 E5.00551
G1 X87.792 Y41 E5.03661
G1 X87.478 Y40.129 E5.06741
G1 X87.2 Y39.178 E5.10036
G1 X86.953 Y37.796 E5.14705
G1 X86.911 Y37.404 E5.16017
G1 X86.849 Y36.434 E5.19249
G1 X86.868 Y35.531 E5.22254
G1 X86.956 Y34.628 E5.25271
G1 X87.108 Y33.666 E5.2851
G1 X87.342 Y32.73 E5.31719
G1 X87.627 Y31.875 E5.34717
G0 F6000 X87.999 Y32.023
G1 F1200 X88.333 Y31.184 E5.3772
G1 X88.77 Y30.318 E5.40947
G1 X89.238 Y29.551 E5.43935
G1 X89.752 Y28.809 E5.46937
G1 X90.352 Y28.087 E5.5006
G1 X90.976 Y27.446 E5.53035
G1 X91.677 Y26.81 E5.56183
G1 X92.769 Y26.015 E5.60676
G1 X93.087 Y25.814 E5.61927
G1 X93.903 Y25.349 E5.65051
G1 X94.751 Y24.959 E5.68155
G1 X95.522 Y24.673 E5.7089
G1 X96.442 Y24.392 E5.7409
G1 X97.357 Y24.198 E5.77201
G1 X98.258 Y24.083 E5.80222
G1 X99.195 Y24.018 E5.83346
G1 X100.13 Y24.037 E5.86456
G1 X101.027 Y24.127 E5.89455
G1 X101.962 Y24.279 E5.92605
G1 X103.22 Y24.624 E5.96944
G1 X103.604 Y24.756 E5.98294
G1 X104.476 Y25.101 E6.01414
G1 X105.31 Y25.519 E6.04516
G1 X105.825 Y25.826 E6.0651
G1 X106.16 Y26.04 E6.07833
G1 X106.928 Y26.58 E6.10955
G1 X107.642 Y27.181 E6.14059
G1 X108.237 Y27.766 E6.16835
G1 X108.867 Y28.462 E6.19957
G1 X109.43 Y29.207 E6.23063
G1 X109.894 Y29.933 E6.25929
G1 X110.354 Y30.751 E6.2905
G1 X110.738 Y31.602 E6.32155
G1 X111.017 Y32.37 E6.34873
G1 X111.292 Y33.3 E6.38098
G1 X111.531 Y34.599 E6.42491
G1 X111.576 Y34.976 E6.43754
G1 X111.644 Y35.912 E6.46876
G1 X111.632 Y36.815 E6.49879
G1 X111.575 Y37.463 E6.52043
G1 X111.53 Y37.844 E6.53319
G1 X111.377 Y38.769 E6.56437
G1 X111.144 Y39.674 E6.59545
G1 X110.876 Y40.461 E6.62311
G1 X110.538 Y41.298 E6.65313
G1 X109.875 Y42.534 E6.69978
G1 X109.678 Y42.848 E6.71211
G1 X109.139 Y43.626 E6.74359
G1 X108.242 Y44.662 E6.78917
G1 X107.98 Y44.926 E6.80154
G1 X107.29 Y45.563 E6.83277
G1 X106.55 Y46.135 E6.86388
G1 X105.814 Y46.615 E6.89311
G1 X105 Y47.081 E6.9243
G1 X104.151 Y47.472 E6.95539
G1 X103.345 Y47.771 E6.98398
G1 X102.481 Y48.035 E7.01403
G1 X101.564 Y48.231 E7.04522
G1 X100.956 Y48.316 E7.06564
G1 X100.572 Y48.357 E7.07848
G1 X99.635 Y48.416 E7.10971
G1 X98.732 Y48.394 E7.13975
G1 X97.868 Y48.307 E7.16863
G1 X96.941 Y48.157 E7.19987
G1 X96.065 Y47.936 E7.22992
G1 X95.224 Y47.654 E7.25942
G1 X94.354 Y47.303 E7.29062
G1 X93.549 Y46.894 E7.32065
G1 X93.047 Y46.593 E7.34012
G1 X92.714 Y46.38 E7.35327
G1 X91.947 Y45.839 E7.38449
G1 X91.234 Y45.236 E7.41555
G1 X90.639 Y44.649 E7.44334
G1 X90.006 Y43.945 E7.47483
G1 X89.218 Y42.851 E7.51968
G1 X89.002 Y42.505 E7.53324
G1 X88.542 Y41.687 E7.56446
G1 X88.157 Y40.835 E7.59555
G1 X87.862 Y40.016 E7.62451
G1 X87.594 Y39.107 E7.65603
G1 X87.351 Y37.753 E7.70178
G1 X87.31 Y37.378 E7.71433
G1 X87.249 Y36.442 E7.74552
G1 X87.268 Y35.539 E7.77556
G1 X87.351 Y34.69 E7.80394
G1 X87.496 Y33.763 E7.83514
G1 X87.722 Y32.856 E7.86623
G1 X87.999 Y32.023 E7.89543
G0 F6000 X88.371 Y32.171
G1 F1200 X88.705 Y31.332 E7.92547
G1 X89.112 Y30.526 E7.9555
G1 X89.567 Y29.779 E7.98459
G1 X90.081 Y29.037 E8.01461
G1 X90.659 Y28.343 E8.04465
G1 X91.245 Y27.742 E8.07257
G1 X91.913 Y27.133 E8.10263
G1 X92.983 Y26.353 E8.14667
G1 X93.286 Y26.161 E8.15861
G1 X94.07 Y25.712 E8.18866
G1 X94.89 Y25.334 E8.21869
G1 X95.661 Y25.048 E8.24604
G1 X96.525 Y24.783 E8.2761
G1 X97.408 Y24.595 E8.30612
G1 X98.286 Y24.482 E8.33557
G1 X99.187 Y24.418 E8.36561
G1 X100.09 Y24.435 E8.39565
G1 X100.964 Y24.522 E8.42486
G1 X101.856 Y24.665 E8.45491
G1 X103.114 Y25.01 E8.49829
G1 X103.457 Y25.128 E8.51036
G1 X104.297 Y25.459 E8.54039
G1 X105.105 Y25.863 E8.57043
G1 X105.61 Y26.164 E8.58999
G1 X105.931 Y26.368 E8.60264
G1 X106.671 Y26.886 E8.63268
G1 X107.362 Y27.467 E8.66271
G1 X107.941 Y28.035 E8.68969
G1 X108.548 Y28.704 E8.71973
G1 X109.093 Y29.423 E8.74974
G1 X109.546 Y30.13 E8.77767
G1 X109.99 Y30.916 E8.80769
G1 X110.362 Y31.739 E8.83773
G1 X110.641 Y32.507 E8.86491
G1 X110.899 Y33.373 E8.89496
G1 X111.134 Y34.646 E8.93802
G1 X111.177 Y35.006 E8.95008
G1 X111.244 Y35.907 E8.98013
G1 X111.232 Y36.81 E9.01016
G1 X111.178 Y37.416 E9.0304
G1 X111.135 Y37.779 E9.04256
G1 X110.989 Y38.67 E9.07259
G1 X110.765 Y39.545 E9.10263
G1 X110.505 Y40.311 E9.12953
G1 X110.167 Y41.148 E9.15956
G1 X109.536 Y42.322 E9.20389
G1 X109.349 Y42.621 E9.21561
G1 X108.837 Y43.364 E9.24563
G1 X107.957 Y44.381 E9.29036
G1 X107.708 Y44.633 E9.30214
G1 X107.045 Y45.247 E9.3322
G1 X106.331 Y45.8 E9.36223
G1 X105.615 Y46.268 E9.39068
G1 X104.832 Y46.718 E9.42072
G1 X104.012 Y47.097 E9.45077
G1 X103.228 Y47.388 E9.47858
G1 X102.364 Y47.652 E9.50863
G1 X101.481 Y47.84 E9.53866
G1 X100.913 Y47.918 E9.55772
G1 X100.546 Y47.958 E9.57
G1 X99.645 Y48.016 E9.60003
G1 X98.742 Y47.994 E9.63008
G1 X97.931 Y47.912 E9.65719
G1 X97.039 Y47.769 E9.68723
G1 X96.163 Y47.548 E9.71728
G1 X95.373 Y47.283 E9.745
G1 X94.535 Y46.946 E9.77504
G1 X93.73 Y46.537 E9.80507
G1 X93.262 Y46.256 E9.82323
G1 X92.944 Y46.053 E9.83577
G1 X92.205 Y45.533 E9.86583
G1 X91.515 Y44.951 E9.89585
G1 X90.936 Y44.381 E9.92288
G1 X90.331 Y43.711 E9.9529
G1 X89.543 Y42.617 E9.99774
G1 X89.35 Y42.308 E10.00986
G1 X88.906 Y41.522 E10.03989
G1 X88.533 Y40.699 E10.06994
G1 X88.245 Y39.902 E10.09812
G1 X87.988 Y39.036 E10.12817
G1 X87.749 Y37.708 E10.17305
G1 X87.709 Y37.351 E10.185
G1 X87.649 Y36.45 E10.21503
G1 X87.668 Y35.547 E10.24507
G1 X87.746 Y34.751 E10.27167
G1 X87.884 Y33.859 E10.30169
G1 X88.102 Y32.982 E10.33175
G1 X88.371 Y32.171 E10.36017
G1 F2700 E5.36017
;MESH:newNozzle.stl
G0 F6000 X99.68 Y37.583
;TYPE:WALL-OUTER
G1 F2700 E10.36017
G1 F1273.2 X99.213 Y37.582 E10.37481
G1 F1266.5 X98.851 Y37.458 E10.38687
G1 F1253.3 X98.585 Y37.292 E10.39685
G1 F1263.2 X98.408 Y37.129 E10.40446
G1 F1280 X98.223 Y36.858 E10.41469
G1 F1286.9 X98.106 Y36.551 E10.42488
G1 F1283.4 X98.065 Y36.211 E10.43553
G1 F1280 X98.1 Y35.91 E10.44498
G1 X98.211 Y35.597 E10.45533
G1 F1283.4 X98.395 Y35.316 E10.46578
G1 F1290.3 X98.66 Y35.084 E10.47667
G1 F1300.8 X98.96 Y34.926 E10.48707
G1 F1293.8 X99.362 Y34.828 E10.49984
G1 F1269.8 X99.749 Y34.872 E10.51208
G1 F1263.2 X100.15 Y35.011 E10.52549
G1 F1280 X100.474 Y35.294 E10.53891
G1 F1283.4 X100.669 Y35.576 E10.54957
G1 F1276.6 X100.784 Y35.882 E10.55979
G1 F1280 X100.827 Y36.213 E10.5702
G1 F1283.4 X100.792 Y36.522 E10.57987
G1 F1276.6 X100.688 Y36.813 E10.58953
G1 F1266.5 X100.522 Y37.073 E10.59925
G1 F1259.8 X100.304 Y37.294 E10.60908
G1 F1256.5 X100.045 Y37.455 E10.61877
G1 F1259.8 X99.68 Y37.583 E10.63102
G1 F2700 E5.63102
;MESH:NONMESH
G0 F300 X99.68 Y37.583 Z0.4
G0 F6000 X88.371 Y32.171
;TIME_ELAPSED:22.146694
;LAYER:1
M106 S255
;TYPE:SKIRT
G1 F2700 E10.63102
G1 F600 X88.705 Y31.332 E10.66106
G1 X89.112 Y30.526 E10.69109
G1 X89.567 Y29.779 E10.72018
G1 X90.081 Y29.037 E10.7502
G1 X90.659 Y28.343 E10.78024
G1 X91.245 Y27.742 E10.80816
G1 X91.913 Y27.133 E10.83823
G1 X92.983 Y26.353 E10.88227
G1 X93.286 Y26.161 E10.8942
G1 X94.07 Y25.712 E10.92425
G1 X94.89 Y25.334 E10.95428
G1 X95.661 Y25.048 E10.98163
G1 X96.525 Y24.783 E11.01169
G1 X97.408 Y24.595 E11.04172
G1 X98.286 Y24.482 E11.07116
G1 X99.187 Y24.418 E11.1012
G1 X100.09 Y24.435 E11.13124
G1 X100.964 Y24.522 E11.16045
G1 X101.856 Y24.665 E11.1905
G1 X103.114 Y25.01 E11.23389
G1 X103.457 Y25.128 E11.24595
G1 X104.297 Y25.459 E11.27598
G1 X105.105 Y25.863 E11.30603
G1 X105.61 Y26.164 E11.32558
G1 X105.931 Y26.368 E11.33823
G1 X106.671 Y26.886 E11.36827
G1 X107.362 Y27.467 E11.3983
G1 X107.941 Y28.035 E11.42528
G1 X108.548 Y28.704 E11.45532
G1 X109.093 Y29.423 E11.48533
G1 X109.546 Y30.13 E11.51326
G1 X109.99 Y30.916 E11.54328
G1 X110.362 Y31.739 E11.57332
G1 X110.641 Y32.507 E11.6005
G1 X110.899 Y33.373 E11.63055
G1 X111.134 Y34.646 E11.67361
G1 X111.177 Y35.006 E11.68567
G1 X111.244 Y35.907 E11.71572
G1 X111.232 Y36.81 E11.74576
G1 X111.178 Y37.416 E11.76599
G1 X111.135 Y37.779 E11.77815
G1 X110.989 Y38.67 E11.80818
G1 X110.765 Y39.545 E11.83822
G1 X110.505 Y40.311 E11.86513
G1 X110.167 Y41.148 E11.89515
G1 X109.536 Y42.322 E11.93948
G1 X109.349 Y42.621 E11.95121
G1 X108.837 Y43.364 E11.98122
G1 X107.957 Y44.381 E12.02595
G1 X107.708 Y44.633 E12.03773
G1 X107.045 Y45.247 E12.06779
G1 X106.331 Y45.8 E12.09783
G1 X105.615 Y46.268 E12.12628
G1 X104.832 Y46.718 E12.15631
G1 X104.012 Y47.097 E12.18636
G1 X103.228 Y47.388 E12.21417
G1 X102.364 Y47.652 E12.24422
G1 X101.481 Y47.84 E12.27425
G1 X100.913 Y47.918 E12.29332
G1 X100.546 Y47.958 E12.3056
G1 X99.645 Y48.016 E12.33563
G1 X98.742 Y47.994 E12.36567
G1 X97.931 Y47.912 E12.39278
G1 X97.039 Y47.769 E12.42283
G1 X96.163 Y47.548 E12.45288
G1 X95.373 Y47.283 E12.48059
G1 X94.535 Y46.946 E12.51063
G1 X93.73 Y46.537 E12.54066
G1 X93.262 Y46.256 E12.55882
G1 X92.944 Y46.053 E12.57137
G1 X92.205 Y45.533 E12.60142
G1 X91.515 Y44.951 E12.63144
G1 X90.936 Y44.381 E12.65847
G1 X90.331 Y43.711 E12.68849
G1 X89.543 Y42.617 E12.73334
G1 X89.35 Y42.308 E12.74545
G1 X88.906 Y41.522 E12.77548
G1 X88.533 Y40.699 E12.80553
G1 X88.245 Y39.902 E12.83372
G1 X87.988 Y39.036 E12.86376
G1 X87.749 Y37.708 E12.90864
G1 X87.709 Y37.351 E12.92059
G1 X87.649 Y36.45 E12.95062
G1 X87.668 Y35.547 E12.98066
G1 X87.746 Y34.751 E13.00727
G1 X87.884 Y33.859 E13.03729
G1 X88.102 Y32.982 E13.06734
G1 X88.371 Y32.171 E13.09576
G1 F2700 E8.09576
;MESH:newNozzle.stl
G0 F7500 X99.444 Y37.615
;TYPE:WALL-OUTER
G1 F2700 E13.09576
G1 F572.8 X99.033 Y37.567 E13.11018
G1 F575.5 X98.627 Y37.36 E13.12598
G1 F567.4 X98.353 Y37.086 E13.13961
G1 F566 X98.184 Y36.824 E13.1506
G1 F570.1 X98.083 Y36.526 E13.16162
G1 F574.2 X98.045 Y36.216 E13.17247
G1 F575.5 X98.083 Y35.902 E13.18344
G1 F572.8 X98.182 Y35.607 E13.19428
G1 F568.7 X98.351 Y35.345 E13.20522
G1 F567.4 X98.572 Y35.122 E13.21626
G1 F568.7 X98.84 Y34.956 E13.22733
G1 F564.7 X99.14 Y34.853 E13.23853
G1 F566 X99.444 Y34.817 E13.24933
G1 F574.2 X99.852 Y34.865 E13.26361
G1 F578.3 X100.26 Y35.068 E13.27933
G1 F571.4 X100.537 Y35.345 E13.29301
G1 X100.703 Y35.599 E13.30361
G1 F572.8 X100.809 Y35.903 E13.31483
G1 F574.2 X100.847 Y36.216 E13.32578
G1 F576.9 X100.81 Y36.526 E13.33658
G1 F574.2 X100.71 Y36.821 E13.34741
G1 F571.4 X100.539 Y37.087 E13.35845
G1 F572.8 X100.294 Y37.328 E13.37043
G1 F567.4 X100.05 Y37.474 E13.38043
G1 F559.4 X99.752 Y37.578 E13.39169
G1 F563.4 X99.444 Y37.615 E13.40267
G1 F2700 E8.40267
;MESH:NONMESH
G0 F300 X99.444 Y37.615 Z0.6
G0 F7500 X88.371 Y32.171
;TIME_ELAPSED:31.904993
;LAYER:2
;TYPE:SKIRT
G1 F2700 E13.40267
G1 F600 X88.705 Y31.332 E13.43271
G1 X89.112 Y30.526 E13.46274
G1 X89.567 Y29.779 E13.49183
G1 X90.081 Y29.037 E13.52185
