;FLAVOR:Marlin
;TIME:3586
;Filament used: 2.55944m
;Layer height: 0.2
;MINX:84.552
;MINY:32.707
;MINZ:0.2
;MAXX:144.509
;MAXY:73.675
;MAXZ:34.8
;TARGET_MACHINE.NAME:Creality Ender-3
;Generated with Cura_SteamEngine 5.7.1
M140 S50
M105
M190 S50
M104 S200
M105
M109 S200
M82 ;absolute extrusion mode
; Ender 3 Custom Start G-code
G92 E0 ; Reset Extruder
G28 ; Home all axes
G1 Z2.0 F3000 ; Move Z Axis up little to prevent scratching of Heat Bed
G1 X0.1 Y20 Z0.3 F5000.0 ; Move to start position
G1 X0.1 Y200.0 Z0.3 F1500.0 E15 ; Draw the first line
G1 X0.4 Y200.0 Z0.3 F5000.0 ; Move to side a little
G1 X0.4 Y20 Z0.3 F1500.0 E30 ; Draw the second line
G92 E0 ; Reset Extruder
G1 Z2.0 F3000 ; Move Z Axis up little to prevent scratching of Heat Bed
G1 X5 Y20 Z0.3 F5000.0 ; Move over to prevent blob squish
G92 E0
G92 E0
G1 F2700 E-5
;LAYER_COUNT:174
;LAYER:0
M107
G0 F6000 X85.427 Y39.397 Z0.2
;TYPE:SKIRT
G1 F2700 E0
G1 F1200 X85.849 Y38.52 E0.03237
G1 X86.347 Y37.682 E0.06479
G1 X86.895 Y36.92 E0.09601
G1 X87.554 Y36.156 E0.12957
G1 X88.254 Y35.479 E0.16196
G1 X89.011 Y34.867 E0.19433
G1 X89.789 Y34.342 E0.22555
G1 X90.673 Y33.854 E0.25914
G1 X91.564 Y33.462 E0.29151
G1 X92.453 Y33.16 E0.32274
G1 X93.398 Y32.929 E0.3551
G1 X94.391 Y32.778 E0.3885
G1 X95.195 Y32.722 E0.41531
G1 X95.834 Y32.707 E0.43657
G1 X103.336 Y32.707 E0.68609
G1 X104.216 Y32.72 E0.71536
G1 X105.101 Y32.771 E0.74484
G1 X108.229 Y33.043 E0.84927
G1 X110.745 Y33.185 E0.93309
G1 X113.278 Y33.257 E1.01737
G1 X115.767 Y33.257 E1.10015
G1 X118.3 Y33.185 E1.18444
G1 X120.813 Y33.044 E1.26815
G1 X123.138 Y32.851 E1.34575
G1 X124.03 Y32.765 E1.37555
G1 X124.883 Y32.717 E1.40397
G1 X125.487 Y32.708 E1.42406
G1 X132.836 Y32.707 E1.66849
G1 X133.715 Y32.72 E1.69773
G1 X134.687 Y32.779 E1.73011
G1 X135.65 Y32.925 E1.76251
G1 X136.597 Y33.156 E1.79493
G1 X137.519 Y33.47 E1.82733
G1 X138.41 Y33.864 E1.85973
G1 X139.26 Y34.333 E1.89202
G1 X140.011 Y34.835 E1.92206
G1 X140.826 Y35.493 E1.9569
G1 X141.524 Y36.171 E1.98927
G1 X142.16 Y36.908 E2.02164
G1 X142.73 Y37.698 E2.05405
G1 X143.192 Y38.474 E2.08408
G1 X143.646 Y39.416 E2.11886
G1 X143.975 Y40.294 E2.15005
G1 X144.244 Y41.267 E2.18363
G1 X144.419 Y42.225 E2.21602
G1 X144.509 Y43.2 E2.24858
G1 X144.506 Y44.291 E2.28487
G1 X144.427 Y45.821 E2.33582
G1 X144.356 Y46.779 E2.36778
G1 X144.256 Y47.643 E2.3967
G1 X144.115 Y48.51 E2.42592
G1 X143.83 Y50.074 E2.47879
G1 X143.601 Y51.053 E2.51224
G1 X143.302 Y52.095 E2.54829
G1 X142.887 Y53.446 E2.5953
G1 X142.545 Y54.393 E2.62879
G1 X142.148 Y55.347 E2.66315
G1 X141.571 Y56.658 E2.71079
G1 X141.125 Y57.552 E2.74402
G1 X140.578 Y58.529 E2.78127
G1 X139.879 Y59.72 E2.8272
G1 X139.332 Y60.556 E2.86043
G1 X138.735 Y61.381 E2.8943
G1 X137.882 Y62.513 E2.94144
G1 X137.184 Y63.347 E2.97761
G1 X136.106 Y64.509 E3.03033
G1 X135.426 Y65.211 E3.06284
G1 X134.772 Y65.83 E3.09279
G1 X134.161 Y66.357 E3.11962
G1 X132.883 Y67.416 E3.17483
G1 X132.095 Y68.007 E3.20759
G1 X131.234 Y68.591 E3.24219
G1 X129.996 Y69.391 E3.29122
G1 X129.14 Y69.89 E3.32417
G1 X128.22 Y70.368 E3.35865
G1 X126.895 Y71.02 E3.40777
G1 X125.997 Y71.41 E3.44033
G1 X125.048 Y71.77 E3.47409
G1 X123.671 Y72.261 E3.52271
G1 X122.713 Y72.552 E3.55602
G1 X121.885 Y72.762 E3.58443
G1 X120.285 Y73.131 E3.63904
G1 X119.307 Y73.307 E3.67209
G1 X118.224 Y73.448 E3.70842
G1 X116.866 Y73.597 E3.75385
G1 X115.759 Y73.662 E3.79074
G1 X114.211 Y73.675 E3.84222
G1 X113.259 Y73.662 E3.87389
G1 X112.359 Y73.611 E3.90387
G1 X111.301 Y73.502 E3.93925
G1 X109.898 Y73.328 E3.98627
G1 X108.912 Y73.158 E4.01955
G1 X107.86 Y72.924 E4.05539
G1 X106.448 Y72.578 E4.10375
G1 X105.512 Y72.3 E4.13622
G1 X104.549 Y71.965 E4.17013
G1 X103.167 Y71.451 E4.21918
G1 X102.24 Y71.055 E4.2527
G1 X101.322 Y70.607 E4.28668
G1 X100.035 Y69.949 E4.33475
G1 X99.164 Y69.452 E4.36811
G1 X98.457 Y69.002 E4.39598
G1 X97.107 Y68.104 E4.44991
G1 X96.234 Y67.456 E4.48607
G1 X95.077 Y66.503 E4.53593
G1 X94.305 Y65.839 E4.56979
G1 X93.631 Y65.202 E4.60064
G1 X92.878 Y64.425 E4.63663
G1 X91.932 Y63.407 E4.68285
G1 X91.242 Y62.587 E4.71849
G1 X90.311 Y61.357 E4.7698
G1 X89.739 Y60.566 E4.80227
G1 X89.236 Y59.802 E4.83269
G1 X88.689 Y58.883 E4.86826
G1 X88.003 Y57.676 E4.91444
G1 X87.538 Y56.754 E4.94878
G1 X87.111 Y55.796 E4.98367
G1 X86.558 Y54.493 E5.03075
G1 X86.204 Y53.527 E5.06497
G1 X85.672 Y51.796 E5.1252
G1 X85.467 Y51.065 E5.15045
G1 X85.263 Y50.202 E5.17994
G1 X85.057 Y49.122 E5.21651
G1 X84.823 Y47.731 E5.26343
G1 X84.7 Y46.672 E5.29888
G1 X84.581 Y44.866 E5.35908
G1 X84.552 Y44.148 E5.38298
G1 X84.558 Y43.176 E5.41531
G1 X84.648 Y42.205 E5.44775
G1 X84.824 Y41.247 E5.48014
G1 X85.085 Y40.31 E5.51249
G1 X85.427 Y39.397 E5.54492
G0 F6000 X85.788 Y39.57
G1 F1200 X86.193 Y38.724 E5.57612
G1 X86.672 Y37.916 E5.60736
G1 X87.22 Y37.154 E5.63858
G1 X87.833 Y36.443 E5.6698
G1 X88.506 Y35.79 E5.70099
G1 X89.235 Y35.199 E5.7322
G1 X90.013 Y34.674 E5.76342
G1 X90.835 Y34.22 E5.79465
G1 X91.693 Y33.841 E5.82585
G1 X92.548 Y33.549 E5.8559
G1 X93.493 Y33.318 E5.88826
G1 X94.419 Y33.177 E5.91941
G1 X95.204 Y33.122 E5.94558
G1 X95.843 Y33.107 E5.96684
G1 X103.33 Y33.107 E6.21586
G1 X104.193 Y33.119 E6.24457
G1 X105.066 Y33.169 E6.27365
G1 X108.205 Y33.442 E6.37845
G1 X110.734 Y33.585 E6.4627
G1 X113.267 Y33.657 E6.54698
G1 X115.778 Y33.657 E6.6305
G1 X118.311 Y33.585 E6.71478
G1 X120.846 Y33.442 E6.79923
G1 X123.171 Y33.249 E6.87682
G1 X124.052 Y33.164 E6.90626
G1 X124.889 Y33.117 E6.93414
G1 X125.487 Y33.108 E6.95403
G1 X132.83 Y33.107 E7.19826
G1 X133.691 Y33.119 E7.2269
G1 X134.628 Y33.175 E7.25812
G1 X135.556 Y33.314 E7.28933
G1 X136.469 Y33.535 E7.32058
G1 X137.358 Y33.836 E7.35179
G1 X138.217 Y34.214 E7.38301
G1 X139.038 Y34.666 E7.41418
G1 X139.789 Y35.168 E7.44422
G1 X140.548 Y35.78 E7.47665
G1 X141.222 Y36.433 E7.50787
G1 X141.836 Y37.142 E7.53906
G1 X142.386 Y37.903 E7.57029
G1 X142.848 Y38.679 E7.60033
G1 X143.271 Y39.556 E7.63271
G1 X143.6 Y40.434 E7.6639
G1 X143.851 Y41.339 E7.69514
G1 X144.021 Y42.262 E7.72635
G1 X144.109 Y43.199 E7.75765
G1 X144.107 Y44.27 E7.79327
G1 X144.028 Y45.792 E7.84396
G1 X143.959 Y46.733 E7.87535
G1 X143.861 Y47.579 E7.90367
G1 X143.722 Y48.438 E7.93261
G1 X143.44 Y49.983 E7.98485
G1 X143.216 Y50.943 E8.01764
G1 X142.92 Y51.978 E8.05344
G1 X142.511 Y53.31 E8.09979
G1 X142.176 Y54.239 E8.13263
G1 X141.782 Y55.186 E8.16675
G1 X141.213 Y56.48 E8.21376
G1 X140.776 Y57.357 E8.24635
G1 X140.233 Y58.327 E8.28333
G1 X139.544 Y59.501 E8.3286
G1 X139.008 Y60.321 E8.36118
G1 X138.415 Y61.14 E8.39482
G1 X137.575 Y62.256 E8.44127
G1 X136.877 Y63.09 E8.47744
G1 X135.819 Y64.231 E8.5292
G1 X135.151 Y64.921 E8.56114
G1 X134.511 Y65.527 E8.59046
G1 X133.906 Y66.049 E8.61703
G1 X132.643 Y67.096 E8.6716
G1 X131.871 Y67.676 E8.70371
G1 X131.017 Y68.255 E8.73803
G1 X129.794 Y69.046 E8.78647
G1 X128.956 Y69.535 E8.81874
G1 X128.043 Y70.009 E8.85296
G1 X126.735 Y70.653 E8.90145
G1 X125.855 Y71.036 E8.93337
G1 X124.914 Y71.393 E8.96685
G1 X123.555 Y71.878 E9.01484
G1 X122.615 Y72.164 E9.04752
G1 X121.795 Y72.372 E9.07566
G1 X120.214 Y72.737 E9.12962
G1 X119.255 Y72.91 E9.16203
G1 X118.18 Y73.05 E9.19809
G1 X116.822 Y73.199 E9.24353
G1 X115.756 Y73.262 E9.27905
G1 X114.216 Y73.275 E9.33027
G1 X113.282 Y73.263 E9.36134
G1 X112.4 Y73.213 E9.39072
G1 X111.35 Y73.105 E9.42583
G1 X109.966 Y72.934 E9.47221
G1 X108.999 Y72.768 E9.50484
G1 X107.955 Y72.536 E9.54041
G1 X106.562 Y72.194 E9.58812
G1 X105.643 Y71.922 E9.62
G1 X104.688 Y71.59 E9.65362
G1 X103.324 Y71.083 E9.70202
G1 X102.415 Y70.695 E9.7349
G1 X101.504 Y70.251 E9.7686
G1 X100.233 Y69.602 E9.81607
G1 X99.379 Y69.115 E9.84877
G1 X98.679 Y68.669 E9.87637
G1 X97.329 Y67.771 E9.9303
G1 X96.488 Y67.147 E9.96513
G1 X95.338 Y66.2 E10.01468
G1 X94.58 Y65.548 E10.04793
G1 X93.918 Y64.923 E10.07822
G1 X93.171 Y64.153 E10.1139
G1 X92.238 Y63.15 E10.15946
G1 X91.561 Y62.345 E10.19444
G1 X90.635 Y61.123 E10.24544
G1 X90.073 Y60.346 E10.27733
G1 X89.58 Y59.597 E10.30716
G1 X89.037 Y58.685 E10.34246
G1 X88.351 Y57.478 E10.38864
G1 X87.903 Y56.591 E10.42169
G1 X87.479 Y55.64 E10.45632
G1 X86.934 Y54.355 E10.50274
G1 X86.58 Y53.389 E10.53696
G1 X86.057 Y51.688 E10.59615
G1 X85.856 Y50.973 E10.62085
G1 X85.656 Y50.127 E10.64977
G1 X85.451 Y49.056 E10.68604
G1 X85.22 Y47.685 E10.73228
G1 X85.099 Y46.646 E10.76707
G1 X84.981 Y44.849 E10.82697
G1 X84.952 Y44.15 E10.85023
G1 X84.956 Y43.212 E10.88143
G1 X85.041 Y42.277 E10.91266
G1 X85.21 Y41.354 E10.94387
G1 X85.46 Y40.45 E10.97506
G1 X85.788 Y39.57 E11.0063
G0 F6000 X86.149 Y39.742
G1 F1200 X86.538 Y38.927 E11.03634
G1 X86.997 Y38.149 E11.06638
G1 X87.523 Y37.415 E11.09642
G1 X88.112 Y36.73 E11.12646
G1 X88.759 Y36.1 E11.1565
G1 X89.459 Y35.53 E11.18652
G1 X90.207 Y35.024 E11.21656
G1 X90.997 Y34.586 E11.2466
G1 X91.822 Y34.22 E11.27662
G1 X92.677 Y33.928 E11.30667
G1 X93.554 Y33.713 E11.3367
G1 X94.447 Y33.576 E11.36675
G1 X95.213 Y33.522 E11.39229
G1 X95.852 Y33.507 E11.41355
G1 X103.325 Y33.507 E11.66211
G1 X104.17 Y33.518 E11.69021
G1 X105.031 Y33.567 E11.7189
G1 X108.182 Y33.841 E11.82409
G1 X110.723 Y33.985 E11.90874
G1 X113.256 Y34.057 E11.99303
G1 X115.789 Y34.057 E12.07727
G1 X118.322 Y33.985 E12.16156
G1 X120.879 Y33.84 E12.24674
G1 X123.204 Y33.647 E12.32433
G1 X124.074 Y33.563 E12.35341
G1 X124.895 Y33.517 E12.38076
G1 X125.487 Y33.508 E12.40045
G1 X132.825 Y33.507 E12.64451
G1 X133.668 Y33.518 E12.67255
G1 X134.57 Y33.571 E12.7026
G1 X135.463 Y33.703 E12.73263
G1 X136.341 Y33.914 E12.76266
G1 X137.197 Y34.202 E12.7927
G1 X138.025 Y34.565 E12.82277
G1 X138.816 Y34.999 E12.85278
G1 X139.567 Y35.501 E12.88282
G1 X140.27 Y36.068 E12.91286
G1 X140.92 Y36.695 E12.9429
G1 X141.512 Y37.377 E12.97294
G1 X142.042 Y38.108 E13.00297
G1 X142.504 Y38.884 E13.03301
G1 X142.897 Y39.697 E13.06304
G1 X143.215 Y40.542 E13.09307
G1 X143.458 Y41.412 E13.12311
G1 X143.623 Y42.3 E13.15315
G1 X143.709 Y43.199 E13.18319
G1 X143.708 Y44.249 E13.21811
G1 X143.629 Y45.763 E13.26854
G1 X143.562 Y46.687 E13.29935
G1 X143.466 Y47.515 E13.32708
G1 X143.329 Y48.366 E13.35574
G1 X143.05 Y49.892 E13.40734
G1 X142.831 Y50.833 E13.43948
G1 X142.538 Y51.861 E13.47503
G1 X142.135 Y53.174 E13.52071
G1 X141.807 Y54.085 E13.55291
G1 X141.416 Y55.025 E13.58678
G1 X140.855 Y56.302 E13.63317
G1 X140.427 Y57.162 E13.66512
G1 X139.888 Y58.125 E13.70182
G1 X139.209 Y59.282 E13.74644
G1 X138.684 Y60.086 E13.77838
G1 X138.095 Y60.899 E13.81177
G1 X137.255 Y62.015 E13.85823
G1 X136.584 Y62.818 E13.89303
G1 X135.531 Y63.953 E13.94453
G1 X134.876 Y64.631 E13.97588
G1 X134.25 Y65.224 E14.00456
G1 X133.651 Y65.741 E14.03088
G1 X132.402 Y66.776 E14.08483
G1 X131.646 Y67.345 E14.1163
G1 X130.8 Y67.919 E14.1503
G1 X129.592 Y68.701 E14.19817
G1 X128.772 Y69.18 E14.22975
G1 X127.866 Y69.65 E14.2637
G1 X126.575 Y70.286 E14.31157
G1 X125.713 Y70.662 E14.34284
G1 X124.78 Y71.016 E14.37603
G1 X123.438 Y71.495 E14.42343
G1 X122.517 Y71.776 E14.45545
G1 X121.705 Y71.982 E14.48332
G1 X120.143 Y72.343 E14.53664
G1 X119.203 Y72.513 E14.56841
G1 X118.136 Y72.652 E14.6042
G1 X116.778 Y72.801 E14.64964
G1 X115.753 Y72.862 E14.68379
G1 X114.221 Y72.875 E14.73475
G1 X113.305 Y72.864 E14.76521
G1 X112.441 Y72.815 E14.794
G1 X111.399 Y72.708 E14.82884
G1 X110.033 Y72.54 E14.87461
G1 X109.086 Y72.378 E14.90657
G1 X108.05 Y72.147 E14.94187
G1 X106.675 Y71.81 E14.98896
G1 X105.774 Y71.544 E15.0202
G1 X104.827 Y71.215 E15.05355
G1 X103.481 Y70.715 E15.1013
G1 X102.59 Y70.335 E15.13352
G1 X101.686 Y69.895 E15.16696
G1 X100.431 Y69.255 E15.21382
G1 X99.594 Y68.777 E15.24588
G1 X98.9 Y68.336 E15.27322
G1 X97.567 Y67.45 E15.32646
G1 X96.742 Y66.838 E15.36063
G1 X95.599 Y65.897 E15.40987
G1 X94.854 Y65.257 E15.44253
G1 X94.205 Y64.645 E15.4722
G1 X93.464 Y63.88 E15.50763
G1 X92.544 Y62.892 E15.55253
G1 X91.88 Y62.103 E15.58683
G1 X90.959 Y60.888 E15.63754
G1 X90.407 Y60.126 E15.66883
G1 X89.924 Y59.392 E15.69806
G1 X89.385 Y58.487 E15.73309
G1 X88.708 Y57.297 E15.77863
G1 X88.268 Y56.428 E15.81102
G1 X87.847 Y55.484 E15.8454
G1 X87.31 Y54.217 E15.89117
G1 X86.956 Y53.251 E15.92539
G1 X86.442 Y51.579 E15.98357
G1 X86.245 Y50.881 E16.00769
G1 X86.049 Y50.052 E16.03602
G1 X85.845 Y48.989 E16.07203
G1 X85.617 Y47.639 E16.11756
G1 X85.498 Y46.62 E16.15168
G1 X85.381 Y44.832 E16.21128
G1 X85.352 Y44.151 E16.23395
G1 X85.354 Y43.248 E16.26399
G1 X85.435 Y42.348 E16.29404
G1 X85.596 Y41.46 E16.32406
G1 X85.835 Y40.589 E16.3541
G1 X86.149 Y39.742 E16.38414
G1 F2700 E11.38414
;MESH:rotaryCollar-couplerMotorRightPart.stl
G0 F6000 X94.996 Y45.923
G0 X115.6 Y62.072
;TYPE:WALL-INNER
G1 F2700 E16.38414
G1 F1200 X117.719 Y61.824 E16.4551
G1 X119.819 Y61.328 E16.52687
G1 X121.822 Y60.6 E16.59775
G1 X123.719 Y59.647 E16.66836
G1 X125.525 Y58.458 E16.74028
G1 X127.151 Y57.094 E16.81087
G1 X128.623 Y55.533 E16.88223
G1 X129.905 Y53.813 E16.95358
G1 X130.97 Y51.962 E17.02461
G1 X131.819 Y49.997 E17.0958
G1 X132.435 Y47.953 E17.16681
G1 X132.803 Y45.854 E17.23769
G1 X132.895 Y44.305 E17.2893
G1 X125.589 Y44.304 E17.5323
G1 X125.512 Y45.352 E17.56725
G1 X125.143 Y46.962 E17.62218
G1 X124.517 Y48.549 E17.67893
G1 X123.723 Y49.926 E17.73179
G1 X122.702 Y51.215 E17.78649
G1 X121.462 Y52.376 E17.84298
G1 X120.111 Y53.302 E17.89746
G1 X118.542 Y54.054 E17.95533
G1 X117.003 Y54.528 E18.00889
G1 X115.382 Y54.772 E18.06341
G1 X113.675 Y54.773 E18.12019
G1 X112.055 Y54.531 E18.17467
G1 X110.49 Y54.044 E18.22918
G1 X108.954 Y53.302 E18.28592
G1 X107.594 Y52.372 E18.34071
G1 X106.399 Y51.264 E18.39492
G1 X105.374 Y49.978 E18.44961
G1 X104.521 Y48.499 E18.5064
G1 X103.917 Y46.965 E18.56123
G1 X103.562 Y45.401 E18.61458
G1 X103.472 Y44.304 E18.65118
G1 X96.168 Y44.304 E18.89412
G1 X96.257 Y45.846 E18.94549
G1 X96.629 Y47.953 E19.01665
G1 X97.237 Y49.99 E19.08736
G1 X98.089 Y51.962 E19.15881
G1 X99.159 Y53.813 E19.22992
G1 X100.437 Y55.533 E19.30119
G1 X101.905 Y57.09 E19.37236
G1 X103.535 Y58.457 E19.44312
G1 X105.337 Y59.643 E19.51487
G1 X107.231 Y60.592 E19.58533
G1 X109.245 Y61.328 E19.65665
G1 X111.349 Y61.828 E19.72857
G1 X113.463 Y62.072 E19.79935
G1 X115.6 Y62.072 E19.87043
G0 F6000 X115.624 Y62.472
;TYPE:WALL-OUTER
G1 F1200 X117.789 Y62.218 E19.94293
G1 X119.934 Y61.712 E20.01623
G1 X121.98 Y60.968 E20.08864
G1 X123.919 Y59.994 E20.16081
G1 X125.764 Y58.779 E20.23429
G1 X127.426 Y57.386 E20.30642
G1 X128.93 Y55.791 E20.37933
G1 X130.24 Y54.033 E20.45225
G1 X131.328 Y52.142 E20.52481
G1 X132.195 Y50.135 E20.59753
G1 X132.825 Y48.045 E20.67013
G1 X133.201 Y45.9 E20.74256
G1 X133.319 Y43.905 E20.80903
G1 X125.218 Y43.904 E21.07847
G1 X125.116 Y45.279 E21.12433
G1 X124.751 Y46.874 E21.17875
G1 X124.166 Y48.356 E21.23175
G1 X123.38 Y49.72 E21.28411
G1 X122.378 Y50.978 E21.3376
G1 X121.205 Y52.07 E21.3909
G1 X119.891 Y52.968 E21.44384
G1 X118.424 Y53.672 E21.49796
G1 X116.911 Y54.139 E21.55062
G1 X115.336 Y54.375 E21.60359
G1 X113.714 Y54.374 E21.65754
G1 X112.145 Y54.139 E21.71031
G1 X110.636 Y53.672 E21.76284
G1 X109.184 Y52.974 E21.81643
G1 X107.851 Y52.066 E21.87007
G1 X106.69 Y50.99 E21.92272
G1 X105.695 Y49.74 E21.97586
G1 X104.888 Y48.34 E22.02961
G1 X104.3 Y46.849 E22.08291
G1 X103.952 Y45.313 E22.1353
G1 X103.842 Y43.904 E22.1823
G1 X95.744 Y43.904 E22.45164
G1 X95.859 Y45.892 E22.51787
G1 X96.239 Y48.045 E22.59059
G1 X96.861 Y50.127 E22.66286
G1 X97.731 Y52.142 E22.73586
G1 X98.824 Y54.033 E22.80851
G1 X100.13 Y55.791 E22.88135
G1 X101.63 Y57.382 E22.95407
G1 X103.296 Y58.779 E23.02639
G1 X105.137 Y59.99 E23.09968
G1 X107.072 Y60.96 E23.17167
G1 X109.13 Y61.712 E23.24455
G1 X111.279 Y62.222 E23.31801
G1 X113.44 Y62.472 E23.39036
G1 X115.624 Y62.472 E23.463
G0 F6000 X115.576 Y61.712
;TYPE:SKIN
G1 F1200 X113.484 Y61.712 E23.53258
G1 X111.415 Y61.47 E23.60187
G1 X109.342 Y60.98 E23.67272
G1 X107.376 Y60.26 E23.74235
G1 X105.517 Y59.326 E23.81155
G1 X103.74 Y58.159 E23.88226
G1 X102.154 Y56.83 E23.95108
G1 X100.706 Y55.295 E24.02126
G1 X99.468 Y53.625 E24.09041
G1 X98.4 Y51.782 E24.16125
G1 X97.577 Y49.867 E24.23058
G1 X96.975 Y47.865 E24.30011
G1 X96.616 Y45.816 E24.3693
G1 X96.549 Y44.664 E24.40768
G1 X103.138 Y44.664 E24.62683
