;FLAVOR:Marlin
;TIME:3586
;Filament used: 2.55894m
;Layer height: 0.2
;MINX:79.229
;MINY:13.828
;MINZ:0.2
;MAXX:139.186
;MAXY:54.796
;MAXZ:34.8
;TARGET_MACHINE.NAME:Creality Ender-3
;Generated with Cura_SteamEngine 5.7.1
M140 S50
M105
M190 S50
M104 S200
M105
M109 S200
M82 ;absolute extrusion mode
; Ender 3 Custom Start G-code
G92 E0 ; Reset Extruder
G28 ; Home all axes
G1 Z2.0 F3000 ; Move Z Axis up little to prevent scratching of Heat Bed
G1 X0.1 Y20 Z0.3 F5000.0 ; Move to start position
G1 X0.1 Y200.0 Z0.3 F1500.0 E15 ; Draw the first line
G1 X0.4 Y200.0 Z0.3 F5000.0 ; Move to side a little
G1 X0.4 Y20 Z0.3 F1500.0 E30 ; Draw the second line
G92 E0 ; Reset Extruder
G1 Z2.0 F3000 ; Move Z Axis up little to prevent scratching of Heat Bed
G1 X5 Y20 Z0.3 F5000.0 ; Move over to prevent blob squish
G92 E0
G92 E0
G1 F2700 E-5
;LAYER_COUNT:174
;LAYER:0
M107
G0 F6000 X79.724 Y21.547 Z0.2
;TYPE:SKIRT
G1 F2700 E0
G1 F1200 X80.071 Y20.599 E0.03358
G1 X80.485 Y19.718 E0.06595
G1 X80.976 Y18.877 E0.09834
G1 X81.54 Y18.083 E0.13074
G1 X82.171 Y17.342 E0.16311
G1 X82.865 Y16.66 E0.19547
G1 X83.617 Y16.04 E0.22789
G1 X84.361 Y15.528 E0.25792
G1 X85.272 Y15.015 E0.2927
G1 X86.16 Y14.616 E0.32508
G1 X87.08 Y14.296 E0.35748
G1 X88.025 Y14.06 E0.38987
G1 X88.984 Y13.908 E0.42217
G1 X89.872 Y13.843 E0.45178
G1 X90.511 Y13.828 E0.47304
G1 X98.013 Y13.828 E0.72256
G1 X98.889 Y13.841 E0.7517
G1 X99.748 Y13.888 E0.78031
G1 X102.952 Y14.167 E0.88728
G1 X105.44 Y14.306 E0.97016
G1 X107.976 Y14.377 E1.05454
G1 X110.465 Y14.377 E1.13732
G1 X113.03 Y14.304 E1.22267
G1 X115.488 Y14.165 E1.30455
G1 X117.694 Y13.981 E1.37818
G1 X118.705 Y13.885 E1.41196
G1 X119.556 Y13.838 E1.44031
G1 X120.326 Y13.828 E1.46592
G1 X127.66 Y13.829 E1.70985
G1 X128.392 Y13.841 E1.7342
G1 X129.364 Y13.9 E1.76659
G1 X130.327 Y14.046 E1.79898
G1 X131.274 Y14.277 E1.8314
G1 X132.196 Y14.591 E1.8638
G1 X133.087 Y14.985 E1.8962
G1 X133.937 Y15.454 E1.92849
G1 X134.688 Y15.956 E1.95853
G1 X135.503 Y16.614 E1.99337
G1 X136.201 Y17.292 E2.02574
G1 X136.837 Y18.029 E2.05812
G1 X137.407 Y18.819 E2.09052
G1 X137.869 Y19.595 E2.12055
G1 X138.323 Y20.537 E2.15533
G1 X138.652 Y21.415 E2.18652
G1 X138.921 Y22.388 E2.2201
G1 X139.096 Y23.346 E2.25249
G1 X139.186 Y24.321 E2.28505
G1 X139.183 Y25.406 E2.32114
G1 X139.098 Y27.042 E2.37563
G1 X139.039 Y27.84 E2.40224
G1 X138.932 Y28.761 E2.43308
G1 X138.807 Y29.544 E2.45945
G1 X138.504 Y31.204 E2.51558
G1 X138.275 Y32.184 E2.54905
G1 X137.992 Y33.175 E2.58333
G1 X137.583 Y34.512 E2.62983
G1 X137.227 Y35.497 E2.66467
G1 X136.815 Y36.49 E2.70042
G1 X136.248 Y37.779 E2.74726
G1 X135.803 Y38.673 E2.78047
G1 X135.279 Y39.611 E2.81621
G1 X134.575 Y40.81 E2.86246
G1 X134.013 Y41.672 E2.89668
G1 X133.385 Y42.537 E2.93223
G1 X132.528 Y43.67 E2.97948
G1 X131.888 Y44.438 E3.01273
G1 X131.335 Y45.041 E3.03995
G1 X130.183 Y46.247 E3.09542
G1 X129.472 Y46.925 E3.12809
G1 X128.647 Y47.637 E3.16434
G1 X127.548 Y48.545 E3.21175
G1 X126.761 Y49.134 E3.24445
G1 X125.903 Y49.716 E3.27893
G1 X124.671 Y50.512 E3.32772
G1 X123.751 Y51.045 E3.36308
G1 X122.403 Y51.737 E3.41348
G1 X121.505 Y52.172 E3.44667
G1 X120.687 Y52.525 E3.4763
G1 X119.676 Y52.91 E3.51228
G1 X118.36 Y53.378 E3.55874
G1 X117.32 Y53.688 E3.59483
G1 X115.62 Y54.105 E3.65305
G1 X114.867 Y54.272 E3.6787
G1 X113.876 Y54.443 E3.71215
G1 X112.345 Y54.634 E3.76347
G1 X111.47 Y54.726 E3.79273
G1 X110.438 Y54.783 E3.82711
G1 X108.887 Y54.796 E3.87869
G1 X107.941 Y54.783 E3.91016
G1 X107.048 Y54.732 E3.93991
G1 X106.197 Y54.647 E3.96836
G1 X104.553 Y54.444 E4.02345
G1 X103.573 Y54.275 E4.05653
G1 X102.518 Y54.041 E4.09247
G1 X101.141 Y53.703 E4.13963
G1 X100.188 Y53.421 E4.17268
G1 X99.162 Y53.062 E4.20884
G1 X97.853 Y52.575 E4.25529
G1 X96.932 Y52.182 E4.28859
G1 X95.935 Y51.696 E4.32549
G1 X94.674 Y51.049 E4.37262
G1 X93.742 Y50.51 E4.40843
G1 X92.22 Y49.522 E4.46879
G1 X91.686 Y49.158 E4.49028
G1 X90.965 Y48.621 E4.52018
G1 X90.14 Y47.948 E4.55559
G1 X89.047 Y47.019 E4.6033
G1 X88.303 Y46.32 E4.63726
G1 X87.56 Y45.552 E4.6728
G1 X86.636 Y44.56 E4.71789
G1 X85.964 Y43.765 E4.75251
G1 X85.297 Y42.895 E4.78897
G1 X84.487 Y41.791 E4.83452
G1 X83.914 Y40.926 E4.86903
G1 X83.373 Y40.017 E4.90421
G1 X82.67 Y38.779 E4.95156
G1 X82.216 Y37.879 E4.98509
G1 X81.812 Y36.974 E5.01805
G1 X81.234 Y35.613 E5.06723
G1 X80.86 Y34.584 E5.10365
G1 X80.392 Y33.065 E5.15651
G1 X80.141 Y32.182 E5.18704
G1 X79.929 Y31.272 E5.21812
G1 X79.599 Y29.473 E5.27895
G1 X79.488 Y28.774 E5.30249
G1 X79.383 Y27.877 E5.33253
G1 X79.304 Y26.758 E5.36984
G1 X79.233 Y25.358 E5.41647
G1 X79.229 Y24.384 E5.44886
G1 X79.304 Y23.484 E5.4789
G1 X79.481 Y22.454 E5.51366
G1 X79.724 Y21.547 E5.54489
G0 F6000 X80.1 Y21.684
G1 F1200 X80.433 Y20.769 E5.57728
G1 X80.831 Y19.919 E5.60849
G1 X81.303 Y19.108 E5.6397
G1 X81.845 Y18.342 E5.67091
G1 X82.452 Y17.627 E5.70211
G1 X83.12 Y16.968 E5.73332
G1 X83.844 Y16.37 E5.76455
G1 X84.588 Y15.858 E5.79459
G1 X85.436 Y15.38 E5.82697
G1 X86.292 Y14.994 E5.8582
G1 X87.178 Y14.684 E5.88942
G1 X88.088 Y14.455 E5.92063
G1 X89.013 Y14.307 E5.95179
G1 X89.881 Y14.243 E5.98073
G1 X90.52 Y14.228 E6.00199
G1 X98.007 Y14.228 E6.25101
G1 X98.867 Y14.24 E6.27962
G1 X99.713 Y14.286 E6.3078
G1 X102.926 Y14.566 E6.41507
G1 X105.429 Y14.706 E6.49845
G1 X107.965 Y14.777 E6.58283
G1 X110.476 Y14.777 E6.66634
G1 X113.041 Y14.704 E6.75169
G1 X115.521 Y14.563 E6.83431
G1 X117.727 Y14.379 E6.90794
G1 X118.727 Y14.284 E6.94135
G1 X119.561 Y14.238 E6.96913
G1 X120.326 Y14.228 E6.99457
G1 X127.654 Y14.229 E7.2383
G1 X128.368 Y14.24 E7.26205
G1 X129.305 Y14.296 E7.29327
G1 X130.233 Y14.435 E7.32448
G1 X131.146 Y14.656 E7.35573
G1 X132.035 Y14.957 E7.38694
G1 X132.894 Y15.335 E7.41816
G1 X133.715 Y15.787 E7.44933
G1 X134.466 Y16.289 E7.47938
G1 X135.225 Y16.901 E7.5118
G1 X135.899 Y17.554 E7.54302
G1 X136.513 Y18.263 E7.57421
G1 X137.063 Y19.024 E7.60544
G1 X137.525 Y19.8 E7.63548
G1 X137.948 Y20.677 E7.66786
G1 X138.277 Y21.555 E7.69905
G1 X138.528 Y22.46 E7.73029
G1 X138.698 Y23.383 E7.7615
G1 X138.786 Y24.32 E7.7928
G1 X138.784 Y25.385 E7.82823
G1 X138.699 Y27.013 E7.88245
G1 X138.642 Y27.794 E7.90849
G1 X138.537 Y28.698 E7.93876
G1 X138.413 Y29.472 E7.96483
G1 X138.114 Y31.113 E8.02031
G1 X137.89 Y32.074 E8.05313
G1 X137.609 Y33.058 E8.08717
G1 X137.2 Y34.395 E8.13367
G1 X136.858 Y35.344 E8.16722
G1 X136.449 Y36.329 E8.20269
G1 X135.89 Y37.601 E8.24891
G1 X135.454 Y38.478 E8.28148
G1 X134.934 Y39.408 E8.31692
G1 X134.23 Y40.607 E8.36317
G1 X133.689 Y41.437 E8.39612
G1 X133.066 Y42.296 E8.43141
G1 X132.221 Y43.414 E8.47802
G1 X131.593 Y44.168 E8.51066
G1 X131.046 Y44.765 E8.53759
G1 X129.907 Y45.958 E8.59245
G1 X129.211 Y46.622 E8.62444
G1 X128.392 Y47.329 E8.66043
G1 X127.308 Y48.225 E8.70721
G1 X126.537 Y48.803 E8.73926
G1 X125.686 Y49.38 E8.77345
G1 X124.471 Y50.166 E8.82158
G1 X123.568 Y50.689 E8.85629
G1 X122.228 Y51.377 E8.90639
G1 X121.346 Y51.805 E8.939
G1 X120.545 Y52.151 E8.96802
G1 X119.542 Y52.533 E9.00371
G1 X118.226 Y53.001 E9.05017
G1 X117.225 Y53.3 E9.08492
G1 X115.533 Y53.715 E9.14286
G1 X114.799 Y53.878 E9.16787
G1 X113.827 Y54.046 E9.20068
G1 X112.303 Y54.236 E9.25176
G1 X111.428 Y54.328 E9.28102
G1 X110.435 Y54.383 E9.3141
G1 X108.892 Y54.396 E9.36542
G1 X107.964 Y54.384 E9.39629
G1 X107.088 Y54.334 E9.42547
G1 X106.246 Y54.25 E9.45362
G1 X104.621 Y54.05 E9.50807
G1 X103.66 Y53.885 E9.5405
G1 X102.613 Y53.652 E9.57618
G1 X101.254 Y53.319 E9.62272
G1 X100.32 Y53.043 E9.65511
G1 X99.301 Y52.687 E9.69101
G1 X98.01 Y52.207 E9.73682
G1 X97.107 Y51.822 E9.76947
G1 X96.117 Y51.34 E9.80609
G1 X94.874 Y50.703 E9.85255
G1 X93.96 Y50.174 E9.88767
G1 X92.445 Y49.191 E9.94774
G1 X91.925 Y48.837 E9.96866
G1 X91.218 Y48.311 E9.99797
G1 X90.399 Y47.643 E10.03312
G1 X89.321 Y46.727 E10.08017
G1 X88.591 Y46.042 E10.11347
G1 X87.853 Y45.279 E10.14877
G1 X86.929 Y44.287 E10.19386
G1 X86.282 Y43.522 E10.22719
G1 X85.62 Y42.658 E10.26339
G1 X84.81 Y41.554 E10.30893
G1 X84.258 Y40.721 E10.34217
G1 X83.721 Y39.819 E10.37708
G1 X83.027 Y38.598 E10.4238
G1 X82.581 Y37.716 E10.45667
G1 X82.18 Y36.818 E10.48938
G1 X81.61 Y35.476 E10.53787
G1 X81.242 Y34.466 E10.57363
G1 X80.777 Y32.955 E10.62621
G1 X80.531 Y32.091 E10.65609
G1 X80.319 Y31.181 E10.68716
G1 X79.994 Y29.41 E10.74705
G1 X79.885 Y28.727 E10.77006
G1 X79.782 Y27.849 E10.79946
G1 X79.703 Y26.738 E10.8365
G1 X79.633 Y25.356 E10.88253
G1 X79.628 Y24.417 E10.91376
G1 X79.703 Y23.517 E10.9438
G1 X79.868 Y22.557 E10.9762
G1 X80.1 Y21.684 E11.00624
G0 F6000 X80.487 Y21.787
G1 F1200 X80.795 Y20.938 E11.03628
G1 X81.177 Y20.12 E11.06631
G1 X81.63 Y19.338 E11.09636
G1 X82.15 Y18.6 E11.12639
G1 X82.733 Y17.911 E11.15641
G1 X83.375 Y17.276 E11.18644
G1 X84.071 Y16.7 E11.21649
G1 X84.815 Y16.188 E11.24653
G1 X85.601 Y15.744 E11.27656
G1 X86.424 Y15.371 E11.30661
G1 X87.276 Y15.072 E11.33664
G1 X88.152 Y14.85 E11.3667
G1 X89.043 Y14.706 E11.39672
G1 X89.89 Y14.643 E11.42497
G1 X90.529 Y14.628 E11.44623
G1 X98.002 Y14.628 E11.69478
G1 X98.845 Y14.639 E11.72282
G1 X99.678 Y14.685 E11.75057
G1 X102.891 Y14.964 E11.85783
G1 X105.418 Y15.106 E11.94202
G1 X107.954 Y15.177 E12.0264
G1 X110.487 Y15.177 E12.11064
G1 X113.052 Y15.104 E12.19599
G1 X115.554 Y14.961 E12.27934
G1 X117.76 Y14.777 E12.35297
G1 X118.749 Y14.683 E12.38601
G1 X119.566 Y14.638 E12.41323
G1 X120.326 Y14.628 E12.43851
G1 X127.648 Y14.629 E12.68204
G1 X128.345 Y14.639 E12.70522
G1 X129.247 Y14.692 E12.73528
G1 X130.14 Y14.824 E12.7653
G1 X131.018 Y15.035 E12.79533
G1 X131.874 Y15.323 E12.82537
G1 X132.702 Y15.686 E12.85544
G1 X133.493 Y16.12 E12.88545
G1 X134.244 Y16.622 E12.9155
G1 X134.947 Y17.189 E12.94553
G1 X135.597 Y17.816 E12.97557
G1 X136.189 Y18.498 E13.00561
G1 X136.719 Y19.229 E13.03564
G1 X137.181 Y20.005 E13.06568
G1 X137.574 Y20.818 E13.09571
G1 X137.892 Y21.663 E13.12574
G1 X138.135 Y22.533 E13.15579
G1 X138.3 Y23.421 E13.18583
G1 X138.386 Y24.32 E13.21586
G1 X138.385 Y25.364 E13.25059
G1 X138.3 Y26.984 E13.30454
G1 X138.245 Y27.748 E13.33002
G1 X138.142 Y28.635 E13.35972
G1 X138.019 Y29.4 E13.38549
G1 X137.724 Y31.022 E13.44032
G1 X137.505 Y31.964 E13.47249
G1 X137.226 Y32.941 E13.50628
G1 X136.817 Y34.278 E13.55279
G1 X136.489 Y35.191 E13.58505
G1 X136.083 Y36.168 E13.62024
G1 X135.532 Y37.423 E13.66583
G1 X135.105 Y38.283 E13.69777
G1 X134.589 Y39.205 E13.73291
G1 X133.885 Y40.404 E13.77915
G1 X133.365 Y41.202 E13.81083
G1 X132.747 Y42.055 E13.84587
G1 X131.914 Y43.158 E13.89184
G1 X131.298 Y43.898 E13.92386
G1 X130.757 Y44.489 E13.95051
G1 X129.631 Y45.669 E14.00476
G1 X128.95 Y46.319 E14.03607
G1 X128.137 Y47.021 E14.0718
G1 X127.068 Y47.905 E14.11793
G1 X126.313 Y48.472 E14.14934
G1 X125.469 Y49.044 E14.18325
G1 X124.271 Y49.82 E14.23072
G1 X123.385 Y50.333 E14.26478
G1 X122.053 Y51.017 E14.31458
G1 X121.187 Y51.438 E14.3466
G1 X120.403 Y51.777 E14.37501
G1 X119.408 Y52.156 E14.41043
G1 X118.111 Y52.618 E14.45622
G1 X117.13 Y52.912 E14.49028
G1 X115.446 Y53.325 E14.54795
G1 X114.731 Y53.484 E14.57231
G1 X113.778 Y53.649 E14.60448
G1 X112.261 Y53.838 E14.65533
G1 X111.386 Y53.93 E14.68459
G1 X110.432 Y53.983 E14.71637
G1 X108.897 Y53.996 E14.76743
G1 X107.987 Y53.985 E14.7977
G1 X107.128 Y53.936 E14.82631
G1 X106.295 Y53.853 E14.85416
G1 X104.688 Y53.656 E14.908
G1 X103.747 Y53.495 E14.93976
G1 X102.708 Y53.263 E14.97517
G1 X101.367 Y52.935 E15.02108
G1 X100.452 Y52.665 E15.05281
G1 X99.44 Y52.312 E15.08846
G1 X98.167 Y51.839 E15.13363
G1 X97.282 Y51.462 E15.16562
G1 X96.299 Y50.984 E15.20198
G1 X95.074 Y50.357 E15.24775
G1 X94.178 Y49.839 E15.28217
G1 X92.67 Y48.86 E15.34197
G1 X92.164 Y48.516 E15.36232
G1 X91.471 Y48.001 E15.39104
G1 X90.658 Y47.338 E15.42593
G1 X89.595 Y46.435 E15.47232
G1 X88.879 Y45.764 E15.50496
G1 X88.146 Y45.006 E15.54003
G1 X87.222 Y44.014 E15.58512
G1 X86.6 Y43.279 E15.61714
G1 X85.943 Y42.421 E15.65309
G1 X85.133 Y41.317 E15.69863
G1 X84.602 Y40.516 E15.73059
G1 X84.069 Y39.621 E15.76524
G1 X83.384 Y38.417 E15.81131
G1 X82.946 Y37.553 E15.84353
G1 X82.548 Y36.662 E15.87599
G1 X81.986 Y35.339 E15.9238
G1 X81.624 Y34.348 E15.95889
G1 X81.162 Y32.845 E16.01119
G1 X80.921 Y32 E16.04041
G1 X80.709 Y31.09 E16.07149
G1 X80.389 Y29.347 E16.13043
G1 X80.282 Y28.68 E16.1529
G1 X80.181 Y27.82 E16.1817
G1 X80.102 Y26.718 E16.21844
G1 X80.033 Y25.353 E16.2639
G1 X80.027 Y24.45 E16.29394
G1 X80.102 Y23.55 E16.32398
G1 X80.255 Y22.66 E16.35401
G1 X80.487 Y21.787 E16.38405
G1 F2700 E11.38405
;MESH:rotaryCollar-couplerMotorLeftPart.stl
G0 F6000 X89.673 Y27.044
G0 X110.269 Y43.196
;TYPE:WALL-INNER
G1 F2700 E16.38405
G1 F1200 X112.395 Y42.944 E16.45526
G1 X114.495 Y42.448 E16.52703
G1 X116.498 Y41.72 E16.59791
G1 X118.395 Y40.767 E16.66852
G1 X120.204 Y39.577 E16.74054
G1 X121.831 Y38.211 E16.8112
G1 X123.299 Y36.653 E16.8824
G1 X124.577 Y34.937 E16.95356
G1 X125.651 Y33.077 E17.025
G1 X126.499 Y31.118 E17.096
G1 X127.111 Y29.073 E17.16699
G1 X127.479 Y26.982 E17.23761
G1 X127.571 Y25.429 E17.28935
G1 X120.265 Y25.428 E17.53235
G1 X120.188 Y26.472 E17.56717
G1 X119.816 Y28.093 E17.62249
G1 X119.223 Y29.615 E17.67681
G1 X118.366 Y31.095 E17.7337
G1 X117.345 Y32.378 E17.78823
G1 X116.143 Y33.492 E17.84274
G1 X114.726 Y34.457 E17.89976
G1 X113.218 Y35.174 E17.9553
G1 X111.683 Y35.648 E18.00873
G1 X110.063 Y35.892 E18.06322
G1 X108.335 Y35.89 E18.12069
G1 X106.734 Y35.649 E18.17454
G1 X105.165 Y35.164 E18.22916
G1 X103.661 Y34.441 E18.28467
G1 X102.27 Y33.492 E18.34067
G1 X101.075 Y32.384 E18.39488
G1 X100.05 Y31.098 E18.44957
G1 X99.193 Y29.619 E18.50643
G1 X98.598 Y28.086 E18.56112
G1 X98.225 Y26.439 E18.61729
G1 X98.148 Y25.428 E18.65101
G1 X90.844 Y25.428 E18.89394
G1 X90.933 Y26.974 E18.94545
G1 X91.301 Y29.065 E19.01606
G1 X91.917 Y31.126 E19.08761
G1 X92.761 Y33.077 E19.15831
G1 X93.835 Y34.933 E19.22963
G1 X95.113 Y36.653 E19.3009
G1 X96.581 Y38.21 E19.37208
G1 X98.207 Y39.573 E19.44264
G1 X100.021 Y40.767 E19.51487
G1 X101.907 Y41.712 E19.58504
G1 X103.925 Y42.452 E19.65653
G1 X106.016 Y42.944 E19.72797
G1 X108.132 Y43.192 E19.79883
G1 X110.269 Y43.196 E19.86991
G0 F6000 X110.292 Y43.596
;TYPE:WALL-OUTER
G1 F1200 X112.465 Y43.338 E19.94269
G1 X114.61 Y42.832 E20.01599
G1 X116.656 Y42.088 E20.0884
G1 X118.595 Y41.114 E20.16057
G1 X120.444 Y39.899 E20.23416
G1 X122.106 Y38.502 E20.30637
G1 X123.606 Y36.911 E20.3791
G1 X124.912 Y35.157 E20.45183
G1 X126.009 Y33.257 E20.5248
G1 X126.875 Y31.255 E20.59735
G1 X127.501 Y29.165 E20.66992
G1 X127.877 Y27.028 E20.74209
G1 X127.995 Y25.029 E20.80869
G1 X119.894 Y25.028 E21.07813
G1 X119.792 Y26.399 E21.12386
G1 X119.432 Y27.978 E21.17772
G1 X118.846 Y29.477 E21.23125
G1 X118.056 Y30.84 E21.28365
G1 X117.05 Y32.106 E21.33743
G1 X115.885 Y33.186 E21.39027
G1 X114.556 Y34.094 E21.4438
G1 X113.1 Y34.792 E21.49751
G1 X111.591 Y35.259 E21.55005
G1 X110.016 Y35.495 E21.60302
G1 X108.394 Y35.494 E21.65696
G1 X106.812 Y35.256 E21.71017
G1 X105.312 Y34.792 E21.7624
G1 X103.86 Y34.094 E21.81598
G1 X102.527 Y33.186 E21.86962
G1 X101.366 Y32.11 E21.92227
G1 X100.358 Y30.841 E21.97618
G1 X99.568 Y29.477 E22.0286
G1 X98.983 Y27.978 E22.08212
G1 X98.624 Y26.408 E22.13569
G1 X98.518 Y25.028 E22.18172
G1 X90.42 Y25.028 E22.45106
G1 X90.535 Y27.02 E22.51743
G1 X90.911 Y29.157 E22.5896
G1 X91.541 Y31.263 E22.66271
G1 X92.403 Y33.257 E22.73496
G1 X93.5 Y35.153 E22.80782
G1 X94.806 Y36.911 E22.88066
G1 X96.306 Y38.502 E22.95338
G1 X97.968 Y39.895 E23.02551
G1 X99.821 Y41.114 E23.09928
G1 X101.748 Y42.08 E23.17098
G1 X103.81 Y42.836 E23.24402
G1 X105.947 Y43.338 E23.31704
G1 X108.108 Y43.592 E23.38941
G1 X110.292 Y43.596 E23.46205
G0 F6000 X110.244 Y42.836
;TYPE:SKIN
G1 F1200 X108.156 Y42.832 E23.53149
G1 X106.083 Y42.586 E23.60092
G1 X104.022 Y42.104 E23.67132
G1 X102.052 Y41.38 E23.74113
G1 X100.201 Y40.45 E23.81003
G1 X98.412 Y39.275 E23.88122
G1 X96.83 Y37.95 E23.94985
G1 X95.382 Y36.415 E24.02004
G1 X94.144 Y34.746 E24.08915
G1 X93.075 Y32.901 E24.16007
G1 X92.253 Y31.003 E24.22887
G1 X91.651 Y28.986 E24.29888
G1 X91.292 Y26.932 E24.36823
G1 X91.225 Y25.788 E24.40635
G1 X97.814 Y25.788 E24.6255
G1 X97.868 Y26.519 E24.64988
