;FLAVOR:Marlin
;TIME:2591
;Filament used: 1.57007m
;Layer height: 0.2
;MINX:33.569
;MINY:10.383
;MINZ:0.2
;MAXX:93.532
;MAXY:70.328
;MAXZ:10
;TARGET_MACHINE.NAME:Creality Ender-3
;Generated with Cura_SteamEngine 5.7.1
M140 S50
M105
M190 S50
M104 S200
M105
M109 S200
M82 ;absolute extrusion mode
; Ender 3 Custom Start G-code
G92 E0 ; Reset Extruder
G28 ; Home all axes
G1 Z2.0 F3000 ; Move Z Axis up little to prevent scratching of Heat Bed
G1 X0.1 Y20 Z0.3 F5000.0 ; Move to start position
G1 X0.1 Y200.0 Z0.3 F1500.0 E15 ; Draw the first line
G1 X0.4 Y200.0 Z0.3 F5000.0 ; Move to side a little
G1 X0.4 Y20 Z0.3 F1500.0 E30 ; Draw the second line
G92 E0 ; Reset Extruder
G1 Z2.0 F3000 ; Move Z Axis up little to prevent scratching of Heat Bed
G1 X5 Y20 Z0.3 F5000.0 ; Move over to prevent blob squish
G92 E0
G92 E0
G1 F2700 E-5
;LAYER_COUNT:50
;LAYER:0
M107
G0 F6000 X38.188 Y24.359 Z0.2
;TYPE:SKIRT
G1 F2700 E0
G1 F1200 X39.023 Y23.125 E0.04956
G1 X39.428 Y22.545 E0.07308
G1 X39.989 Y21.812 E0.10379
G1 X40.908 Y20.717 E0.15133
G1 X41.405 Y20.144 E0.17656
G1 X41.956 Y19.56 E0.20326
G1 X43.181 Y18.366 E0.26016
G1 X43.835 Y17.762 E0.28977
G1 X44.552 Y17.157 E0.32097
G1 X45.754 Y16.235 E0.37136
G1 X46.442 Y15.729 E0.39976
G1 X47.2 Y15.225 E0.43004
G1 X48.849 Y14.225 E0.49418
G1 X49.194 Y14.027 E0.50741
G1 X49.707 Y13.751 E0.52679
G1 X50.248 Y13.485 E0.54684
G1 X51.281 Y13.007 E0.5847
G1 X52.136 Y12.628 E0.6158
G1 X52.933 Y12.312 E0.64432
G1 X53.548 Y12.097 E0.66599
G1 X54.966 Y11.627 E0.71567
G1 X55.985 Y11.344 E0.75085
G1 X57.811 Y10.932 E0.81311
G1 X58.447 Y10.805 E0.83468
G1 X59.385 Y10.659 E0.86625
G1 X60.624 Y10.525 E0.9077
G1 X61.685 Y10.429 E0.94314
G1 X62.566 Y10.389 E0.97247
G1 X63.813 Y10.383 E1.01394
G1 X64.759 Y10.397 E1.04541
G1 X65.523 Y10.437 E1.07086
G1 X66.457 Y10.523 E1.10205
G1 X67.846 Y10.681 E1.14855
G1 X68.541 Y10.784 E1.17192
G1 X69.241 Y10.919 E1.19563
G1 X70.821 Y11.267 E1.24944
G1 X71.475 Y11.434 E1.27189
G1 X72.305 Y11.682 E1.3007
G1 X73.304 Y12.017 E1.33575
G1 X74.352 Y12.388 E1.37272
G1 X75.199 Y12.73 E1.4031
G1 X76.407 Y13.281 E1.44726
G1 X77.166 Y13.64 E1.47519
G1 X77.971 Y14.066 E1.50548
G1 X78.766 Y14.533 E1.53615
G1 X79.941 Y15.249 E1.58191
G1 X80.824 Y15.848 E1.6174
G1 X81.933 Y16.681 E1.66353
G1 X82.608 Y17.207 E1.692
G1 X83.319 Y17.815 E1.72311
G1 X84.534 Y18.951 E1.77844
G1 X85.09 Y19.497 E1.80435
G1 X85.713 Y20.163 E1.83469
G1 X86.689 Y21.302 E1.88457
G1 X87.169 Y21.885 E1.90969
G1 X87.725 Y22.622 E1.9404
G1 X88.617 Y23.921 E1.99281
G1 X89.024 Y24.541 E2.01748
G1 X89.506 Y25.348 E2.04874
G1 X90.174 Y26.588 E2.09559
G1 X90.599 Y27.418 E2.1266
G1 X90.934 Y28.141 E2.1531
G1 X91.164 Y28.689 E2.17287
G1 X91.655 Y29.922 E2.21701
G1 X91.965 Y30.778 E2.24729
G1 X92.178 Y31.451 E2.27077
G1 X92.558 Y32.806 E2.31758
G1 X92.757 Y33.568 E2.34377
G1 X92.96 Y34.514 E2.37595
G1 X93.205 Y35.987 E2.42562
G1 X93.314 Y36.727 E2.45049
G1 X93.408 Y37.638 E2.48096
G1 X93.504 Y39.216 E2.53354
G1 X93.532 Y39.941 E2.55767
G1 X93.529 Y40.864 E2.58837
G1 X93.463 Y42.256 E2.63472
G1 X93.399 Y43.21 E2.66652
G1 X93.317 Y43.979 E2.69224
G1 X93.215 Y44.674 E2.71561
G1 X93.044 Y45.718 E2.75079
G1 X92.911 Y46.446 E2.77541
G1 X92.714 Y47.32 E2.8052
G1 X92.3 Y48.841 E2.85763
G1 X92.101 Y49.521 E2.8812
G1 X91.807 Y50.382 E2.91146
G1 X91.218 Y51.887 E2.96521
G1 X90.93 Y52.578 E2.99011
G1 X90.55 Y53.391 E3.01996
G1 X89.926 Y54.591 E3.06495
G1 X89.47 Y55.428 E3.09665
G1 X89.059 Y56.116 E3.1233
G1 X88.583 Y56.843 E3.15221
G1 X87.742 Y58.067 E3.2016
G1 X87.16 Y58.837 E3.2337
G1 X86.488 Y59.647 E3.26871
G1 X85.684 Y60.58 E3.30967
G1 X85.046 Y61.259 E3.34066
G1 X84.255 Y62.026 E3.37731
G1 X83.314 Y62.907 E3.42018
G1 X82.507 Y63.591 E3.45537
G1 X81.518 Y64.347 E3.49677
G1 X80.607 Y65.019 E3.53442
G1 X79.786 Y65.565 E3.56721
G1 X78.019 Y66.62 E3.63566
G1 X77.065 Y67.124 E3.67155
G1 X75.673 Y67.771 E3.7226
G1 X74.999 Y68.068 E3.7471
G1 X74.16 Y68.398 E3.77709
G1 X72.877 Y68.841 E3.82223
G1 X71.932 Y69.144 E3.85524
G1 X71.045 Y69.385 E3.88581
G1 X69.285 Y69.781 E3.94581
G1 X68.659 Y69.906 E3.96704
G1 X67.714 Y70.053 E3.99885
G1 X66.474 Y70.187 E4.04034
G1 X65.414 Y70.283 E4.07574
G1 X64.531 Y70.323 E4.10513
G1 X63.09 Y70.328 E4.15306
G1 X62.355 Y70.316 E4.17751
G1 X61.554 Y70.274 E4.20419
G1 X60.638 Y70.188 E4.23479
G1 X59.253 Y70.031 E4.28115
G1 X58.548 Y69.926 E4.30486
G1 X57.805 Y69.779 E4.33005
G1 X56.017 Y69.376 E4.39101
G1 X55.134 Y69.138 E4.42143
G1 X54.403 Y68.902 E4.44698
G1 X52.876 Y68.378 E4.50067
G1 X51.858 Y67.968 E4.53717
G1 X50.025 Y67.118 E4.60437
G1 X49.064 Y66.612 E4.6405
G1 X47.789 Y65.851 E4.68988
G1 X47.092 Y65.419 E4.71716
G1 X46.307 Y64.884 E4.74875
G1 X44.987 Y63.894 E4.80363
G1 X44.454 Y63.475 E4.82618
G1 X43.822 Y62.936 E4.85381
G1 X43.108 Y62.276 E4.88615
G1 X42.121 Y61.325 E4.93174
G1 X41.508 Y60.684 E4.96123
G1 X41.064 Y60.177 E4.98365
G1 X39.994 Y58.905 E5.03893
G1 X39.432 Y58.174 E5.0696
G1 X39.004 Y57.562 E5.09444
G1 X38.116 Y56.24 E5.14741
G1 X37.574 Y55.337 E5.18244
G1 X36.813 Y53.911 E5.2362
G1 X36.498 Y53.293 E5.25927
G1 X36.159 Y52.562 E5.28607
G1 X35.864 Y51.845 E5.31186
G1 X35.301 Y50.406 E5.36325
G1 X35 Y49.528 E5.39412
G1 X34.813 Y48.888 E5.4163
G1 X34.383 Y47.297 E5.47111
G1 X34.181 Y46.394 E5.50189
G1 X33.976 Y45.222 E5.54146
G1 X33.792 Y44.031 E5.58155
G1 X33.691 Y43.086 E5.61316
G1 X33.603 Y41.629 E5.6617
G1 X33.569 Y40.806 E5.6891
G1 X33.569 Y39.93 E5.71824
G1 X33.621 Y38.73 E5.75819
G1 X33.692 Y37.563 E5.79707
G1 X33.809 Y36.522 E5.83191
G1 X34.048 Y35.047 E5.88161
G1 X34.174 Y34.341 E5.90547
G1 X34.38 Y33.418 E5.93692
G1 X34.733 Y32.108 E5.98204
G1 X35.021 Y31.125 E6.01611
G1 X35.322 Y30.249 E6.04692
G1 X35.811 Y28.998 E6.0916
G1 X36.179 Y28.111 E6.12354
G1 X36.518 Y27.378 E6.1504
G1 X36.852 Y26.726 E6.17476
G1 X37.628 Y25.282 E6.22929
G1 X38.188 Y24.359 E6.26519
G0 F6000 X38.519 Y24.583
G1 F1200 X39.351 Y23.354 E6.31456
G1 X39.746 Y22.788 E6.33751
G1 X40.307 Y22.055 E6.36821
G1 X41.21 Y20.979 E6.41493
G1 X41.696 Y20.419 E6.43959
G1 X42.247 Y19.835 E6.4663
G1 X43.452 Y18.66 E6.52228
G1 X44.093 Y18.068 E6.5513
G1 X44.81 Y17.463 E6.5825
G1 X45.991 Y16.557 E6.63201
G1 X46.664 Y16.062 E6.6598
G1 X47.407 Y15.567 E6.68949
G1 X49.048 Y14.572 E6.75332
G1 X49.384 Y14.379 E6.76621
G1 X49.884 Y14.11 E6.78509
G1 X50.416 Y13.848 E6.80482
G1 X51.443 Y13.373 E6.84245
G1 X52.283 Y13 E6.87302
G1 X53.065 Y12.69 E6.901
G1 X53.674 Y12.477 E6.92246
G1 X55.092 Y12.007 E6.97214
G1 X56.073 Y11.734 E7.00601
G1 X57.899 Y11.322 E7.06827
G1 X58.509 Y11.2 E7.08896
G1 X59.428 Y11.057 E7.11989
G1 X60.66 Y10.923 E7.16111
G1 X61.703 Y10.829 E7.19594
G1 X62.568 Y10.789 E7.22474
G1 X63.807 Y10.783 E7.26595
G1 X64.738 Y10.796 E7.29692
G1 X65.486 Y10.835 E7.32183
G1 X66.412 Y10.92 E7.35276
G1 X67.788 Y11.077 E7.39883
G1 X68.465 Y11.177 E7.42159
G1 X69.155 Y11.31 E7.44496
G1 X70.723 Y11.655 E7.49836
G1 X71.361 Y11.817 E7.52025
G1 X72.178 Y12.061 E7.54861
G1 X73.171 Y12.394 E7.58345
G1 X74.202 Y12.759 E7.61982
G1 X75.033 Y13.094 E7.64962
G1 X76.236 Y13.642 E7.69359
G1 X76.979 Y13.994 E7.72094
G1 X77.768 Y14.411 E7.75062
G1 X78.558 Y14.875 E7.78109
G1 X79.733 Y15.591 E7.82686
G1 X80.584 Y16.168 E7.86105
G1 X81.687 Y16.997 E7.90695
G1 X82.348 Y17.511 E7.93479
G1 X83.046 Y18.107 E7.96532
G1 X84.254 Y19.237 E8.02034
G1 X84.798 Y19.77 E8.04567
G1 X85.409 Y20.423 E8.07541
G1 X86.38 Y21.556 E8.12504
G1 X86.85 Y22.126 E8.14961
G1 X87.395 Y22.848 E8.1797
G1 X88.283 Y24.141 E8.23187
G1 X88.681 Y24.746 E8.25596
G1 X89.154 Y25.538 E8.28664
G1 X89.818 Y26.771 E8.33322
G1 X90.236 Y27.586 E8.36368
G1 X90.565 Y28.296 E8.38971
G1 X90.792 Y28.837 E8.40922
G1 X91.279 Y30.059 E8.45298
G1 X91.584 Y30.899 E8.4827
G1 X91.793 Y31.559 E8.50573
G1 X92.171 Y32.907 E8.55229
G1 X92.366 Y33.652 E8.5779
G1 X92.565 Y34.58 E8.60947
G1 X92.809 Y36.046 E8.6589
G1 X92.916 Y36.768 E8.68318
G1 X93.009 Y37.662 E8.71307
G1 X93.104 Y39.232 E8.76539
G1 X93.132 Y39.94 E8.78895
G1 X93.129 Y40.845 E8.81905
G1 X93.064 Y42.229 E8.86514
G1 X93.001 Y43.168 E8.89644
G1 X92.921 Y43.921 E8.92162
G1 X92.82 Y44.609 E8.94475
G1 X92.65 Y45.647 E8.97974
G1 X92.521 Y46.358 E9.00377
G1 X92.328 Y47.215 E9.03299
G1 X91.916 Y48.729 E9.08517
G1 X91.722 Y49.392 E9.10815
G1 X91.434 Y50.236 E9.13781
G1 X90.849 Y51.733 E9.19127
G1 X90.568 Y52.409 E9.21562
G1 X90.195 Y53.207 E9.24491
G1 X89.575 Y54.4 E9.28963
G1 X89.127 Y55.223 E9.3208
G1 X88.724 Y55.897 E9.34692
G1 X88.253 Y56.616 E9.37551
G1 X87.412 Y57.84 E9.4249
G1 X86.852 Y58.582 E9.45582
G1 X86.185 Y59.386 E9.49056
G1 X85.393 Y60.306 E9.53094
G1 X84.767 Y60.972 E9.56134
G1 X83.982 Y61.734 E9.59773
G1 X83.055 Y62.602 E9.63997
G1 X82.264 Y63.273 E9.67447
G1 X81.281 Y64.025 E9.71563
G1 X80.385 Y64.686 E9.75266
G1 X79.564 Y65.232 E9.78546
G1 X77.832 Y66.266 E9.85255
G1 X76.896 Y66.761 E9.88777
G1 X75.511 Y67.405 E9.93857
G1 X74.853 Y67.696 E9.9625
G1 X74.029 Y68.02 E9.99195
G1 X72.755 Y68.46 E10.03677
G1 X71.827 Y68.758 E10.06919
G1 X70.957 Y68.995 E10.09918
G1 X69.206 Y69.389 E10.15888
G1 X68.598 Y69.511 E10.1795
G1 X67.671 Y69.655 E10.21071
G1 X66.438 Y69.789 E10.25196
G1 X65.396 Y69.883 E10.28675
G1 X64.53 Y69.923 E10.31559
G1 X63.096 Y69.928 E10.36328
G1 X62.376 Y69.917 E10.38723
G1 X61.591 Y69.876 E10.41338
G1 X60.683 Y69.791 E10.44371
G1 X59.312 Y69.635 E10.4896
G1 X58.607 Y69.53 E10.51331
G1 X57.893 Y69.389 E10.53752
G1 X56.121 Y68.99 E10.59793
G1 X55.257 Y68.757 E10.62769
G1 X54.533 Y68.524 E10.65299
G1 X53.025 Y68.007 E10.70601
G1 X52.026 Y67.605 E10.74183
G1 X50.211 Y66.764 E10.80836
G1 X49.269 Y66.268 E10.84377
G1 X47.999 Y65.511 E10.89295
G1 X47.317 Y65.089 E10.91962
G1 X46.547 Y64.564 E10.95062
G1 X45.234 Y63.579 E11.00521
G1 X44.713 Y63.17 E11.02724
G1 X44.093 Y62.642 E11.05433
G1 X43.385 Y61.988 E11.08638
G1 X42.41 Y61.049 E11.13141
G1 X41.809 Y60.42 E11.16034
G1 X41.37 Y59.92 E11.18247
G1 X40.311 Y58.661 E11.23719
G1 X39.76 Y57.945 E11.26724
G1 X39.336 Y57.339 E11.29184
G1 X38.459 Y56.034 E11.34413
G1 X37.927 Y55.149 E11.37848
G1 X37.169 Y53.729 E11.43201
G1 X36.861 Y53.125 E11.45457
G1 X36.529 Y52.409 E11.48081
G1 X36.236 Y51.699 E11.50636
G1 X35.679 Y50.276 E11.55719
G1 X35.384 Y49.415 E11.58746
G1 X35.199 Y48.784 E11.60933
G1 X34.773 Y47.21 E11.66356
G1 X34.575 Y46.325 E11.69373
G1 X34.371 Y45.161 E11.73303
G1 X34.19 Y43.988 E11.77251
G1 X34.089 Y43.043 E11.80412
G1 X34.003 Y41.612 E11.8518
G1 X33.969 Y40.789 E11.87919
G1 X33.969 Y39.947 E11.9072
G1 X34.02 Y38.754 E11.94692
G1 X34.09 Y37.607 E11.98514
G1 X34.204 Y36.586 E12.01931
G1 X34.442 Y35.117 E12.0688
G1 X34.564 Y34.428 E12.09207
G1 X34.766 Y33.522 E12.12295
G1 X35.117 Y32.22 E12.1678
G1 X35.399 Y31.255 E12.20124
G1 X35.694 Y30.395 E12.23148
G1 X36.181 Y29.151 E12.27591
G1 X36.542 Y28.279 E12.3073
G1 X36.874 Y27.56 E12.33364
G1 X37.204 Y26.915 E12.35774
G1 X37.97 Y25.489 E12.41158
G1 X38.519 Y24.583 E12.44681
G0 F6000 X38.85 Y24.807
G1 F1200 X39.679 Y23.583 E12.49598
G1 X40.064 Y23.031 E12.51836
G1 X40.614 Y22.312 E12.54847
G1 X41.512 Y21.241 E12.59496
G1 X41.987 Y20.694 E12.61905
G1 X42.538 Y20.11 E12.64576
G1 X43.724 Y18.954 E12.70084
G1 X44.351 Y18.374 E12.72925
G1 X45.068 Y17.769 E12.76045
G1 X46.228 Y16.879 E12.80908
G1 X46.886 Y16.395 E12.83625
G1 X47.614 Y15.909 E12.86537
G1 X49.247 Y14.919 E12.92888
G1 X49.574 Y14.731 E12.94143
G1 X50.061 Y14.469 E12.95982
G1 X50.584 Y14.211 E12.97922
G1 X51.605 Y13.739 E13.01663
G1 X52.431 Y13.372 E13.04669
G1 X53.197 Y13.068 E13.0741
G1 X53.8 Y12.857 E13.09535
G1 X55.218 Y12.387 E13.14503
G1 X56.161 Y12.124 E13.1776
G1 X57.978 Y11.714 E13.23955
G1 X58.57 Y11.595 E13.25963
G1 X59.471 Y11.455 E13.28996
G1 X60.696 Y11.321 E13.33095
G1 X61.722 Y11.229 E13.36521
G1 X62.57 Y11.189 E13.39344
G1 X63.802 Y11.183 E13.43442
G1 X64.717 Y11.195 E13.46486
G1 X65.45 Y11.233 E13.48927
G1 X66.367 Y11.317 E13.5199
G1 X67.73 Y11.473 E13.56553
G1 X68.389 Y11.57 E13.58768
G1 X69.069 Y11.701 E13.61071
G1 X70.625 Y12.043 E13.6637
G1 X71.247 Y12.2 E13.68504
G1 X72.051 Y12.44 E13.71295
G1 X73.038 Y12.771 E13.74757
G1 X74.053 Y13.13 E13.78338
G1 X74.867 Y13.458 E13.81257
G1 X76.065 Y14.003 E13.85634
G1 X76.792 Y14.348 E13.88311
G1 X77.565 Y14.756 E13.91218
G1 X78.35 Y15.217 E13.94246
G1 X79.525 Y15.933 E13.98822
G1 X80.344 Y16.488 E14.02113
G1 X81.442 Y17.313 E14.06681
G1 X82.088 Y17.815 E14.09402
G1 X82.773 Y18.399 E14.12396
G1 X83.974 Y19.523 E14.17867
G1 X84.506 Y20.044 E14.20343
G1 X85.105 Y20.683 E14.23256
G1 X86.072 Y21.811 E14.28198
G1 X86.531 Y22.367 E14.30596
G1 X87.065 Y23.075 E14.33546
G1 X87.949 Y24.361 E14.38736
G1 X88.338 Y24.951 E14.41086
G1 X88.802 Y25.728 E14.44097
G1 X89.462 Y26.953 E14.48725
G1 X89.873 Y27.755 E14.51722
G1 X90.196 Y28.45 E14.54271
G1 X90.42 Y28.985 E14.562
G1 X90.903 Y30.196 E14.60536
G1 X91.203 Y31.02 E14.63453
G1 X91.408 Y31.667 E14.6571
G1 X91.784 Y33.009 E14.70346
G1 X91.975 Y33.736 E14.72846
G1 X92.17 Y34.646 E14.75941
G1 X92.413 Y36.105 E14.80861
G1 X92.518 Y36.81 E14.83231
G1 X92.61 Y37.686 E14.86161
G1 X92.704 Y39.248 E14.91366
G1 X92.732 Y39.939 E14.93666
G1 X92.729 Y40.826 E14.96616
G1 X92.665 Y42.202 E15.01198
G1 X92.603 Y43.126 E15.04278
G1 X92.525 Y43.863 E15.06743
G1 X92.425 Y44.544 E15.09032
G1 X92.256 Y45.576 E15.1251
G1 X92.131 Y46.27 E15.14856
G1 X91.942 Y47.11 E15.17719
G1 X91.532 Y48.617 E15.22914
G1 X91.343 Y49.263 E15.25152
G1 X91.061 Y50.091 E15.28062
G1 X90.48 Y51.579 E15.33375
G1 X90.205 Y52.24 E15.35756
G1 X89.84 Y53.023 E15.38629
G1 X89.224 Y54.209 E15.43074
G1 X88.784 Y55.018 E15.46137
G1 X88.39 Y55.678 E15.48694
G1 X87.923 Y56.39 E15.51526
G1 X87.093 Y57.599 E15.56403
G1 X86.544 Y58.327 E15.59436
G1 X85.882 Y59.125 E15.62885
G1 X85.102 Y60.032 E15.66863
G1 X84.488 Y60.685 E15.69845
G1 X83.708 Y61.442 E15.7346
G1 X82.796 Y62.297 E15.77618
G1 X82.021 Y62.955 E15.80999
G1 X81.044 Y63.703 E15.85092
G1 X80.163 Y64.353 E15.88733
G1 X79.342 Y64.899 E15.92012
G1 X77.645 Y65.912 E15.98586
G1 X76.727 Y66.398 E16.02041
G1 X75.349 Y67.039 E16.07095
G1 X74.706 Y67.324 E16.09435
G1 X73.899 Y67.642 E16.1232
G1 X72.632 Y68.079 E16.16777
G1 X71.722 Y68.372 E16.19957
G1 X70.869 Y68.605 E16.22898
G1 X69.127 Y68.997 E16.28837
G1 X68.537 Y69.116 E16.30839
G1 X67.628 Y69.257 E16.33898
G1 X66.402 Y69.391 E16.38
G1 X65.377 Y69.483 E16.41423
G1 X64.529 Y69.523 E16.44247
G1 X63.102 Y69.528 E16.48993
G1 X62.397 Y69.518 E16.51338
G1 X61.628 Y69.478 E16.53899
G1 X60.728 Y69.394 E16.56906
G1 X59.371 Y69.239 E16.61448
G1 X58.684 Y69.137 E16.63758
G1 X57.981 Y68.999 E16.66141
G1 X56.225 Y68.604 E16.72128
G1 X55.379 Y68.376 E16.75042
G1 X54.663 Y68.146 E16.77543
G1 X53.174 Y67.636 E16.82778
G1 X52.194 Y67.242 E16.86291
G1 X50.397 Y66.41 E16.92877
G1 X49.474 Y65.924 E16.96347
G1 X48.209 Y65.171 E17.01243
G1 X47.542 Y64.759 E17.03851
G1 X46.787 Y64.244 E17.0689
G1 X45.481 Y63.264 E17.12321
G1 X44.972 Y62.865 E17.14472
G1 X44.364 Y62.348 E17.17127
G1 X43.662 Y61.7 E17.20304
G1 X42.699 Y60.773 E17.2475
G1 X42.11 Y60.156 E17.27587
G1 X41.676 Y59.662 E17.29774
G1 X40.628 Y58.417 E17.35187
G1 X40.088 Y57.715 E17.38133
G1 X39.668 Y57.116 E17.40566
G1 X38.802 Y55.828 E17.45728
G1 X38.28 Y54.961 E17.49094
G1 X37.525 Y53.547 E17.54425
G1 X37.224 Y52.957 E17.56628
G1 X36.899 Y52.256 E17.59198
G1 X36.608 Y51.553 E17.61729
G1 X36.057 Y50.146 E17.66755
G1 X35.768 Y49.302 E17.69722
G1 X35.585 Y48.679 E17.71881
G1 X35.163 Y47.123 E17.77244
G1 X34.969 Y46.256 E17.80199
G1 X34.766 Y45.1 E17.84102
G1 X34.588 Y43.945 E17.87989
G1 X34.487 Y43 E17.9115
G1 X34.403 Y41.595 E17.95832
G1 X34.369 Y40.772 E17.98571
G1 X34.369 Y39.964 E18.01259
G1 X34.419 Y38.778 E18.05207
G1 X34.488 Y37.651 E18.08962
G1 X34.599 Y36.65 E18.12312
G1 X34.836 Y35.186 E18.17245
G1 X34.954 Y34.515 E18.19511
G1 X35.152 Y33.626 E18.2254
G1 X35.501 Y32.332 E18.26998
G1 X35.777 Y31.385 E18.30278
G1 X36.066 Y30.541 E18.33246
G1 X36.551 Y29.304 E18.37665
G1 X36.912 Y28.432 E18.40804
G1 X37.23 Y27.742 E18.43331
G1 X37.556 Y27.104 E18.45714
G1 X38.312 Y25.696 E18.51029
G1 X38.85 Y24.807 E18.54485
G1 F2700 E13.54485
;MESH:rotaryCollar-couplerEncoder.stl
G0 F6000 X55.725 Y32.225
G0 X57.264 Y30.2
;TYPE:WALL-INNER
G1 F2700 E18.54485
